;FLAVOR:Marlin
;TIME:3355
;Filament used: 1.04369m
;Layer height: 0.25
;MINX:126.46
;MINY:116.076
;MINZ:0.425
;MAXX:162.862
;MAXY:156.932
;MAXZ:26.425
;Generated with Cura_SteamEngine 4.13.0-BETAv2.9
M82 ;absolute extrusion mode
;This G-Code has been generated specifically for the LulzBot TAZ 5
M73 P0                                      ; clear GLCD progress bar
M75			                                ; start GLCD timer
M140 S60    ; start bed heating up
M900 K0.05                      ; set linear advance
G90                                         ; absolute positioning
M107                                        ; disable fans
M82                                         ; set extruder to absolute mode
G28 X0 Y0                                   ; home X and Y
G28 Z0                                      ; home Z
G1 Z15.0 F175                    ; move extruder up
M117 Heating...                             ; progress indicator message on LCD
M109 R205  ; wait for extruder to reach printing temp
M190 R60    ; wait for bed to reach printing temp
G92 E0                                      ; set extruder position to 0
G1 F200 E0                                  ; prime the nozzle with filament
G92 E0                                      ; re-set extruder position to 0
G1 F175                          ; set travel speed
M203 X192 Y208 Z3                           ; set limits on travel speed
M117 TAZ 5 Printing...                      ; progress indicator message on LCD

G92 E0
G92 E0
G1 F1200 E-2
;LAYER_COUNT:105
;LAYER:0
M107
G0 F3150 X127.829 Y117.489 Z0.425
;TYPE:SKIRT
G1 F1200 E0
G1 F900 X128.289 Y117.08 E0.0205
G1 X128.799 Y116.733 E0.04105
G1 X129.349 Y116.456 E0.06156
G1 X129.93 Y116.252 E0.08208
G1 X130.533 Y116.124 E0.10261
G1 X131.21 Y116.076 E0.12522
G1 X135.566 Y116.076 E0.27032
G1 X136.181 Y116.116 E0.29085
G1 X136.785 Y116.235 E0.31135
G1 X137.369 Y116.432 E0.33188
G1 X137.923 Y116.702 E0.35241
G1 X138.002 Y116.754 E0.35556
G1 X143.209 Y116.754 E0.52901
G1 X143.824 Y116.794 E0.54954
G1 X144.428 Y116.913 E0.57004
G1 X145.012 Y117.11 E0.59057
G1 X145.566 Y117.38 E0.6111
G1 X145.777 Y117.52 E0.61954
G1 X145.962 Y117.396 E0.62696
G1 X146.514 Y117.122 E0.64749
G1 X147.096 Y116.921 E0.668
G1 X147.7 Y116.798 E0.68853
G1 X148.346 Y116.754 E0.7101
G1 X149.966 Y116.754 E0.76406
G1 X150.581 Y116.794 E0.78459
G1 X151.185 Y116.913 E0.80509
G1 X151.769 Y117.11 E0.82562
G1 X152.323 Y117.38 E0.84615
G1 X152.837 Y117.72 E0.86668
G1 X153.325 Y118.145 E0.88824
G1 X153.471 Y118.291 E0.89512
G1 X153.877 Y118.754 E0.91563
G1 X154.22 Y119.266 E0.93616
G1 X154.494 Y119.818 E0.95668
G1 X154.695 Y120.4 E0.97719
G1 X154.818 Y121.004 E0.99773
G1 X154.862 Y121.65 E1.0193
G1 X154.862 Y124.48 E1.11356
G1 X157.966 Y124.48 E1.21696
G1 X158.581 Y124.52 E1.23749
G1 X159.185 Y124.639 E1.25799
G1 X159.769 Y124.836 E1.27852
G1 X160.323 Y125.106 E1.29905
G1 X160.837 Y125.446 E1.31958
G1 X161.325 Y125.871 E1.34114
G1 X161.471 Y126.017 E1.34802
G1 X161.877 Y126.48 E1.36853
G1 X162.22 Y126.992 E1.38906
G1 X162.494 Y127.544 E1.40958
G1 X162.695 Y128.126 E1.43009
G1 X162.818 Y128.73 E1.45063
G1 X162.862 Y129.376 E1.4722
G1 X162.862 Y130.087 E1.49588
G1 X162.822 Y130.702 E1.51641
G1 X162.703 Y131.306 E1.53691
G1 X162.506 Y131.89 E1.55744
G1 X162.236 Y132.444 E1.57797
G1 X161.896 Y132.958 E1.5985
G1 X161.862 Y132.997 E1.60023
G1 X161.862 Y140.011 E1.83386
G1 X161.887 Y140.04 E1.83514
G1 X162.228 Y140.553 E1.85566
G1 X162.501 Y141.106 E1.8762
G1 X162.699 Y141.689 E1.89671
G1 X162.82 Y142.293 E1.91723
G1 X162.862 Y142.923 E1.93826
G1 X162.862 Y143.631 E1.96185
G1 X162.822 Y144.246 E1.98238
G1 X162.703 Y144.85 E2.00288
G1 X162.506 Y145.434 E2.02341
G1 X162.236 Y145.988 E2.04394
G1 X161.896 Y146.502 E2.06447
G1 X161.471 Y146.99 E2.08602
G1 X161.325 Y147.136 E2.0929
G1 X160.862 Y147.542 E2.11341
G1 X160.35 Y147.885 E2.13394
G1 X159.798 Y148.159 E2.15447
G1 X159.216 Y148.36 E2.17498
G1 X158.612 Y148.483 E2.19551
G1 X157.967 Y148.527 E2.21705
G1 X154.862 Y148.527 E2.32048
G1 X154.862 Y151.358 E2.41478
G1 X154.822 Y151.973 E2.43531
G1 X154.703 Y152.577 E2.45581
G1 X154.506 Y153.161 E2.47634
G1 X154.236 Y153.715 E2.49687
G1 X153.896 Y154.229 E2.5174
G1 X153.471 Y154.717 E2.53896
G1 X153.325 Y154.863 E2.54584
G1 X152.862 Y155.269 E2.56635
G1 X152.35 Y155.612 E2.58688
G1 X151.798 Y155.886 E2.6074
G1 X151.216 Y156.087 E2.62791
G1 X150.612 Y156.21 E2.64845
G1 X149.966 Y156.254 E2.67002
G1 X148.345 Y156.254 E2.72401
G1 X147.73 Y156.214 E2.74454
G1 X147.126 Y156.095 E2.76505
G1 X146.542 Y155.898 E2.78558
G1 X145.988 Y155.628 E2.80611
G1 X145.779 Y155.49 E2.81445
G1 X145.396 Y155.721 E2.82935
G1 X144.832 Y155.968 E2.84986
G1 X144.241 Y156.141 E2.87037
G1 X143.632 Y156.235 E2.8909
G1 X143.21 Y156.254 E2.90497
G1 X138.008 Y156.254 E3.07825
G1 X137.977 Y156.275 E3.07949
G1 X137.427 Y156.552 E3.10001
G1 X136.846 Y156.756 E3.12052
G1 X136.243 Y156.884 E3.14105
G1 X135.566 Y156.932 E3.16366
G1 X131.21 Y156.932 E3.30876
G1 X130.595 Y156.892 E3.32929
G1 X129.991 Y156.773 E3.3498
G1 X129.407 Y156.576 E3.37033
G1 X128.853 Y156.306 E3.39086
G1 X128.339 Y155.966 E3.41138
G1 X127.873 Y155.563 E3.43191
G1 X127.464 Y155.103 E3.45241
G1 X127.117 Y154.593 E3.47296
G1 X126.84 Y154.043 E3.49347
G1 X126.636 Y153.462 E3.51398
G1 X126.508 Y152.859 E3.53452
G1 X126.46 Y152.182 E3.55712
G1 X126.46 Y149.826 E3.6356
G1 X126.5 Y149.211 E3.65613
G1 X126.619 Y148.607 E3.67664
G1 X126.816 Y148.023 E3.69717
G1 X127.086 Y147.469 E3.7177
G1 X127.138 Y147.39 E3.72085
G1 X127.138 Y125.624 E4.44588
G1 X127.117 Y125.593 E4.44713
G1 X126.84 Y125.043 E4.46764
G1 X126.636 Y124.462 E4.48815
G1 X126.508 Y123.859 E4.50869
G1 X126.46 Y123.182 E4.53129
G1 X126.46 Y120.826 E4.60977
G1 X126.5 Y120.211 E4.6303
G1 X126.619 Y119.607 E4.65081
G1 X126.816 Y119.023 E4.67134
G1 X127.086 Y118.469 E4.69187
G1 X127.426 Y117.955 E4.7124
G1 X127.829 Y117.489 E4.73292
G0 F3150 X128.321 Y117.709
G1 F900 X128.775 Y117.343 E4.75234
G1 X129.274 Y117.043 E4.77174
G1 X129.81 Y116.813 E4.79117
G1 X130.372 Y116.659 E4.81058
G1 X131.21 Y116.576 E4.83863
G1 X135.566 Y116.576 E4.98373
G1 X136.147 Y116.616 E5.00313
G1 X136.718 Y116.735 E5.02256
G1 X137.267 Y116.931 E5.04197
G1 X137.783 Y117.2 E5.06136
G1 X137.859 Y117.254 E5.06446
G1 X143.209 Y117.254 E5.24267
G1 X143.79 Y117.294 E5.26207
G1 X144.361 Y117.413 E5.2815
G1 X144.91 Y117.609 E5.30092
G1 X145.426 Y117.878 E5.3203
G1 X145.78 Y118.116 E5.33451
G1 X146.268 Y117.797 E5.35393
G1 X146.794 Y117.547 E5.37333
G1 X147.35 Y117.372 E5.39275
G1 X147.925 Y117.275 E5.41217
G1 X148.346 Y117.254 E5.42621
G1 X149.966 Y117.254 E5.48018
G1 X150.547 Y117.294 E5.49958
G1 X151.118 Y117.413 E5.519
G1 X151.667 Y117.609 E5.53842
G1 X152.183 Y117.878 E5.55781
G1 X152.659 Y118.216 E5.57725
G1 X153.117 Y118.645 E5.59816
G1 X153.5 Y119.084 E5.61756
G1 X153.819 Y119.572 E5.63698
G1 X154.069 Y120.098 E5.65638
G1 X154.244 Y120.654 E5.6758
G1 X154.341 Y121.229 E5.69522
G1 X154.362 Y121.65 E5.70926
G1 X154.362 Y124.98 E5.82019
G1 X157.966 Y124.98 E5.94024
G1 X158.547 Y125.02 E5.95964
G1 X159.118 Y125.139 E5.97907
G1 X159.667 Y125.335 E5.99848
G1 X160.183 Y125.604 E6.01787
G1 X160.659 Y125.942 E6.03731
G1 X161.117 Y126.371 E6.05822
G1 X161.5 Y126.81 E6.07762
G1 X161.819 Y127.298 E6.09704
G1 X162.069 Y127.824 E6.11644
G1 X162.244 Y128.38 E6.13586
G1 X162.341 Y128.955 E6.15528
G1 X162.362 Y129.376 E6.16932
G1 X162.362 Y130.087 E6.19301
G1 X162.322 Y130.668 E6.21241
G1 X162.203 Y131.239 E6.23184
G1 X162.007 Y131.788 E6.25125
G1 X161.738 Y132.304 E6.27064
G1 X161.4 Y132.78 E6.29008
G1 X161.362 Y132.822 E6.29197
G1 X161.362 Y140.199 E6.5377
G1 X161.509 Y140.369 E6.54519
G1 X161.826 Y140.857 E6.56457
G1 X162.074 Y141.385 E6.584
G1 X162.247 Y141.941 E6.6034
G1 X162.342 Y142.516 E6.62281
G1 X162.362 Y142.923 E6.63639
G1 X162.362 Y143.631 E6.65997
G1 X162.322 Y144.212 E6.67937
G1 X162.203 Y144.783 E6.6988
G1 X162.007 Y145.332 E6.71822
G1 X161.738 Y145.848 E6.7376
G1 X161.4 Y146.324 E6.75705
G1 X160.971 Y146.782 E6.77795
G1 X160.532 Y147.165 E6.79736
G1 X160.044 Y147.484 E6.81678
G1 X159.518 Y147.734 E6.83618
G1 X158.962 Y147.909 E6.85559
G1 X158.387 Y148.006 E6.87502
G1 X157.967 Y148.027 E6.88902
G1 X154.362 Y148.027 E7.00911
G1 X154.362 Y151.358 E7.12006
G1 X154.322 Y151.939 E7.13946
G1 X154.203 Y152.51 E7.15889
G1 X154.007 Y153.059 E7.17831
G1 X153.738 Y153.575 E7.19769
G1 X153.4 Y154.051 E7.21714
G1 X152.971 Y154.509 E7.23804
G1 X152.532 Y154.892 E7.25745
G1 X152.044 Y155.211 E7.27687
G1 X151.518 Y155.461 E7.29627
G1 X150.962 Y155.636 E7.31569
G1 X150.387 Y155.733 E7.33511
G1 X149.966 Y155.754 E7.34915
G1 X148.345 Y155.754 E7.40315
G1 X147.764 Y155.714 E7.42255
G1 X147.193 Y155.595 E7.44198
G1 X146.644 Y155.399 E7.46139
G1 X146.128 Y155.13 E7.48078
G1 X145.778 Y154.881 E7.49509
G1 X145.427 Y155.13 E7.50942
G1 X144.91 Y155.399 E7.52883
G1 X144.361 Y155.595 E7.54825
G1 X143.791 Y155.714 E7.56765
G1 X143.21 Y155.754 E7.58705
G1 X137.853 Y155.754 E7.76549
G1 X137.502 Y155.965 E7.77913
G1 X136.966 Y156.195 E7.79856
G1 X136.404 Y156.349 E7.81797
G1 X135.566 Y156.432 E7.84602
G1 X131.21 Y156.432 E7.99112
G1 X130.629 Y156.392 E8.01052
G1 X130.058 Y156.273 E8.02995
G1 X129.509 Y156.077 E8.04937
G1 X128.993 Y155.808 E8.06875
G1 X128.517 Y155.47 E8.0882
G1 X128.093 Y155.071 E8.10759
G1 X127.727 Y154.617 E8.12702
G1 X127.427 Y154.118 E8.14641
G1 X127.197 Y153.582 E8.16584
G1 X127.043 Y153.02 E8.18525
G1 X126.96 Y152.182 E8.2133
G1 X126.96 Y149.826 E8.29178
G1 X127 Y149.245 E8.31118
G1 X127.119 Y148.674 E8.33061
G1 X127.315 Y148.125 E8.35003
G1 X127.584 Y147.609 E8.36941
G1 X127.638 Y147.533 E8.37252
G1 X127.638 Y125.469 E9.10748
G1 X127.427 Y125.118 E9.12112
G1 X127.197 Y124.582 E9.14055
G1 X127.043 Y124.02 E9.15996
G1 X126.96 Y123.182 E9.18801
G1 X126.96 Y120.826 E9.26649
G1 X127 Y120.245 E9.28589
G1 X127.119 Y119.674 E9.30531
G1 X127.315 Y119.125 E9.32473
G1 X127.584 Y118.609 E9.34412
G1 X127.922 Y118.133 E9.36356
G1 X128.321 Y117.709 E9.38296
G0 F3150 X128.417 Y118.324
G1 F900 X128.811 Y117.944 E9.40119
G1 X129.256 Y117.625 E9.41943
G1 X129.743 Y117.375 E9.43766
G1 X130.261 Y117.198 E9.4559
G1 X130.799 Y117.099 E9.47412
G1 X131.21 Y117.076 E9.48783
G1 X135.566 Y117.076 E9.63293
G1 X136.112 Y117.116 E9.65117
G1 X136.646 Y117.235 E9.66939
G1 X137.157 Y117.43 E9.68761
G1 X137.635 Y117.698 E9.70586
G1 X137.707 Y117.754 E9.7089
G1 X143.209 Y117.754 E9.89218
G1 X143.755 Y117.794 E9.91041
G1 X144.289 Y117.913 E9.92864
G1 X144.8 Y118.108 E9.94686
G1 X145.278 Y118.376 E9.96511
G1 X145.711 Y118.711 E9.98335
G1 X145.778 Y118.78 E9.98655
G1 X146.109 Y118.495 E10.0011
G1 X146.571 Y118.201 E10.01934
G1 X147.07 Y117.978 E10.03755
G1 X147.597 Y117.83 E10.05578
G1 X148.346 Y117.754 E10.08086
G1 X149.966 Y117.754 E10.13482
G1 X150.512 Y117.794 E10.15306
G1 X151.046 Y117.913 E10.17128
G1 X151.557 Y118.108 E10.1895
G1 X152.035 Y118.376 E10.20775
G1 X152.618 Y118.852 E10.23282
G1 X152.764 Y118.998 E10.2397
G1 X153.121 Y119.413 E10.25794
G1 X153.415 Y119.875 E10.27618
G1 X153.638 Y120.374 E10.29438
G1 X153.786 Y120.901 E10.31262
G1 X153.862 Y121.65 E10.3377
G1 X153.862 Y125.48 E10.46527
G1 X157.966 Y125.48 E10.60198
G1 X158.512 Y125.52 E10.62022
G1 X159.046 Y125.639 E10.63844
G1 X159.557 Y125.834 E10.65666
G1 X160.035 Y126.102 E10.67491
G1 X160.618 Y126.578 E10.69998
G1 X160.764 Y126.724 E10.70686
G1 X161.121 Y127.139 E10.7251
G1 X161.415 Y127.601 E10.74334
G1 X161.638 Y128.1 E10.76154
G1 X161.786 Y128.627 E10.77978
G1 X161.862 Y129.376 E10.80486
G1 X161.862 Y130.087 E10.82854
G1 X161.822 Y130.633 E10.84678
G1 X161.703 Y131.167 E10.865
G1 X161.508 Y131.678 E10.88322
G1 X161.24 Y132.156 E10.90147
G1 X160.862 Y132.619 E10.92138
G1 X160.862 Y140.384 E11.18004
G1 X161.129 Y140.696 E11.19372
G1 X161.421 Y141.159 E11.21195
G1 X161.643 Y141.659 E11.23017
G1 X161.789 Y142.187 E11.24842
G1 X161.862 Y142.923 E11.27306
G1 X161.862 Y143.631 E11.29664
G1 X161.822 Y144.177 E11.31488
G1 X161.703 Y144.711 E11.3331
G1 X161.508 Y145.222 E11.35132
G1 X161.24 Y145.7 E11.36957
G1 X160.764 Y146.283 E11.39465
G1 X160.618 Y146.429 E11.40152
G1 X160.203 Y146.786 E11.41976
G1 X159.741 Y147.08 E11.438
G1 X159.242 Y147.303 E11.45621
G1 X158.715 Y147.451 E11.47444
G1 X157.966 Y147.527 E11.49952
G1 X153.862 Y147.528 E11.63622
G1 X153.862 Y151.358 E11.7638
G1 X153.822 Y151.904 E11.78204
G1 X153.703 Y152.438 E11.80026
G1 X153.508 Y152.949 E11.81848
G1 X153.24 Y153.427 E11.83673
G1 X152.764 Y154.01 E11.8618
G1 X152.618 Y154.156 E11.86868
G1 X152.203 Y154.513 E11.88692
G1 X151.741 Y154.807 E11.90516
G1 X151.242 Y155.03 E11.92336
G1 X150.715 Y155.178 E11.9416
G1 X149.966 Y155.254 E11.96668
G1 X148.345 Y155.254 E12.02067
G1 X147.799 Y155.214 E12.03891
G1 X147.265 Y155.095 E12.05713
G1 X146.754 Y154.9 E12.07535
G1 X146.276 Y154.632 E12.09361
G1 X145.782 Y154.228 E12.11486
G1 X145.401 Y154.548 E12.13144
G1 X144.934 Y154.834 E12.14968
G1 X144.431 Y155.05 E12.16791
G1 X143.902 Y155.19 E12.18614
G1 X143.21 Y155.254 E12.20929
G1 X137.7 Y155.254 E12.39283
G1 X137.52 Y155.383 E12.40021
G1 X137.033 Y155.633 E12.41844
G1 X136.515 Y155.81 E12.43668
G1 X135.977 Y155.909 E12.4549
G1 X135.566 Y155.932 E12.46861
G1 X131.21 Y155.932 E12.61371
G1 X130.664 Y155.892 E12.63195
G1 X130.13 Y155.773 E12.65017
G1 X129.619 Y155.578 E12.66839
G1 X129.141 Y155.31 E12.68664
G1 X128.708 Y154.975 E12.70488
G1 X128.328 Y154.581 E12.72311
G1 X128.009 Y154.136 E12.74135
G1 X127.759 Y153.649 E12.75959
G1 X127.582 Y153.131 E12.77782
G1 X127.483 Y152.593 E12.79604
G1 X127.46 Y152.182 E12.80975
G1 X127.46 Y149.826 E12.88823
G1 X127.5 Y149.28 E12.90647
G1 X127.619 Y148.746 E12.92469
G1 X127.814 Y148.235 E12.94291
G1 X128.082 Y147.757 E12.96117
G1 X128.138 Y147.685 E12.9642
G1 X128.138 Y125.316 E13.70932
G1 X128.009 Y125.136 E13.7167
G1 X127.759 Y124.649 E13.73494
G1 X127.582 Y124.131 E13.75317
G1 X127.483 Y123.593 E13.77139
G1 X127.46 Y123.182 E13.7851
G1 X127.46 Y120.826 E13.86358
G1 X127.5 Y120.28 E13.88182
G1 X127.619 Y119.746 E13.90004
G1 X127.814 Y119.235 E13.91826
G1 X128.082 Y118.757 E13.93652
G1 X128.417 Y118.324 E13.95475
G0 F3150 X128.91 Y118.53
G1 F900 X129.297 Y118.198 E13.97174
G1 X129.732 Y117.932 E13.98872
G1 X130.202 Y117.736 E14.00568
G1 X130.697 Y117.617 E14.02264
G1 X131.21 Y117.576 E14.03979
G1 X135.566 Y117.576 E14.18489
G1 X136.074 Y117.616 E14.20186
G1 X136.569 Y117.735 E14.21882
G1 X137.04 Y117.93 E14.2358
G1 X137.475 Y118.196 E14.25278
G1 X137.543 Y118.254 E14.25576
G1 X143.209 Y118.254 E14.4445
G1 X143.717 Y118.294 E14.46147
G1 X144.212 Y118.413 E14.47843
G1 X144.683 Y118.608 E14.49541
G1 X145.118 Y118.874 E14.51239
G1 X145.505 Y119.204 E14.52934
G1 X145.767 Y119.51 E14.54275
G1 X146.048 Y119.206 E14.55654
G1 X146.435 Y118.875 E14.57351
G1 X146.87 Y118.609 E14.59049
G1 X147.34 Y118.414 E14.60744
G1 X147.836 Y118.294 E14.62444
G1 X148.346 Y118.254 E14.64148
G1 X149.966 Y118.254 E14.69544
G1 X150.474 Y118.294 E14.71242
G1 X150.969 Y118.413 E14.72938
G1 X151.44 Y118.608 E14.74636
G1 X151.875 Y118.874 E14.76334
G1 X152.264 Y119.206 E14.78038
G1 X152.41 Y119.352 E14.78725
G1 X152.741 Y119.739 E14.80422
G1 X153.007 Y120.174 E14.8212
G1 X153.202 Y120.644 E14.83815
G1 X153.322 Y121.14 E14.85515
G1 X153.362 Y121.65 E14.87219
G1 X153.362 Y125.98 E15.01642
G1 X157.966 Y125.98 E15.16978
G1 X158.474 Y126.02 E15.18676
G1 X158.969 Y126.139 E15.20372
G1 X159.44 Y126.334 E15.2207
G1 X159.875 Y126.6 E15.23768
G1 X160.264 Y126.932 E15.25472
G1 X160.41 Y127.078 E15.2616
G1 X160.741 Y127.465 E15.27856
G1 X161.007 Y127.9 E15.29554
G1 X161.202 Y128.37 E15.31249
G1 X161.322 Y128.866 E15.32949
G1 X161.362 Y129.376 E15.34653
G1 X161.362 Y130.087 E15.37022
G1 X161.322 Y130.595 E15.38719
G1 X161.203 Y131.09 E15.40415
G1 X161.008 Y131.561 E15.42113
G1 X160.742 Y131.996 E15.43811
G1 X160.41 Y132.385 E15.45515
G1 X160.362 Y132.433 E15.45741
G1 X160.362 Y140.577 E15.72869
G1 X160.418 Y140.633 E15.73133
G1 X160.748 Y141.021 E15.74829
G1 X161.012 Y141.457 E15.76527
G1 X161.206 Y141.928 E15.78224
G1 X161.323 Y142.424 E15.79922
G1 X161.362 Y142.923 E15.81589
G1 X161.362 Y143.631 E15.83947
