(v1.6-af)
(1001)
(Machine)
(  vendor: Autodesk)
(  model: Generic 3-axis)
(  description: This machine has XYZ axis on the Head)
(T1  D=0.125 CR=0 - ZMIN=-0.1181 - flat end mill)
G90 G94
G17
G20
G28 G91 Z0
G90

(2D Adaptive1)
T1
S6500 M3
G54
M8
G0 X0.3084 Y0.294
Z0.6
Z0.2
Z0.075
G1 X0.3085 Y0.2942 Z0.0665 F39.37
X0.3087 Y0.2951 Z0.058
X0.3091 Y0.2965 Z0.0496
X0.3096 Y0.2984 Z0.0413
X0.3102 Y0.3009 Z0.0331
X0.311 Y0.304 Z0.0252
X0.3119 Y0.3075 Z0.0175
X0.313 Y0.3116 Z0.0101
X0.3141 Y0.3161 Z0.0029
X0.3154 Y0.3211 Z-0.0039
X0.3168 Y0.3266 Z-0.0103
X0.3183 Y0.3324 Z-0.0164
X0.3199 Y0.3386 Z-0.022
X0.3216 Y0.3452 Z-0.0271
X0.3233 Y0.3521 Z-0.0318
X0.3252 Y0.3593 Z-0.036
X0.3271 Y0.3668 Z-0.0397
X0.3291 Y0.3745 Z-0.0428
X0.3311 Y0.3824 Z-0.0454
X0.3332 Y0.3904 Z-0.0474
X0.3352 Y0.3986 Z-0.0488
X0.3373 Y0.4068 Z-0.0497
X0.3395 Y0.415 Z-0.05
G3 X0.3493 Y0.4831 I-0.3091 J0.0792
G1 Y0.5061
X0.3488 Y0.5121
X0.3465 Y0.5246
X0.3468 Y0.5501
X0.3551 Y0.5742
X0.3678 Y0.5963
X0.3828 Y0.6168
X0.3993 Y0.6363
X0.4165 Y0.6551
X0.4341 Y0.6735
X0.4521 Y0.6916
X0.4702 Y0.7095
X0.4883 Y0.7274
X0.5065 Y0.7452
X0.5431 Y0.7808
X0.5642 Y0.795
X0.5881 Y0.8038
X0.613 Y0.8092
X0.6383 Y0.8124
X0.6637 Y0.8144
X0.6891 Y0.8155
X0.7146 Y0.8161
X0.7401 Y0.8165
X0.7656 Y0.8167
X0.791 Y0.8169
X0.842 Y0.817
X0.9184 Y0.8171
X0.9439 Y0.8169
X0.9682 Y0.809
X0.9906 Y0.7968
X1.0115 Y0.7823
X1.0314 Y0.7664
X1.0507 Y0.7498
X1.0696 Y0.7326
X1.0882 Y0.7153
X1.1067 Y0.6977
X1.1251 Y0.6801
X1.1434 Y0.6624
X1.1847 Y0.6226
X1.1882 Y0.6173
X1.1927 Y0.6054
X1.1937 Y0.5799
X1.1861 Y0.5556
X1.1739 Y0.5332
X1.1591 Y0.5125
X1.1427 Y0.4929
X1.1256 Y0.4741
X1.108 Y0.4557
X1.0901 Y0.4375
X1.072 Y0.4196
X1.0539 Y0.4017
X1.0356 Y0.3839
X1.0174 Y0.3661
X0.9953 Y0.3534
X0.9711 Y0.3455
X0.9461 Y0.3407
X0.9207 Y0.3379
X0.8953 Y0.3362
X0.8699 Y0.3352
X0.8444 Y0.3346
X0.8189 Y0.3343
X0.7934 Y0.3341
X0.7679 Y0.334
X0.717 Y0.3339
X0.6405 Y0.3338
X0.6151 Y0.3358
X0.5913 Y0.3447
X0.5692 Y0.3574
X0.5485 Y0.3723
X0.5287 Y0.3884
X0.5095 Y0.4051
X0.4907 Y0.4223
X0.4721 Y0.4397
X0.4536 Y0.4573
X0.4352 Y0.4749
X0.4277 Y0.4852
X0.422 Y0.4966
X0.4187 Y0.5089
X0.4168 Y0.5343
X0.4226 Y0.5591
X0.4333 Y0.5823
X0.4469 Y0.6038
X0.4623 Y0.6241
X0.4788 Y0.6435
X0.4961 Y0.6623
X0.5137 Y0.6807
X0.5316 Y0.6988
X0.5497 Y0.7167
X0.57 Y0.7321
X0.5928 Y0.7436
X0.617 Y0.7516
X0.6418 Y0.757
X0.6671 Y0.7607
X0.6924 Y0.763
X0.7179 Y0.7645
X0.7433 Y0.7655
X0.7688 Y0.7661
X0.7943 Y0.7665
X0.8198 Y0.7667
X0.8453 Y0.7668
X0.8707 Y0.7669
X0.8962
X0.9214 Y0.763
X0.9455 Y0.7547
X0.9682 Y0.7432
X0.9896 Y0.7294
X1.0101 Y0.7142
X1.0298 Y0.6981
X1.049 Y0.6813
X1.0679 Y0.6642
X1.0866 Y0.6469
X1.1051 Y0.6294
X1.111 Y0.6181
X1.114 Y0.6057
X1.115 Y0.5802
X1.1083 Y0.5557
X1.097 Y0.5328
X1.0829 Y0.5116
X1.0672 Y0.4916
X1.0504 Y0.4723
X1.0331 Y0.4537
X1.0154 Y0.4354
X0.9953 Y0.4197
X0.9727 Y0.4079
X0.9486 Y0.3996
X0.9238 Y0.394
X0.8985 Y0.3903
X0.8732 Y0.3879
X0.8477 Y0.3864
X0.8223 Y0.3854
X0.7968 Y0.3848
X0.7713 Y0.3844
X0.7458 Y0.3842
X0.7204 Y0.384
X0.6949 Y0.3839
X0.6694 Y0.3842
X0.6442 Y0.388
X0.6201 Y0.3961
X0.5973 Y0.4075
X0.5757 Y0.4211
X0.5552 Y0.4363
X0.5355 Y0.4523
X0.5162 Y0.469
X0.507 Y0.4778
X0.4995 Y0.4881
X0.4945 Y0.4999
X0.4894 Y0.5248
X0.4929 Y0.5501
X0.502 Y0.5739
X0.5145 Y0.596
X0.5293 Y0.6168
X0.5454 Y0.6366
X0.5626 Y0.6554
X0.5819 Y0.672
X0.6037 Y0.6851
X0.6272 Y0.695
X0.6517 Y0.702
X0.6767 Y0.707
X0.702 Y0.7104
X0.7274 Y0.7127
X0.7528 Y0.7142
X0.7782 Y0.7152
X0.8037 Y0.7159
X0.8292 Y0.7163
X0.8547 Y0.7166
X0.8801 Y0.7145
X0.9049 Y0.7089
X0.9287 Y0.6998
X0.9513 Y0.688
X0.9728 Y0.6743
X0.9933 Y0.6592
X1.0132 Y0.6433
X1.0229 Y0.635
X1.0306 Y0.6248
X1.0354 Y0.613
X1.0399 Y0.5879
X1.0357 Y0.5628
X1.026 Y0.5392
X1.013 Y0.5173
X0.9976 Y0.497
X0.979 Y0.4796
X0.9575 Y0.4659
X0.9341 Y0.4558
X0.9096 Y0.4487
X0.8847 Y0.4437
X0.8594 Y0.4403
X0.834 Y0.4381
X0.8086 Y0.4366
X0.7831 Y0.4356
X0.7576 Y0.4349
X0.7322 Y0.4345
X0.7067 Y0.4346
X0.6813 Y0.4371
X0.6566 Y0.4432
X0.633 Y0.4527
X0.6105 Y0.4648
X0.5891 Y0.4786
X0.5799 Y0.4874
X0.5732 Y0.4982
X0.5692 Y0.5103
X0.5663 Y0.5357
X0.5713 Y0.5606
X0.5816 Y0.5839
X0.5965 Y0.6047
X0.6153 Y0.6218
X0.6371 Y0.635
X0.6607 Y0.6447
X0.6852 Y0.6517
X0.7102 Y0.6566
X0.7354 Y0.66
X0.7608 Y0.6624
X0.7862 Y0.6639
X0.8117 Y0.665
X0.8372 Y0.6648
X0.8625 Y0.6618
X0.8872 Y0.6555
X0.9108 Y0.6461
X0.9334 Y0.6342
X0.9438 Y0.6269
X0.9516 Y0.6168
X0.9564 Y0.605
X0.9584 Y0.5924
X0.9578 Y0.5797
X0.9548 Y0.5673
X0.9441 Y0.5442
X0.9264 Y0.5259
X0.9047 Y0.5125
X0.881 Y0.5032
X0.8563 Y0.4967
X0.8312 Y0.4923
X0.8059 Y0.4894
X0.7805 Y0.4875
X0.755 Y0.4863
X0.7296 Y0.4862
X0.7042 Y0.4889
X0.6795 Y0.495
X0.6737 Y0.4978
X0.6687 Y0.5016
X0.6646 Y0.5065
X0.6616 Y0.5122
X0.66 Y0.5183
X0.6591 Y0.531
X0.6623 Y0.5434
X0.6692 Y0.5541
X0.6864 Y0.5729
X0.7082 Y0.586
X0.7321 Y0.595
X0.7569 Y0.6009
X0.7821 Y0.6048
X0.8075 Y0.6065
X0.8329 Y0.6053
X0.8361 Y0.6046
X0.8381 Y0.6045 Z-0.0499
X0.8411 Y0.6052 Z-0.0496
X0.8441 Y0.606 Z-0.0489
X0.8464 Y0.6081 Z-0.0478
X0.8486 Y0.6102 Z-0.0464
X0.8496 Y0.6132 Z-0.0444
X0.8505 Y0.616 Z-0.042
X0.8506 Y0.617 Z-0.0412
Z-0.0411
X0.85 Y0.6193 Z-0.0385
X0.8495 Y0.6213 Z-0.0356
X0.8491 Y0.623 Z-0.0324
X0.8483 Y0.624 Z-0.0292
X0.8478 Y0.6248 Z-0.0259
X0.8474 Y0.6253 Z-0.0225
X0.8473 Y0.6254 Z-0.0191
G0 Z0.2
X0.3084 Y0.294
Z0.1909
G1 Z0.0659 F39.37
X0.3085 Y0.2942 Z0.0574
X0.3087 Y0.2951 Z0.0489
X0.3091 Y0.2965 Z0.0405
X0.3096 Y0.2984 Z0.0322
X0.3102 Y0.3009 Z0.0241
X0.311 Y0.304 Z0.0161
X0.3119 Y0.3075 Z0.0084
X0.313 Y0.3116 Z0.001
X0.3141 Y0.3161 Z-0.0061
X0.3154 Y0.3211 Z-0.0129
X0.3168 Y0.3266 Z-0.0194
X0.3183 Y0.3324 Z-0.0254
X0.3199 Y0.3386 Z-0.031
X0.3216 Y0.3452 Z-0.0362
X0.3233 Y0.3521 Z-0.0409
X0.3252 Y0.3593 Z-0.045
X0.3271 Y0.3668 Z-0.0487
X0.3291 Y0.3745 Z-0.0518
X0.3311 Y0.3824 Z-0.0544
X0.3332 Y0.3904 Z-0.0564
X0.3352 Y0.3986 Z-0.0579
X0.3373 Y0.4068 Z-0.0588
X0.3395 Y0.415 Z-0.0591
G3 X0.3493 Y0.4831 I-0.3091 J0.0792
G1 Y0.5061
X0.3488 Y0.5121
X0.3465 Y0.5246
X0.3468 Y0.5501
X0.3551 Y0.5742
X0.3678 Y0.5963
X0.3828 Y0.6168
X0.3993 Y0.6363
X0.4165 Y0.6551
X0.4341 Y0.6735
X0.4521 Y0.6916
X0.4702 Y0.7095
X0.4883 Y0.7274
X0.5065 Y0.7452
X0.5431 Y0.7808
X0.5642 Y0.795
X0.5881 Y0.8038
X0.613 Y0.8092
X0.6383 Y0.8124
X0.6637 Y0.8144
X0.6891 Y0.8155
X0.7146 Y0.8161
X0.7401 Y0.8165
X0.7656 Y0.8167
X0.791 Y0.8169
X0.842 Y0.817
X0.9184 Y0.8171
X0.9439 Y0.8169
X0.9682 Y0.809
X0.9906 Y0.7968
X1.0115 Y0.7823
X1.0314 Y0.7664
X1.0507 Y0.7498
X1.0696 Y0.7326
X1.0882 Y0.7153
X1.1067 Y0.6977
X1.1251 Y0.6801
X1.1434 Y0.6624
X1.1847 Y0.6226
X1.1882 Y0.6173
X1.1927 Y0.6054
X1.1937 Y0.5799
X1.1861 Y0.5556
X1.1739 Y0.5332
X1.1591 Y0.5125
X1.1427 Y0.4929
X1.1256 Y0.4741
X1.108 Y0.4557
X1.0901 Y0.4375
X1.072 Y0.4196
X1.0539 Y0.4017
X1.0356 Y0.3839
X1.0174 Y0.3661
X0.9953 Y0.3534
X0.9711 Y0.3455
X0.9461 Y0.3407
X0.9207 Y0.3379
X0.8953 Y0.3362
X0.8699 Y0.3352
X0.8444 Y0.3346
X0.8189 Y0.3343
X0.7934 Y0.3341
X0.7679 Y0.334
X0.717 Y0.3339
X0.6405 Y0.3338
X0.6151 Y0.3358
X0.5913 Y0.3447
X0.5692 Y0.3574
X0.5485 Y0.3723
X0.5287 Y0.3884
X0.5095 Y0.4051
X0.4907 Y0.4223
X0.4721 Y0.4397
X0.4536 Y0.4573
X0.4352 Y0.4749
X0.4277 Y0.4852
X0.422 Y0.4966
X0.4187 Y0.5089
X0.4168 Y0.5343
X0.4226 Y0.5591
X0.4333 Y0.5823
X0.4469 Y0.6038
X0.4623 Y0.6241
X0.4788 Y0.6435
X0.4961 Y0.6623
X0.5137 Y0.6807
X0.5316 Y0.6988
X0.5497 Y0.7167
X0.57 Y0.7321
X0.5928 Y0.7436
X0.617 Y0.7516
X0.6418 Y0.757
X0.6671 Y0.7607
X0.6924 Y0.763
X0.7179 Y0.7645
X0.7433 Y0.7655
X0.7688 Y0.7661
X0.7943 Y0.7665
X0.8198 Y0.7667
X0.8453 Y0.7668
X0.8707 Y0.7669
X0.8962
X0.9214 Y0.763
X0.9455 Y0.7547
X0.9682 Y0.7432
X0.9896 Y0.7294
X1.0101 Y0.7142
X1.0298 Y0.6981
X1.049 Y0.6813
X1.0679 Y0.6642
X1.0866 Y0.6469
X1.1051 Y0.6294
X1.111 Y0.6181
X1.114 Y0.6057
X1.115 Y0.5802
X1.1083 Y0.5557
X1.097 Y0.5328
X1.0829 Y0.5116
X1.0672 Y0.4916
X1.0504 Y0.4723
X1.0331 Y0.4537
X1.0154 Y0.4354
X0.9953 Y0.4197
X0.9727 Y0.4079
X0.9486 Y0.3996
X0.9238 Y0.394
X0.8985 Y0.3903
X0.8732 Y0.3879
X0.8477 Y0.3864
X0.8223 Y0.3854
X0.7968 Y0.3848
X0.7713 Y0.3844
X0.7458 Y0.3842
X0.7204 Y0.384
X0.6949 Y0.3839
X0.6694 Y0.3842
X0.6442 Y0.388
X0.6201 Y0.3961
X0.5973 Y0.4075
X0.5757 Y0.4211
X0.5552 Y0.4363
X0.5355 Y0.4523
X0.5162 Y0.469
X0.507 Y0.4778
X0.4995 Y0.4881
X0.4945 Y0.4999
X0.4894 Y0.5248
X0.4929 Y0.5501
X0.502 Y0.5739
X0.5145 Y0.596
X0.5293 Y0.6168
X0.5454 Y0.6366
X0.5626 Y0.6554
X0.5819 Y0.672
X0.6037 Y0.6851
X0.6272 Y0.695
X0.6517 Y0.702
X0.6767 Y0.707
X0.702 Y0.7104
X0.7274 Y0.7127
X0.7528 Y0.7142
X0.7782 Y0.7152
X0.8037 Y0.7159
X0.8292 Y0.7163
X0.8547 Y0.7166
X0.8801 Y0.7145
X0.9049 Y0.7089
X0.9287 Y0.6998
X0.9513 Y0.688
X0.9728 Y0.6743
X0.9933 Y0.6592
X1.0132 Y0.6433
X1.0229 Y0.635
X1.0306 Y0.6248
X1.0354 Y0.613
X1.0399 Y0.5879
X1.0357 Y0.5628
X1.026 Y0.5392
X1.013 Y0.5173
X0.9976 Y0.497
X0.979 Y0.4796
X0.9575 Y0.4659
X0.9341 Y0.4558
X0.9096 Y0.4487
X0.8847 Y0.4437
X0.8594 Y0.4403
X0.834 Y0.4381
X0.8086 Y0.4366
X0.7831 Y0.4356
X0.7576 Y0.4349
X0.7322 Y0.4345
X0.7067 Y0.4346
X0.6813 Y0.4371
X0.6566 Y0.4432
X0.633 Y0.4527
X0.6105 Y0.4648
X0.5891 Y0.4786
X0.5799 Y0.4874
X0.5732 Y0.4982
X0.5692 Y0.5103
X0.5663 Y0.5357
X0.5713 Y0.5606
X0.5816 Y0.5839
X0.5965 Y0.6047
X0.6153 Y0.6218
X0.6371 Y0.635
X0.6607 Y0.6447
X0.6852 Y0.6517
X0.7102 Y0.6566
X0.7354 Y0.66
X0.7608 Y0.6624
X0.7862 Y0.6639
X0.8117 Y0.665
X0.8372 Y0.6648
X0.8625 Y0.6618
X0.8872 Y0.6555
X0.9108 Y0.6461
X0.9334 Y0.6342
X0.9438 Y0.6269
X0.9516 Y0.6168
X0.9564 Y0.605
X0.9584 Y0.5924
X0.9578 Y0.5797
X0.9548 Y0.5673
X0.9441 Y0.5442
X0.9264 Y0.5259
X0.9047 Y0.5125
X0.881 Y0.5032
X0.8563 Y0.4967
X0.8312 Y0.4923
X0.8059 Y0.4894
X0.7805 Y0.4875
X0.755 Y0.4863
X0.7296 Y0.4862
X0.7042 Y0.4889
X0.6795 Y0.495
X0.6737 Y0.4978
X0.6687 Y0.5016
X0.6646 Y0.5065
X0.6616 Y0.5122
X0.66 Y0.5183
X0.6591 Y0.531
X0.6623 Y0.5434
X0.6692 Y0.5541
X0.6864 Y0.5729
X0.7082 Y0.586
X0.7321 Y0.595
X0.7569 Y0.6009
X0.7821 Y0.6048
X0.8075 Y0.6065
X0.8329 Y0.6053
X0.8361 Y0.6046
G3 X0.8506 Y0.617 I0.002 J0.0123
G1 X0.8504 Y0.6193
X0.8497 Y0.6215
X0.8487 Y0.6236
X0.8473 Y0.6254
X0.8416 Y0.6317 Z-0.0588
X0.8358 Y0.638 Z-0.0579
X0.8301 Y0.6442 Z-0.0564
X0.8246 Y0.6503 Z-0.0544
X0.8191 Y0.6563 Z-0.0518
X0.8137 Y0.6622 Z-0.0487
X0.8085 Y0.6679 Z-0.045
X0.8035 Y0.6734 Z-0.0409
X0.7987 Y0.6786 Z-0.0362
X0.7941 Y0.6836 Z-0.031
X0.7897 Y0.6884 Z-0.0254
X0.7857 Y0.6928 Z-0.0194
X0.7819 Y0.697 Z-0.0129
X0.7784 Y0.7008 Z-0.0061
X0.7753 Y0.7042 Z0.001
X0.7724 Y0.7073 Z0.0084
X0.77 Y0.71 Z0.0161
X0.7678 Y0.7124 Z0.0241
X0.7661 Y0.7143 Z0.0322
X0.7647 Y0.7158 Z0.0405
X0.7638 Y0.7168 Z0.0489
X0.7632 Y0.7175 Z0.0574
X0.763 Y0.7177 Z0.0659
G0 Z0.6
X1.5683 Y0.294
Z0.2
Z0.075
G1 X1.5684 Y0.2942 Z0.0665 F39.37
X1.5686 Y0.2951 Z0.058
X1.5689 Y0.2965 Z0.0496
X1.5694 Y0.2984 Z0.0413
X1.5701 Y0.3009 Z0.0331
X1.5709 Y0.304 Z0.0252
X1.5718 Y0.3075 Z0.0175
X1.5728 Y0.3116 Z0.0101
X1.574 Y0.3161 Z0.0029
X1.5752 Y0.3211 Z-0.0039
X1.5766 Y0.3266 Z-0.0103
X1.5781 Y0.3324 Z-0.0164
X1.5797 Y0.3386 Z-0.022
X1.5814 Y0.3452 Z-0.0271
X1.5832 Y0.3521 Z-0.0318
X1.585 Y0.3593 Z-0.036
X1.587 Y0.3668 Z-0.0397
X1.5889 Y0.3745 Z-0.0428
X1.5909 Y0.3824 Z-0.0454
X1.593 Y0.3904 Z-0.0474
X1.5951 Y0.3986 Z-0.0488
X1.5972 Y0.4068 Z-0.0497
X1.5993 Y0.415 Z-0.05
G3 X1.6091 Y0.4831 I-0.3091 J0.0792
G1 Y0.5061
X1.6086 Y0.5121
X1.6063 Y0.5246
X1.6067 Y0.5501
X1.615 Y0.5742
X1.6276 Y0.5963
X1.6427 Y0.6168
X1.6591 Y0.6363
X1.6763 Y0.6551
X1.694 Y0.6735
X1.7119 Y0.6916
X1.73 Y0.7095
X1.7482 Y0.7274
X1.7664 Y0.7452
X1.8029 Y0.7808
X1.824 Y0.795
X1.8479 Y0.8038
X1.8728 Y0.8092
X1.8981 Y0.8124
X1.9235 Y0.8144
X1.949 Y0.8155
X1.9744 Y0.8161
X1.9999 Y0.8165
X2.0254 Y0.8167
X2.0509 Y0.8169
X2.1018 Y0.817
X2.1783 Y0.8171
X2.2038 Y0.8169
X2.228 Y0.809
X2.2504 Y0.7968
X2.2713 Y0.7823
X2.2912 Y0.7664
X2.3105 Y0.7498
X2.3294 Y0.7326
X2.348 Y0.7153
X2.3665 Y0.6977
X2.3849 Y0.6801
X2.4033 Y0.6624
X2.4445 Y0.6226
X2.448 Y0.6173
X2.4526 Y0.6054
X2.4536 Y0.5799
X2.446 Y0.5556
X2.4337 Y0.5332
X2.4189 Y0.5125
X2.4026 Y0.4929
X2.3854 Y0.4741
X2.3678 Y0.4557
X2.3499 Y0.4375
X2.3319 Y0.4196
X2.3137 Y0.4017
X2.2955 Y0.3839
X2.2772 Y0.3661
X2.2552 Y0.3534
X2.2309 Y0.3455
X2.2059 Y0.3407
X2.1806 Y0.3379
X2.1552 Y0.3362
X2.1297 Y0.3352
X2.1042 Y0.3346
X2.0787 Y0.3343
X2.0533 Y0.3341
X2.0278 Y0.334
X1.9768 Y0.3339
X1.9004 Y0.3338
X1.875 Y0.3358
X1.8511 Y0.3447
X1.829 Y0.3574
X1.8083 Y0.3723
X1.7885 Y0.3884
X1.7694 Y0.4051
X1.7505 Y0.4223
X1.7319 Y0.4397
X1.7135 Y0.4573
X1.6951 Y0.4749
X1.6875 Y0.4852
X1.6818 Y0.4966
X1.6786 Y0.5089
X1.6767 Y0.5343
X1.6825 Y0.5591
X1.6931 Y0.5823
X1.7067 Y0.6038
X1.7221 Y0.6241
X1.7387 Y0.6435
X1.7559 Y0.6623
X1.7735 Y0.6807
X1.7914 Y0.6988
X1.8096 Y0.7167
X1.8298 Y0.7321
X1.8526 Y0.7436
X1.8768 Y0.7516
X1.9017 Y0.757
X1.9269 Y0.7607
X1.9523 Y0.763
X1.9777 Y0.7645
X2.0032 Y0.7655
X2.0287 Y0.7661
X2.0541 Y0.7665
X2.0796 Y0.7667
X2.1051 Y0.7668
X2.1306 Y0.7669
X2.1561
X2.1812 Y0.763
X2.2053 Y0.7547
X2.228 Y0.7432
X2.2495 Y0.7294
X2.2699 Y0.7142
X2.2897 Y0.6981
X2.3089 Y0.6813
X2.3278 Y0.6642
X2.3464 Y0.6469
X2.365 Y0.6294
X2.3709 Y0.6181
X2.3738 Y0.6057
X2.3748 Y0.5802
X2.3682 Y0.5557
X2.3569 Y0.5328
X2.3428 Y0.5116
X2.327 Y0.4916
X2.3103 Y0.4723
X2.2929 Y0.4537
X2.2752 Y0.4354
X2.2552 Y0.4197
X2.2326 Y0.4079
X2.2085 Y0.3996
X2.1836 Y0.394
X2.1584 Y0.3903
X2.133 Y0.3879
X2.1076 Y0.3864
X2.0821 Y0.3854
X2.0566 Y0.3848
X2.0312 Y0.3844
X2.0057 Y0.3842
X1.9802 Y0.384
X1.9547 Y0.3839
X1.9292 Y0.3842
X1.904 Y0.388
X1.8799 Y0.3961
X1.8571 Y0.4075
X1.8356 Y0.4211
X1.8151 Y0.4363
X1.7953 Y0.4523
X1.7761 Y0.469
X1.7668 Y0.4778
X1.7594 Y0.4881
X1.7543 Y0.4999
X1.7493 Y0.5248
X1.7527 Y0.5501
X1.7618 Y0.5739
X1.7744 Y0.596
X1.7891 Y0.6168
X1.8052 Y0.6366
X1.8224 Y0.6554
X1.8417 Y0.672
X1.8636 Y0.6851
X1.8871 Y0.695
X1.9116 Y0.702
X1.9366 Y0.707
X1.9618 Y0.7104
X1.9872 Y0.7127
X2.0126 Y0.7142
X2.0381 Y0.7152
X2.0636 Y0.7159
X2.089 Y0.7163
X2.1145 Y0.7166
X2.1399 Y0.7145
X2.1648 Y0.7089
X2.1886 Y0.6998
X2.2111 Y0.688
X2.2326 Y0.6743
X2.2532 Y0.6592
X2.273 Y0.6433
X2.2827 Y0.635
X2.2904 Y0.6248
X2.2952 Y0.613
X2.2997 Y0.5879
X2.2955 Y0.5628
X2.2858 Y0.5392
X2.2729 Y0.5173
X2.2574 Y0.497
X2.2389 Y0.4796
X2.2173 Y0.4659
X2.1939 Y0.4558
X2.1695 Y0.4487
X2.1445 Y0.4437
X2.1192 Y0.4403
X2.0939 Y0.4381
X2.0684 Y0.4366
X2.043 Y0.4356
X2.0175 Y0.4349
X1.992 Y0.4345
X1.9665 Y0.4346
X1.9412 Y0.4371
X1.9164 Y0.4432
X1.8928 Y0.4527
X1.8703 Y0.4648
X1.849 Y0.4786
X1.8397 Y0.4874
X1.833 Y0.4982
X1.8291 Y0.5103
X1.8261 Y0.5357
X1.8312 Y0.5606
X1.8415 Y0.5839
X1.8563 Y0.6047
X1.8752 Y0.6218
X1.897 Y0.635
X1.9205 Y0.6447
X1.945 Y0.6517
X1.97 Y0.6566
X1.9953 Y0.66
X2.0206 Y0.6624
X2.0461 Y0.6639
X2.0715 Y0.665
X2.097 Y0.6648
X2.1223 Y0.6618
X2.147 Y0.6555
X2.1707 Y0.6461
X2.1932 Y0.6342
X2.2036 Y0.6269
X2.2114 Y0.6168
X2.2162 Y0.605
X2.2182 Y0.5924
X2.2177 Y0.5797
X2.2146 Y0.5673
X2.204 Y0.5442
X2.1862 Y0.5259
X2.1645 Y0.5125
X2.1408 Y0.5032
X2.1162 Y0.4967
X2.0911 Y0.4923
X2.0657 Y0.4894
X2.0403 Y0.4875
X2.0149 Y0.4863
X1.9894 Y0.4862
X1.9641 Y0.4889
X1.9393 Y0.495
X1.9336 Y0.4978
X1.9285 Y0.5016
X1.9244 Y0.5065
X1.9215 Y0.5122
X1.9198 Y0.5183
X1.919 Y0.531
X1.9222 Y0.5434
X1.929 Y0.5541
X1.9463 Y0.5729
X1.9681 Y0.586
X1.992 Y0.595
X2.0167 Y0.6009
X2.0419 Y0.6048
X2.0673 Y0.6065
X2.0928 Y0.6053
X2.0959 Y0.6046
X2.0979 Y0.6045 Z-0.0499
X2.1009 Y0.6052 Z-0.0496
X2.1039 Y0.606 Z-0.0489
X2.1062 Y0.6081 Z-0.0478
X2.1084 Y0.6102 Z-0.0464
X2.1094 Y0.6132 Z-0.0444
X2.1104 Y0.616 Z-0.042
Y0.617 Z-0.0412
Z-0.0411
X2.1098 Y0.6193 Z-0.0385
X2.1093 Y0.6213 Z-0.0356
X2.1089 Y0.623 Z-0.0324
X2.1081 Y0.624 Z-0.0292
X2.1076 Y0.6248 Z-0.0259
X2.1073 Y0.6253 Z-0.0225
X2.1071 Y0.6254 Z-0.0191
G0 Z0.2
X1.5683 Y0.294
Z0.1909
G1 Z0.0659 F39.37
X1.5684 Y0.2942 Z0.0574
X1.5686 Y0.2951 Z0.0489
X1.5689 Y0.2965 Z0.0405
X1.5694 Y0.2984 Z0.0322
X1.5701 Y0.3009 Z0.0241
X1.5709 Y0.304 Z0.0161
X1.5718 Y0.3075 Z0.0084
X1.5728 Y0.3116 Z0.001
X1.574 Y0.3161 Z-0.0061
X1.5752 Y0.3211 Z-0.0129
X1.5766 Y0.3266 Z-0.0194
X1.5781 Y0.3324 Z-0.0254
X1.5797 Y0.3386 Z-0.031
X1.5814 Y0.3452 Z-0.0362
X1.5832 Y0.3521 Z-0.0409
X1.585 Y0.3593 Z-0.045
X1.587 Y0.3668 Z-0.0487
X1.5889 Y0.3745 Z-0.0518
X1.5909 Y0.3824 Z-0.0544
X1.593 Y0.3904 Z-0.0564
X1.5951 Y0.3986 Z-0.0579
X1.5972 Y0.4068 Z-0.0588
X1.5993 Y0.415 Z-0.0591
G3 X1.6091 Y0.4831 I-0.3091 J0.0792
G1 Y0.5061
X1.6086 Y0.5121
X1.6063 Y0.5246
X1.6067 Y0.5501
X1.615 Y0.5742
X1.6276 Y0.5963
X1.6427 Y0.6168
X1.6591 Y0.6363
X1.6763 Y0.6551
X1.694 Y0.6735
X1.7119 Y0.6916
X1.73 Y0.7095
X1.7482 Y0.7274
X1.7664 Y0.7452
X1.8029 Y0.7808
X1.824 Y0.795
X1.8479 Y0.8038
X1.8728 Y0.8092
X1.8981 Y0.8124
X1.9235 Y0.8144
X1.949 Y0.8155
X1.9744 Y0.8161
X1.9999 Y0.8165
X2.0254 Y0.8167
X2.0509 Y0.8169
X2.1018 Y0.817
X2.1783 Y0.8171
X2.2038 Y0.8169
X2.228 Y0.809
X2.2504 Y0.7968
X2.2713 Y0.7823
X2.2912 Y0.7664
X2.3105 Y0.7498
X2.3294 Y0.7326
X2.348 Y0.7153
X2.3665 Y0.6977
X2.3849 Y0.6801
X2.4033 Y0.6624
X2.4445 Y0.6226
X2.448 Y0.6173
X2.4526 Y0.6054
X2.4536 Y0.5799
X2.446 Y0.5556
X2.4337 Y0.5332
X2.4189 Y0.5125
X2.4026 Y0.4929
X2.3854 Y0.4741
X2.3678 Y0.4557
X2.3499 Y0.4375
X2.3319 Y0.4196
X2.3137 Y0.4017
X2.2955 Y0.3839
X2.2772 Y0.3661
X2.2552 Y0.3534
X2.2309 Y0.3455
X2.2059 Y0.3407
X2.1806 Y0.3379
X2.1552 Y0.3362
X2.1297 Y0.3352
X2.1042 Y0.3346
X2.0787 Y0.3343
X2.0533 Y0.3341
X2.0278 Y0.334
X1.9768 Y0.3339
X1.9004 Y0.3338
X1.875 Y0.3358
X1.8511 Y0.3447
X1.829 Y0.3574
X1.8083 Y0.3723
X1.7885 Y0.3884
X1.7694 Y0.4051
X1.7505 Y0.4223
X1.7319 Y0.4397
X1.7135 Y0.4573
X1.6951 Y0.4749
X1.6875 Y0.4852
X1.6818 Y0.4966
X1.6786 Y0.5089
X1.6767 Y0.5343
X1.6825 Y0.5591
X1.6931 Y0.5823
X1.7067 Y0.6038
X1.7221 Y0.6241
X1.7387 Y0.6435
X1.7559 Y0.6623
X1.7735 Y0.6807
X1.7914 Y0.6988
X1.8096 Y0.7167
X1.8298 Y0.7321
X1.8526 Y0.7436
X1.8768 Y0.7516
X1.9017 Y0.757
X1.9269 Y0.7607
X1.9523 Y0.763
X1.9777 Y0.7645
X2.0032 Y0.7655
X2.0287 Y0.7661
X2.0541 Y0.7665
X2.0796 Y0.7667
X2.1051 Y0.7668
X2.1306 Y0.7669
X2.1561
X2.1812 Y0.763
X2.2053 Y0.7547
X2.228 Y0.7432
X2.2495 Y0.7294
X2.2699 Y0.7142
X2.2897 Y0.6981
X2.3089 Y0.6813
X2.3278 Y0.6642
X2.3464 Y0.6469
X2.365 Y0.6294
X2.3709 Y0.6181
X2.3738 Y0.6057
X2.3748 Y0.5802
X2.3682 Y0.5557
X2.3569 Y0.5328
X2.3428 Y0.5116
X2.327 Y0.4916
X2.3103 Y0.4723
X2.2929 Y0.4537
X2.2752 Y0.4354
X2.2552 Y0.4197
X2.2326 Y0.4079
X2.2085 Y0.3996
X2.1836 Y0.394
X2.1584 Y0.3903
X2.133 Y0.3879
X2.1076 Y0.3864
X2.0821 Y0.3854
X2.0566 Y0.3848
X2.0312 Y0.3844
X2.0057 Y0.3842
X1.9802 Y0.384
X1.9547 Y0.3839
X1.9292 Y0.3842
X1.904 Y0.388
X1.8799 Y0.3961
X1.8571 Y0.4075
X1.8356 Y0.4211
X1.8151 Y0.4363
X1.7953 Y0.4523
X1.7761 Y0.469
X1.7668 Y0.4778
X1.7594 Y0.4881
X1.7543 Y0.4999
X1.7493 Y0.5248
X1.7527 Y0.5501
X1.7618 Y0.5739
X1.7744 Y0.596
X1.7891 Y0.6168
X1.8052 Y0.6366
X1.8224 Y0.6554
X1.8417 Y0.672
X1.8636 Y0.6851
X1.8871 Y0.695
X1.9116 Y0.702
X1.9366 Y0.707
X1.9618 Y0.7104
X1.9872 Y0.7127
X2.0126 Y0.7142
X2.0381 Y0.7152
X2.0636 Y0.7159
X2.089 Y0.7163
X2.1145 Y0.7166
X2.1399 Y0.7145
X2.1648 Y0.7089
X2.1886 Y0.6998
X2.2111 Y0.688
X2.2326 Y0.6743
X2.2532 Y0.6592
X2.273 Y0.6433
X2.2827 Y0.635
X2.2904 Y0.6248
X2.2952 Y0.613
X2.2997 Y0.5879
X2.2955 Y0.5628
X2.2858 Y0.5392
X2.2729 Y0.5173
X2.2574 Y0.497
X2.2389 Y0.4796
X2.2173 Y0.4659
X2.1939 Y0.4558
X2.1695 Y0.4487
X2.1445 Y0.4437
X2.1192 Y0.4403
X2.0939 Y0.4381
X2.0684 Y0.4366
X2.043 Y0.4356
X2.0175 Y0.4349
X1.992 Y0.4345
X1.9665 Y0.4346
X1.9412 Y0.4371
X1.9164 Y0.4432
X1.8928 Y0.4527
X1.8703 Y0.4648
X1.849 Y0.4786
X1.8397 Y0.4874
X1.833 Y0.4982
X1.8291 Y0.5103
X1.8261 Y0.5357
X1.8312 Y0.5606
X1.8415 Y0.5839
X1.8563 Y0.6047
X1.8752 Y0.6218
X1.897 Y0.635
X1.9205 Y0.6447
X1.945 Y0.6517
X1.97 Y0.6566
X1.9953 Y0.66
X2.0206 Y0.6624
X2.0461 Y0.6639
X2.0715 Y0.665
X2.097 Y0.6648
X2.1223 Y0.6618
X2.147 Y0.6555
X2.1707 Y0.6461
X2.1932 Y0.6342
X2.2036 Y0.6269
X2.2114 Y0.6168
X2.2162 Y0.605
X2.2182 Y0.5924
X2.2177 Y0.5797
X2.2146 Y0.5673
X2.204 Y0.5442
X2.1862 Y0.5259
X2.1645 Y0.5125
X2.1408 Y0.5032
X2.1162 Y0.4967
X2.0911 Y0.4923
X2.0657 Y0.4894
X2.0403 Y0.4875
X2.0149 Y0.4863
X1.9894 Y0.4862
X1.9641 Y0.4889
X1.9393 Y0.495
X1.9336 Y0.4978
X1.9285 Y0.5016
X1.9244 Y0.5065
X1.9215 Y0.5122
X1.9198 Y0.5183
X1.919 Y0.531
X1.9222 Y0.5434
X1.929 Y0.5541
X1.9463 Y0.5729
X1.9681 Y0.586
X1.992 Y0.595
X2.0167 Y0.6009
X2.0419 Y0.6048
X2.0673 Y0.6065
X2.0928 Y0.6053
X2.0959 Y0.6046
G3 X2.1104 Y0.617 I0.002 J0.0123
G1 X2.1102 Y0.6193
X2.1096 Y0.6215
X2.1085 Y0.6236
X2.1071 Y0.6254
X2.1014 Y0.6317 Z-0.0588
X2.0957 Y0.638 Z-0.0579
X2.09 Y0.6442 Z-0.0564
X2.0844 Y0.6503 Z-0.0544
X2.0789 Y0.6563 Z-0.0518
X2.0736 Y0.6622 Z-0.0487
X2.0684 Y0.6679 Z-0.045
X2.0633 Y0.6734 Z-0.0409
X2.0585 Y0.6786 Z-0.0362
X2.0539 Y0.6836 Z-0.031
X2.0496 Y0.6884 Z-0.0254
X2.0455 Y0.6928 Z-0.0194
X2.0417 Y0.697 Z-0.0129
X2.0383 Y0.7008 Z-0.0061
X2.0351 Y0.7042 Z0.001
X2.0323 Y0.7073 Z0.0084
X2.0298 Y0.71 Z0.0161
X2.0277 Y0.7124 Z0.0241
X2.0259 Y0.7143 Z0.0322
X2.0246 Y0.7158 Z0.0405
X2.0236 Y0.7168 Z0.0489
X2.023 Y0.7175 Z0.0574
X2.0228 Y0.7177 Z0.0659
G0 Z0.6
X2.8281 Y0.294
Z0.2
Z0.075
G1 X2.8282 Y0.2942 Z0.0665 F39.37
X2.8284 Y0.2951 Z0.058
X2.8288 Y0.2965 Z0.0496
X2.8293 Y0.2984 Z0.0413
X2.8299 Y0.3009 Z0.0331
X2.8307 Y0.304 Z0.0252
X2.8316 Y0.3075 Z0.0175
X2.8326 Y0.3116 Z0.0101
X2.8338 Y0.3161 Z0.0029
X2.8351 Y0.3211 Z-0.0039
X2.8365 Y0.3266 Z-0.0103
X2.838 Y0.3324 Z-0.0164
X2.8396 Y0.3386 Z-0.022
X2.8413 Y0.3452 Z-0.0271
X2.843 Y0.3521 Z-0.0318
X2.8449 Y0.3593 Z-0.036
X2.8468 Y0.3668 Z-0.0397
X2.8488 Y0.3745 Z-0.0428
X2.8508 Y0.3824 Z-0.0454
X2.8528 Y0.3904 Z-0.0474
X2.8549 Y0.3986 Z-0.0488
X2.857 Y0.4068 Z-0.0497
X2.8592 Y0.415 Z-0.05
G3 X2.8689 Y0.4831 I-0.3091 J0.0792
G1 Y0.5061
X2.8685 Y0.5121
X2.8662 Y0.5246
X2.8665 Y0.5501
X2.8748 Y0.5742
X2.8875 Y0.5963
X2.9025 Y0.6168
X2.919 Y0.6363
X2.9362 Y0.6551
X2.9538 Y0.6735
X2.9718 Y0.6916
X2.9898 Y0.7095
X3.008 Y0.7274
X3.0262 Y0.7452
X3.0627 Y0.7808
X3.0839 Y0.795
X3.1078 Y0.8038
X3.1327 Y0.8092
X3.158 Y0.8124
X3.1834 Y0.8144
X3.2088 Y0.8155
X3.2343 Y0.8161
X3.2598 Y0.8165
X3.2852 Y0.8167
X3.3107 Y0.8169
X3.3617 Y0.817
X3.4381 Y0.8171
X3.4636 Y0.8169
X3.4878 Y0.809
X3.5102 Y0.7968
X3.5312 Y0.7823
X3.5511 Y0.7664
X3.5704 Y0.7498
X3.5892 Y0.7326
X3.6079 Y0.7153
X3.6264 Y0.6977
X3.6448 Y0.6801
X3.6631 Y0.6624
X3.7044 Y0.6226
X3.7079 Y0.6173
X3.7124 Y0.6054
X3.7134 Y0.5799
X3.7058 Y0.5556
X3.6936 Y0.5332
X3.6787 Y0.5125
X3.6624 Y0.4929
X3.6453 Y0.4741
X3.6277 Y0.4557
X3.6098 Y0.4375
X3.5917 Y0.4196
X3.5735 Y0.4017
X3.5553 Y0.3839
X3.5371 Y0.3661
X3.515 Y0.3534
X3.4908 Y0.3455
X3.4658 Y0.3407
X3.4404 Y0.3379
X3.415 Y0.3362
X3.3895 Y0.3352
X3.3641 Y0.3346
X3.3386 Y0.3343
X3.3131 Y0.3341
X3.2876 Y0.334
X3.2367 Y0.3339
X3.1602 Y0.3338
X3.1348 Y0.3358
X3.1109 Y0.3447
X3.0889 Y0.3574
X3.0682 Y0.3723
X3.0484 Y0.3884
X3.0292 Y0.4051
X3.0104 Y0.4223
X2.9918 Y0.4397
X2.9733 Y0.4573
X2.9549 Y0.4749
X2.9474 Y0.4852
X2.9417 Y0.4966
X2.9384 Y0.5089
X2.9365 Y0.5343
X2.9423 Y0.5591
X2.9529 Y0.5823
X2.9665 Y0.6038
X2.982 Y0.6241
X2.9985 Y0.6435
X3.0157 Y0.6623
X3.0334 Y0.6807
X3.0513 Y0.6988
X3.0694 Y0.7167
X3.0897 Y0.7321
X3.1125 Y0.7436
X3.1366 Y0.7516
X3.1615 Y0.757
X3.1868 Y0.7607
X3.2121 Y0.763
X3.2376 Y0.7645
X3.263 Y0.7655
X3.2885 Y0.7661
X3.314 Y0.7665
X3.3395 Y0.7667
X3.3649 Y0.7668
X3.3904 Y0.7669
X3.4159
X3.4411 Y0.763
X3.4652 Y0.7547
X3.4879 Y0.7432
X3.5093 Y0.7294
X3.5298 Y0.7142
X3.5495 Y0.6981
X3.5687 Y0.6813
X3.5876 Y0.6642
X3.6063 Y0.6469
X3.6248 Y0.6294
X3.6307 Y0.6181
X3.6337 Y0.6057
X3.6347 Y0.5802
X3.628 Y0.5557
X3.6167 Y0.5328
X3.6026 Y0.5116
X3.5869 Y0.4916
X3.5701 Y0.4723
X3.5528 Y0.4537
X3.535 Y0.4354
X3.515 Y0.4197
X3.4924 Y0.4079
X3.4683 Y0.3996
X3.4434 Y0.394
X3.4182 Y0.3903
X3.3929 Y0.3879
X3.3674 Y0.3864
X3.342 Y0.3854
X3.3165 Y0.3848
X3.291 Y0.3844
X3.2655 Y0.3842
X3.2401 Y0.384
X3.2146 Y0.3839
X3.1891 Y0.3842
X3.1639 Y0.388
X3.1397 Y0.3961
X3.1169 Y0.4075
X3.0954 Y0.4211
X3.0749 Y0.4363
X3.0552 Y0.4523
X3.0359 Y0.469
X3.0267 Y0.4778
X3.0192 Y0.4881
X3.0142 Y0.4999
X3.0091 Y0.5248
X3.0126 Y0.5501
X3.0217 Y0.5739
X3.0342 Y0.596
X3.049 Y0.6168
X3.0651 Y0.6366
X3.0823 Y0.6554
X3.1016 Y0.672
X3.1234 Y0.6851
X3.1469 Y0.695
X3.1714 Y0.702
X3.1964 Y0.707
X3.2217 Y0.7104
X3.247 Y0.7127
X3.2725 Y0.7142
X3.2979 Y0.7152
X3.3234 Y0.7159
X3.3489 Y0.7163
X3.3744 Y0.7166
X3.3998 Y0.7145
X3.4246 Y0.7089
X3.4484 Y0.6998
X3.471 Y0.688
X3.4925 Y0.6743
X3.513 Y0.6592
X3.5329 Y0.6433
X3.5426 Y0.635
X3.5502 Y0.6248
X3.5551 Y0.613
X3.5595 Y0.5879
X3.5553 Y0.5628
X3.5457 Y0.5392
X3.5327 Y0.5173
X3.5173 Y0.497
X3.4987 Y0.4796
X3.4772 Y0.4659
X3.4538 Y0.4558
X3.4293 Y0.4487
X3.4043 Y0.4437
X3.3791 Y0.4403
X3.3537 Y0.4381
X3.3283 Y0.4366
X3.3028 Y0.4356
X3.2773 Y0.4349
X3.2519 Y0.4345
X3.2264 Y0.4346
X3.201 Y0.4371
X3.1763 Y0.4432
X3.1526 Y0.4527
X3.1302 Y0.4648
X3.1088 Y0.4786
X3.0996 Y0.4874
X3.0929 Y0.4982
X3.0889 Y0.5103
X3.086 Y0.5357
X3.091 Y0.5606
X3.1013 Y0.5839
X3.1161 Y0.6047
X3.135 Y0.6218
X3.1568 Y0.635
X3.1803 Y0.6447
X3.2048 Y0.6517
X3.2299 Y0.6566
X3.2551 Y0.66
X3.2805 Y0.6624
X3.3059 Y0.6639
X3.3314 Y0.665
X3.3569 Y0.6648
X3.3822 Y0.6618
X3.4068 Y0.6555
X3.4305 Y0.6461
X3.4531 Y0.6342
X3.4635 Y0.6269
X3.4713 Y0.6168
X3.476 Y0.605
X3.4781 Y0.5924
X3.4775 Y0.5797
X3.4745 Y0.5673
X3.4638 Y0.5442
X3.4461 Y0.5259
X3.4243 Y0.5125
X3.4007 Y0.5032
X3.376 Y0.4967
X3.3509 Y0.4923
X3.3256 Y0.4894
X3.3002 Y0.4875
X3.2747 Y0.4863
X3.2492 Y0.4862
X3.2239 Y0.4889
X3.1992 Y0.495
X3.1934 Y0.4978
X3.1884 Y0.5016
X3.1843 Y0.5065
X3.1813 Y0.5122
X3.1797 Y0.5183
X3.1788 Y0.531
X3.182 Y0.5434
X3.1889 Y0.5541
X3.2061 Y0.5729
X3.2279 Y0.586
X3.2518 Y0.595
X3.2766 Y0.6009
X3.3017 Y0.6048
X3.3272 Y0.6065
X3.3526 Y0.6053
X3.3557 Y0.6046
X3.3578 Y0.6045 Z-0.0499
X3.3608 Y0.6052 Z-0.0496
X3.3637 Y0.606 Z-0.0489
X3.366 Y0.6081 Z-0.0478
X3.3683 Y0.6102 Z-0.0464
X3.3693 Y0.6132 Z-0.0444
X3.3702 Y0.616 Z-0.042
X3.3703 Y0.617 Z-0.0412
Z-0.0411
X3.3697 Y0.6193 Z-0.0385
X3.3692 Y0.6213 Z-0.0356
X3.3687 Y0.623 Z-0.0324
X3.368 Y0.624 Z-0.0292
X3.3674 Y0.6248 Z-0.0259
X3.3671 Y0.6253 Z-0.0225
X3.367 Y0.6254 Z-0.0191
G0 Z0.2
X2.8281 Y0.294
Z0.1909
G1 Z0.0659 F39.37
X2.8282 Y0.2942 Z0.0574
X2.8284 Y0.2951 Z0.0489
X2.8288 Y0.2965 Z0.0405
X2.8293 Y0.2984 Z0.0322
X2.8299 Y0.3009 Z0.0241
X2.8307 Y0.304 Z0.0161
X2.8316 Y0.3075 Z0.0084
X2.8326 Y0.3116 Z0.001
X2.8338 Y0.3161 Z-0.0061
X2.8351 Y0.3211 Z-0.0129
X2.8365 Y0.3266 Z-0.0194
X2.838 Y0.3324 Z-0.0254
X2.8396 Y0.3386 Z-0.031
X2.8413 Y0.3452 Z-0.0362
X2.843 Y0.3521 Z-0.0409
X2.8449 Y0.3593 Z-0.045
X2.8468 Y0.3668 Z-0.0487
X2.8488 Y0.3745 Z-0.0518
X2.8508 Y0.3824 Z-0.0544
X2.8528 Y0.3904 Z-0.0564
X2.8549 Y0.3986 Z-0.0579
X2.857 Y0.4068 Z-0.0588
X2.8592 Y0.415 Z-0.0591
G3 X2.8689 Y0.4831 I-0.3091 J0.0792
G1 Y0.5061
X2.8685 Y0.5121
X2.8662 Y0.5246
X2.8665 Y0.5501
X2.8748 Y0.5742
X2.8875 Y0.5963
X2.9025 Y0.6168
X2.919 Y0.6363
X2.9362 Y0.6551
X2.9538 Y0.6735
X2.9718 Y0.6916
X2.9898 Y0.7095
X3.008 Y0.7274
X3.0262 Y0.7452
X3.0627 Y0.7808
X3.0839 Y0.795
X3.1078 Y0.8038
X3.1327 Y0.8092
X3.158 Y0.8124
X3.1834 Y0.8144
X3.2088 Y0.8155
X3.2343 Y0.8161
X3.2598 Y0.8165
X3.2852 Y0.8167
X3.3107 Y0.8169
X3.3617 Y0.817
X3.4381 Y0.8171
X3.4636 Y0.8169
X3.4878 Y0.809
X3.5102 Y0.7968
X3.5312 Y0.7823
X3.5511 Y0.7664
X3.5704 Y0.7498
X3.5892 Y0.7326
X3.6079 Y0.7153
X3.6264 Y0.6977
X3.6448 Y0.6801
X3.6631 Y0.6624
X3.7044 Y0.6226
X3.7079 Y0.6173
X3.7124 Y0.6054
X3.7134 Y0.5799
X3.7058 Y0.5556
X3.6936 Y0.5332
X3.6787 Y0.5125
X3.6624 Y0.4929
X3.6453 Y0.4741
X3.6277 Y0.4557
X3.6098 Y0.4375
X3.5917 Y0.4196
X3.5735 Y0.4017
X3.5553 Y0.3839
X3.5371 Y0.3661
X3.515 Y0.3534
X3.4908 Y0.3455
X3.4658 Y0.3407
X3.4404 Y0.3379
X3.415 Y0.3362
X3.3895 Y0.3352
X3.3641 Y0.3346
X3.3386 Y0.3343
X3.3131 Y0.3341
X3.2876 Y0.334
X3.2367 Y0.3339
X3.1602 Y0.3338
X3.1348 Y0.3358
X3.1109 Y0.3447
X3.0889 Y0.3574
X3.0682 Y0.3723
X3.0484 Y0.3884
X3.0292 Y0.4051
X3.0104 Y0.4223
X2.9918 Y0.4397
X2.9733 Y0.4573
X2.9549 Y0.4749
X2.9474 Y0.4852
X2.9417 Y0.4966
X2.9384 Y0.5089
X2.9365 Y0.5343
X2.9423 Y0.5591
X2.9529 Y0.5823
X2.9665 Y0.6038
X2.982 Y0.6241
X2.9985 Y0.6435
X3.0157 Y0.6623
X3.0334 Y0.6807
X3.0513 Y0.6988
X3.0694 Y0.7167
X3.0897 Y0.7321
X3.1125 Y0.7436
X3.1366 Y0.7516
X3.1615 Y0.757
X3.1868 Y0.7607
X3.2121 Y0.763
X3.2376 Y0.7645
X3.263 Y0.7655
X3.2885 Y0.7661
X3.314 Y0.7665
X3.3395 Y0.7667
X3.3649 Y0.7668
X3.3904 Y0.7669
X3.4159
X3.4411 Y0.763
X3.4652 Y0.7547
X3.4879 Y0.7432
X3.5093 Y0.7294
X3.5298 Y0.7142
X3.5495 Y0.6981
X3.5687 Y0.6813
X3.5876 Y0.6642
X3.6063 Y0.6469
X3.6248 Y0.6294
X3.6307 Y0.6181
X3.6337 Y0.6057
X3.6347 Y0.5802
X3.628 Y0.5557
X3.6167 Y0.5328
X3.6026 Y0.5116
X3.5869 Y0.4916
X3.5701 Y0.4723
X3.5528 Y0.4537
X3.535 Y0.4354
X3.515 Y0.4197
X3.4924 Y0.4079
X3.4683 Y0.3996
X3.4434 Y0.394
X3.4182 Y0.3903
X3.3929 Y0.3879
X3.3674 Y0.3864
X3.342 Y0.3854
X3.3165 Y0.3848
X3.291 Y0.3844
X3.2655 Y0.3842
X3.2401 Y0.384
X3.2146 Y0.3839
X3.1891 Y0.3842
X3.1639 Y0.388
X3.1397 Y0.3961
X3.1169 Y0.4075
X3.0954 Y0.4211
X3.0749 Y0.4363
X3.0552 Y0.4523
X3.0359 Y0.469
X3.0267 Y0.4778
X3.0192 Y0.4881
X3.0142 Y0.4999
X3.0091 Y0.5248
X3.0126 Y0.5501
X3.0217 Y0.5739
X3.0342 Y0.596
X3.049 Y0.6168
X3.0651 Y0.6366
X3.0823 Y0.6554
X3.1016 Y0.672
X3.1234 Y0.6851
X3.1469 Y0.695
X3.1714 Y0.702
X3.1964 Y0.707
X3.2217 Y0.7104
X3.247 Y0.7127
X3.2725 Y0.7142
X3.2979 Y0.7152
X3.3234 Y0.7159
X3.3489 Y0.7163
X3.3744 Y0.7166
X3.3998 Y0.7145
X3.4246 Y0.7089
X3.4484 Y0.6998
X3.471 Y0.688
X3.4925 Y0.6743
X3.513 Y0.6592
X3.5329 Y0.6433
X3.5426 Y0.635
X3.5502 Y0.6248
X3.5551 Y0.613
X3.5595 Y0.5879
X3.5553 Y0.5628
X3.5457 Y0.5392
X3.5327 Y0.5173
X3.5173 Y0.497
X3.4987 Y0.4796
X3.4772 Y0.4659
X3.4538 Y0.4558
X3.4293 Y0.4487
X3.4043 Y0.4437
X3.3791 Y0.4403
X3.3537 Y0.4381
X3.3283 Y0.4366
X3.3028 Y0.4356
X3.2773 Y0.4349
X3.2519 Y0.4345
X3.2264 Y0.4346
X3.201 Y0.4371
X3.1763 Y0.4432
X3.1526 Y0.4527
X3.1302 Y0.4648
X3.1088 Y0.4786
X3.0996 Y0.4874
X3.0929 Y0.4982
X3.0889 Y0.5103
X3.086 Y0.5357
X3.091 Y0.5606
X3.1013 Y0.5839
X3.1161 Y0.6047
X3.135 Y0.6218
X3.1568 Y0.635
X3.1803 Y0.6447
X3.2048 Y0.6517
X3.2299 Y0.6566
X3.2551 Y0.66
X3.2805 Y0.6624
X3.3059 Y0.6639
X3.3314 Y0.665
X3.3569 Y0.6648
X3.3822 Y0.6618
X3.4068 Y0.6555
X3.4305 Y0.6461
X3.4531 Y0.6342
X3.4635 Y0.6269
X3.4713 Y0.6168
X3.476 Y0.605
X3.4781 Y0.5924
X3.4775 Y0.5797
X3.4745 Y0.5673
X3.4638 Y0.5442
X3.4461 Y0.5259
X3.4243 Y0.5125
X3.4007 Y0.5032
X3.376 Y0.4967
X3.3509 Y0.4923
X3.3256 Y0.4894
X3.3002 Y0.4875
X3.2747 Y0.4863
X3.2492 Y0.4862
X3.2239 Y0.4889
X3.1992 Y0.495
X3.1934 Y0.4978
X3.1884 Y0.5016
X3.1843 Y0.5065
X3.1813 Y0.5122
X3.1797 Y0.5183
X3.1788 Y0.531
X3.182 Y0.5434
X3.1889 Y0.5541
X3.2061 Y0.5729
X3.2279 Y0.586
X3.2518 Y0.595
X3.2766 Y0.6009
X3.3017 Y0.6048
X3.3272 Y0.6065
X3.3526 Y0.6053
X3.3557 Y0.6046
G3 X3.3703 Y0.617 I0.002 J0.0123
G1 X3.3701 Y0.6193
X3.3694 Y0.6215
X3.3684 Y0.6236
X3.367 Y0.6254
X3.3612 Y0.6317 Z-0.0588
X3.3555 Y0.638 Z-0.0579
X3.3498 Y0.6442 Z-0.0564
X3.3442 Y0.6503 Z-0.0544
X3.3388 Y0.6563 Z-0.0518
X3.3334 Y0.6622 Z-0.0487
X3.3282 Y0.6679 Z-0.045
X3.3232 Y0.6734 Z-0.0409
X3.3184 Y0.6786 Z-0.0362
X3.3138 Y0.6836 Z-0.031
X3.3094 Y0.6884 Z-0.0254
X3.3054 Y0.6928 Z-0.0194
X3.3016 Y0.697 Z-0.0129
X3.2981 Y0.7008 Z-0.0061
X3.2949 Y0.7042 Z0.001
X3.2921 Y0.7073 Z0.0084
X3.2896 Y0.71 Z0.0161
X3.2875 Y0.7124 Z0.0241
X3.2858 Y0.7143 Z0.0322
X3.2844 Y0.7158 Z0.0405
X3.2834 Y0.7168 Z0.0489
X3.2829 Y0.7175 Z0.0574
X3.2827 Y0.7177 Z0.0659
G0 Z0.6
X4.088 Y0.294
Z0.2
Z0.075
G1 Y0.2942 Z0.0665 F39.37
X4.0883 Y0.2951 Z0.058
X4.0886 Y0.2965 Z0.0496
X4.0891 Y0.2984 Z0.0413
X4.0898 Y0.3009 Z0.0331
X4.0905 Y0.304 Z0.0252
X4.0915 Y0.3075 Z0.0175
X4.0925 Y0.3116 Z0.0101
X4.0937 Y0.3161 Z0.0029
X4.0949 Y0.3211 Z-0.0039
X4.0963 Y0.3266 Z-0.0103
X4.0978 Y0.3324 Z-0.0164
X4.0994 Y0.3386 Z-0.022
X4.1011 Y0.3452 Z-0.0271
X4.1029 Y0.3521 Z-0.0318
X4.1047 Y0.3593 Z-0.036
X4.1066 Y0.3668 Z-0.0397
X4.1086 Y0.3745 Z-0.0428
X4.1106 Y0.3824 Z-0.0454
X4.1127 Y0.3904 Z-0.0474
X4.1148 Y0.3986 Z-0.0488
X4.1169 Y0.4068 Z-0.0497
X4.119 Y0.415 Z-0.05
G3 X4.1288 Y0.4831 I-0.3091 J0.0792
G1 Y0.5061
X4.1283 Y0.5121
X4.126 Y0.5246
X4.1264 Y0.5501
X4.1347 Y0.5742
X4.1473 Y0.5963
X4.1624 Y0.6168
X4.1788 Y0.6363
X4.196 Y0.6551
X4.2137 Y0.6735
X4.2316 Y0.6916
X4.2497 Y0.7095
X4.2678 Y0.7274
X4.2861 Y0.7452
X4.3226 Y0.7808
X4.3437 Y0.795
X4.3676 Y0.8038
X4.3925 Y0.8092
X4.4178 Y0.8124
X4.4432 Y0.8144
X4.4687 Y0.8155
X4.4941 Y0.8161
X4.5196 Y0.8165
X4.5451 Y0.8167
X4.5706 Y0.8169
X4.6215 Y0.817
X4.698 Y0.8171
X4.7235 Y0.8169
X4.7477 Y0.809
X4.7701 Y0.7968
X4.791 Y0.7823
X4.8109 Y0.7664
X4.8302 Y0.7498
X4.8491 Y0.7326
X4.8677 Y0.7153
X4.8862 Y0.6977
X4.9046 Y0.6801
X4.923 Y0.6624
X4.9642 Y0.6226
X4.9677 Y0.6173
X4.9722 Y0.6054
X4.9732 Y0.5799
X4.9657 Y0.5556
X4.9534 Y0.5332
X4.9386 Y0.5125
X4.9223 Y0.4929
X4.9051 Y0.4741
X4.8875 Y0.4557
X4.8696 Y0.4375
X4.8515 Y0.4196
X4.8334 Y0.4017
X4.8152 Y0.3839
X4.7969 Y0.3661
X4.7749 Y0.3534
X4.7506 Y0.3455
X4.7256 Y0.3407
X4.7003 Y0.3379
X4.6748 Y0.3362
X4.6494 Y0.3352
X4.6239 Y0.3346
X4.5984 Y0.3343
X4.573 Y0.3341
X4.5475 Y0.334
X4.4965 Y0.3339
X4.4201 Y0.3338
X4.3947 Y0.3358
X4.3708 Y0.3447
X4.3487 Y0.3574
X4.328 Y0.3723
X4.3082 Y0.3884
X4.289 Y0.4051
X4.2702 Y0.4223
X4.2516 Y0.4397
X4.2332 Y0.4573
X4.2148 Y0.4749
X4.2072 Y0.4852
X4.2015 Y0.4966
X4.1983 Y0.5089
X4.1964 Y0.5343
X4.2021 Y0.5591
X4.2128 Y0.5823
X4.2264 Y0.6038
X4.2418 Y0.6241
X4.2584 Y0.6435
X4.2756 Y0.6623
X4.2932 Y0.6807
X4.3111 Y0.6988
X4.3292 Y0.7167
X4.3495 Y0.7321
X4.3723 Y0.7436
X4.3965 Y0.7516
X4.4214 Y0.757
X4.4466 Y0.7607
X4.472 Y0.763
X4.4974 Y0.7645
X4.5229 Y0.7655
X4.5483 Y0.7661
X4.5738 Y0.7665
X4.5993 Y0.7667
X4.6248 Y0.7668
X4.6503 Y0.7669
X4.6757
X4.7009 Y0.763
X4.725 Y0.7547
X4.7477 Y0.7432
X4.7692 Y0.7294
X4.7896 Y0.7142
X4.8093 Y0.6981
X4.8286 Y0.6813
X4.8474 Y0.6642
X4.8661 Y0.6469
X4.8846 Y0.6294
X4.8905 Y0.6181
X4.8935 Y0.6057
X4.8945 Y0.5802
X4.8879 Y0.5557
X4.8765 Y0.5328
X4.8625 Y0.5116
X4.8467 Y0.4916
X4.83 Y0.4723
X4.8126 Y0.4537
X4.7949 Y0.4354
X4.7748 Y0.4197
X4.7523 Y0.4079
X4.7281 Y0.3996
X4.7033 Y0.394
X4.6781 Y0.3903
X4.6527 Y0.3879
X4.6273 Y0.3864
X4.6018 Y0.3854
X4.5763 Y0.3848
X4.5509 Y0.3844
X4.5254 Y0.3842
X4.4999 Y0.384
X4.4744 Y0.3839
X4.4489 Y0.3842
X4.4237 Y0.388
X4.3996 Y0.3961
X4.3768 Y0.4075
X4.3553 Y0.4211
X4.3348 Y0.4363
X4.315 Y0.4523
X4.2957 Y0.469
X4.2865 Y0.4778
X4.279 Y0.4881
X4.274 Y0.4999
X4.269 Y0.5248
X4.2724 Y0.5501
X4.2815 Y0.5739
X4.2941 Y0.596
X4.3088 Y0.6168
X4.3249 Y0.6366
X4.3421 Y0.6554
X4.3614 Y0.672
X4.3833 Y0.6851
X4.4068 Y0.695
X4.4313 Y0.702
X4.4562 Y0.707
X4.4815 Y0.7104
X4.5069 Y0.7127
X4.5323 Y0.7142
X4.5578 Y0.7152
X4.5832 Y0.7159
X4.6087 Y0.7163
X4.6342 Y0.7166
X4.6596 Y0.7145
X4.6845 Y0.7089
X4.7083 Y0.6998
X4.7308 Y0.688
X4.7523 Y0.6743
X4.7729 Y0.6592
X4.7927 Y0.6433
X4.8024 Y0.635
X4.8101 Y0.6248
X4.8149 Y0.613
X4.8194 Y0.5879
X4.8152 Y0.5628
X4.8055 Y0.5392
X4.7925 Y0.5173
X4.7771 Y0.497
X4.7585 Y0.4796
X4.737 Y0.4659
X4.7136 Y0.4558
X4.6892 Y0.4487
X4.6642 Y0.4437
X4.6389 Y0.4403
X4.6135 Y0.4381
X4.5881 Y0.4366
X4.5626 Y0.4356
X4.5372 Y0.4349
X4.5117 Y0.4345
X4.4862 Y0.4346
X4.4609 Y0.4371
X4.4361 Y0.4432
X4.4125 Y0.4527
X4.39 Y0.4648
X4.3687 Y0.4786
X4.3594 Y0.4874
X4.3527 Y0.4982
X4.3488 Y0.5103
X4.3458 Y0.5357
X4.3508 Y0.5606
X4.3611 Y0.5839
X4.376 Y0.6047
X4.3949 Y0.6218
X4.4167 Y0.635
X4.4402 Y0.6447
X4.4647 Y0.6517
X4.4897 Y0.6566
X4.5149 Y0.66
X4.5403 Y0.6624
X4.5658 Y0.6639
X4.5912 Y0.665
X4.6167 Y0.6648
X4.642 Y0.6618
X4.6667 Y0.6555
X4.6904 Y0.6461
X4.7129 Y0.6342
X4.7233 Y0.6269
X4.7311 Y0.6168
X4.7359 Y0.605
X4.7379 Y0.5924
X4.7374 Y0.5797
X4.7343 Y0.5673
X4.7237 Y0.5442
X4.7059 Y0.5259
X4.6842 Y0.5125
X4.6605 Y0.5032
X4.6358 Y0.4967
X4.6107 Y0.4923
X4.5854 Y0.4894
X4.56 Y0.4875
X4.5346 Y0.4863
X4.5091 Y0.4862
X4.4838 Y0.4889
X4.459 Y0.495
X4.4533 Y0.4978
X4.4482 Y0.5016
X4.4441 Y0.5065
X4.4412 Y0.5122
X4.4395 Y0.5183
X4.4387 Y0.531
X4.4419 Y0.5434
X4.4487 Y0.5541
X4.466 Y0.5729
X4.4878 Y0.586
X4.5116 Y0.595
X4.5364 Y0.6009
X4.5616 Y0.6048
X4.587 Y0.6065
X4.6125 Y0.6053
X4.6156 Y0.6046
X4.6176 Y0.6045 Z-0.0499
X4.6206 Y0.6052 Z-0.0496
X4.6236 Y0.606 Z-0.0489
X4.6259 Y0.6081 Z-0.0478
X4.6281 Y0.6102 Z-0.0464
X4.6291 Y0.6132 Z-0.0444
X4.6301 Y0.616 Z-0.042
Y0.617 Z-0.0412
Z-0.0411
X4.6295 Y0.6193 Z-0.0385
X4.629 Y0.6213 Z-0.0356
X4.6286 Y0.623 Z-0.0324
X4.6278 Y0.624 Z-0.0292
X4.6273 Y0.6248 Z-0.0259
X4.6269 Y0.6253 Z-0.0225
X4.6268 Y0.6254 Z-0.0191
G0 Z0.2
X4.088 Y0.294
Z0.1909
G1 Z0.0659 F39.37
Y0.2942 Z0.0574
X4.0883 Y0.2951 Z0.0489
X4.0886 Y0.2965 Z0.0405
X4.0891 Y0.2984 Z0.0322
X4.0898 Y0.3009 Z0.0241
X4.0905 Y0.304 Z0.0161
X4.0915 Y0.3075 Z0.0084
X4.0925 Y0.3116 Z0.001
X4.0937 Y0.3161 Z-0.0061
X4.0949 Y0.3211 Z-0.0129
X4.0963 Y0.3266 Z-0.0194
X4.0978 Y0.3324 Z-0.0254
X4.0994 Y0.3386 Z-0.031
X4.1011 Y0.3452 Z-0.0362
X4.1029 Y0.3521 Z-0.0409
X4.1047 Y0.3593 Z-0.045
X4.1066 Y0.3668 Z-0.0487
X4.1086 Y0.3745 Z-0.0518
X4.1106 Y0.3824 Z-0.0544
X4.1127 Y0.3904 Z-0.0564
X4.1148 Y0.3986 Z-0.0579
X4.1169 Y0.4068 Z-0.0588
X4.119 Y0.415 Z-0.0591
G3 X4.1288 Y0.4831 I-0.3091 J0.0792
G1 Y0.5061
X4.1283 Y0.5121
X4.126 Y0.5246
X4.1264 Y0.5501
X4.1347 Y0.5742
X4.1473 Y0.5963
X4.1624 Y0.6168
X4.1788 Y0.6363
X4.196 Y0.6551
X4.2137 Y0.6735
X4.2316 Y0.6916
X4.2497 Y0.7095
X4.2678 Y0.7274
X4.2861 Y0.7452
X4.3226 Y0.7808
X4.3437 Y0.795
X4.3676 Y0.8038
X4.3925 Y0.8092
X4.4178 Y0.8124
X4.4432 Y0.8144
X4.4687 Y0.8155
X4.4941 Y0.8161
X4.5196 Y0.8165
X4.5451 Y0.8167
X4.5706 Y0.8169
X4.6215 Y0.817
X4.698 Y0.8171
X4.7235 Y0.8169
X4.7477 Y0.809
X4.7701 Y0.7968
X4.791 Y0.7823
X4.8109 Y0.7664
X4.8302 Y0.7498
X4.8491 Y0.7326
X4.8677 Y0.7153
X4.8862 Y0.6977
X4.9046 Y0.6801
X4.923 Y0.6624
X4.9642 Y0.6226
X4.9677 Y0.6173
X4.9722 Y0.6054
X4.9732 Y0.5799
X4.9657 Y0.5556
X4.9534 Y0.5332
X4.9386 Y0.5125
X4.9223 Y0.4929
X4.9051 Y0.4741
X4.8875 Y0.4557
X4.8696 Y0.4375
X4.8515 Y0.4196
X4.8334 Y0.4017
X4.8152 Y0.3839
X4.7969 Y0.3661
X4.7749 Y0.3534
X4.7506 Y0.3455
X4.7256 Y0.3407
X4.7003 Y0.3379
X4.6748 Y0.3362
X4.6494 Y0.3352
X4.6239 Y0.3346
X4.5984 Y0.3343
X4.573 Y0.3341
X4.5475 Y0.334
X4.4965 Y0.3339
X4.4201 Y0.3338
X4.3947 Y0.3358
X4.3708 Y0.3447
X4.3487 Y0.3574
X4.328 Y0.3723
X4.3082 Y0.3884
X4.289 Y0.4051
X4.2702 Y0.4223
X4.2516 Y0.4397
X4.2332 Y0.4573
X4.2148 Y0.4749
X4.2072 Y0.4852
X4.2015 Y0.4966
X4.1983 Y0.5089
X4.1964 Y0.5343
X4.2021 Y0.5591
X4.2128 Y0.5823
X4.2264 Y0.6038
X4.2418 Y0.6241
X4.2584 Y0.6435
X4.2756 Y0.6623
X4.2932 Y0.6807
X4.3111 Y0.6988
X4.3292 Y0.7167
X4.3495 Y0.7321
X4.3723 Y0.7436
X4.3965 Y0.7516
X4.4214 Y0.757
X4.4466 Y0.7607
X4.472 Y0.763
X4.4974 Y0.7645
X4.5229 Y0.7655
X4.5483 Y0.7661
X4.5738 Y0.7665
X4.5993 Y0.7667
X4.6248 Y0.7668
X4.6503 Y0.7669
X4.6757
X4.7009 Y0.763
X4.725 Y0.7547
X4.7477 Y0.7432
X4.7692 Y0.7294
X4.7896 Y0.7142
X4.8093 Y0.6981
X4.8286 Y0.6813
X4.8474 Y0.6642
X4.8661 Y0.6469
X4.8846 Y0.6294
X4.8905 Y0.6181
X4.8935 Y0.6057
X4.8945 Y0.5802
X4.8879 Y0.5557
X4.8765 Y0.5328
X4.8625 Y0.5116
X4.8467 Y0.4916
X4.83 Y0.4723
X4.8126 Y0.4537
X4.7949 Y0.4354
X4.7748 Y0.4197
X4.7523 Y0.4079
X4.7281 Y0.3996
X4.7033 Y0.394
X4.6781 Y0.3903
X4.6527 Y0.3879
X4.6273 Y0.3864
X4.6018 Y0.3854
X4.5763 Y0.3848
X4.5509 Y0.3844
X4.5254 Y0.3842
X4.4999 Y0.384
X4.4744 Y0.3839
X4.4489 Y0.3842
X4.4237 Y0.388
X4.3996 Y0.3961
X4.3768 Y0.4075
X4.3553 Y0.4211
X4.3348 Y0.4363
X4.315 Y0.4523
X4.2957 Y0.469
X4.2865 Y0.4778
X4.279 Y0.4881
X4.274 Y0.4999
X4.269 Y0.5248
X4.2724 Y0.5501
X4.2815 Y0.5739
X4.2941 Y0.596
X4.3088 Y0.6168
X4.3249 Y0.6366
X4.3421 Y0.6554
X4.3614 Y0.672
X4.3833 Y0.6851
X4.4068 Y0.695
X4.4313 Y0.702
X4.4562 Y0.707
X4.4815 Y0.7104
X4.5069 Y0.7127
X4.5323 Y0.7142
X4.5578 Y0.7152
X4.5832 Y0.7159
X4.6087 Y0.7163
X4.6342 Y0.7166
X4.6596 Y0.7145
X4.6845 Y0.7089
X4.7083 Y0.6998
X4.7308 Y0.688
X4.7523 Y0.6743
X4.7729 Y0.6592
X4.7927 Y0.6433
X4.8024 Y0.635
X4.8101 Y0.6248
X4.8149 Y0.613
X4.8194 Y0.5879
X4.8152 Y0.5628
X4.8055 Y0.5392
X4.7925 Y0.5173
X4.7771 Y0.497
X4.7585 Y0.4796
X4.737 Y0.4659
X4.7136 Y0.4558
X4.6892 Y0.4487
X4.6642 Y0.4437
X4.6389 Y0.4403
X4.6135 Y0.4381
X4.5881 Y0.4366
X4.5626 Y0.4356
X4.5372 Y0.4349
X4.5117 Y0.4345
X4.4862 Y0.4346
X4.4609 Y0.4371
X4.4361 Y0.4432
X4.4125 Y0.4527
X4.39 Y0.4648
X4.3687 Y0.4786
X4.3594 Y0.4874
X4.3527 Y0.4982
X4.3488 Y0.5103
X4.3458 Y0.5357
X4.3508 Y0.5606
X4.3611 Y0.5839
X4.376 Y0.6047
X4.3949 Y0.6218
X4.4167 Y0.635
X4.4402 Y0.6447
X4.4647 Y0.6517
X4.4897 Y0.6566
X4.5149 Y0.66
X4.5403 Y0.6624
X4.5658 Y0.6639
X4.5912 Y0.665
X4.6167 Y0.6648
X4.642 Y0.6618
X4.6667 Y0.6555
X4.6904 Y0.6461
X4.7129 Y0.6342
X4.7233 Y0.6269
X4.7311 Y0.6168
X4.7359 Y0.605
X4.7379 Y0.5924
X4.7374 Y0.5797
X4.7343 Y0.5673
X4.7237 Y0.5442
X4.7059 Y0.5259
X4.6842 Y0.5125
X4.6605 Y0.5032
X4.6358 Y0.4967
X4.6107 Y0.4923
X4.5854 Y0.4894
X4.56 Y0.4875
X4.5346 Y0.4863
X4.5091 Y0.4862
X4.4838 Y0.4889
X4.459 Y0.495
X4.4533 Y0.4978
X4.4482 Y0.5016
X4.4441 Y0.5065
X4.4412 Y0.5122
X4.4395 Y0.5183
X4.4387 Y0.531
X4.4419 Y0.5434
X4.4487 Y0.5541
X4.466 Y0.5729
X4.4878 Y0.586
X4.5116 Y0.595
X4.5364 Y0.6009
X4.5616 Y0.6048
X4.587 Y0.6065
X4.6125 Y0.6053
X4.6156 Y0.6046
G3 X4.6301 Y0.617 I0.002 J0.0123
G1 X4.6299 Y0.6193
X4.6293 Y0.6215
X4.6282 Y0.6236
X4.6268 Y0.6254
X4.6211 Y0.6317 Z-0.0588
X4.6154 Y0.638 Z-0.0579
X4.6097 Y0.6442 Z-0.0564
X4.6041 Y0.6503 Z-0.0544
X4.5986 Y0.6563 Z-0.0518
X4.5932 Y0.6622 Z-0.0487
X4.588 Y0.6679 Z-0.045
X4.583 Y0.6734 Z-0.0409
X4.5782 Y0.6786 Z-0.0362
X4.5736 Y0.6836 Z-0.031
X4.5693 Y0.6884 Z-0.0254
X4.5652 Y0.6928 Z-0.0194
X4.5614 Y0.697 Z-0.0129
X4.5579 Y0.7008 Z-0.0061
X4.5548 Y0.7042 Z0.001
X4.552 Y0.7073 Z0.0084
X4.5495 Y0.71 Z0.0161
X4.5474 Y0.7124 Z0.0241
X4.5456 Y0.7143 Z0.0322
X4.5443 Y0.7158 Z0.0405
X4.5433 Y0.7168 Z0.0489
X4.5427 Y0.7175 Z0.0574
X4.5425 Y0.7177 Z0.0659
G0 Z0.6
X0.4282 Y0.3231
Z0.2
Z0.1
G3 X0.3618 Y0.4001 Z0.0958 I-0.06 J0.0155 F13.12
X0.3128 Y0.3112 Z0.0917 I0.0064 J-0.0615
X0.4132 Y0.2962 Z0.0875 I0.0554 J0.0274
X0.3922 Y0.3954 Z0.0833 I-0.0449 J0.0423
X0.3067 Y0.3412 Z0.0792 I-0.0239 J-0.0568
X0.3872 Y0.28 Z0.075 I0.0615 J-0.0026
X0.4164 Y0.3767 Z0.0708 I-0.0189 J0.0585
X0.3158 Y0.3704 Z0.0667 I-0.0482 J-0.0381
X0.3567 Y0.2784 Z0.0625 I0.0524 J-0.0318
X0.4286 Y0.3487 Z0.0583 I0.0115 J0.0602
X0.3377 Y0.3916 Z0.0542 I-0.0603 J-0.0102
X0.3292 Y0.2915 Z0.05 I0.0305 J-0.053
X0.4258 Y0.3184 Z0.0458 I0.0389 J0.047
X0.367 Y0.3995 Z0.0417 I-0.0576 J0.0201
X0.3116 Y0.3162 Z0.0375 I0.0012 J-0.0609
X0.4089 Y0.2933 Z0.0333 I0.0566 J0.0224
X0.3964 Y0.3924 Z0.0292 I-0.0406 J0.0452
X0.3081 Y0.3462 Z0.025 I-0.0281 J-0.0538
X0.382 Y0.2796 Z0.0208 I0.0601 J-0.0076
X0.4186 Y0.372 Z0.0167 I-0.0138 J0.0589
X0.3194 Y0.3741 Z0.0125 I-0.0504 J-0.0334
X0.3519 Y0.2804 Z0.0083 I0.0488 J-0.0355
X0.4283 Y0.3436 Z0.0042 I0.0162 J0.0581
X0.3426 Y0.3931 Z0 I-0.06 J-0.005
X0.3261 Y0.2956 Z-0.0042 I0.0256 J-0.0545
X0.4231 Y0.3141 Z-0.0083 I0.0421 J0.0429
X0.372 Y0.3984 Z-0.0125 I-0.0548 J0.0244
X0.3108 Y0.3213 Z-0.0167 I-0.0038 J-0.0598
X0.4044 Y0.2909 Z-0.0208 I0.0573 J0.0173
X0.4003 Y0.389 Z-0.025 I-0.0362 J0.0477
X0.3098 Y0.351 Z-0.0292 I-0.032 J-0.0504
X0.3769 Y0.2796 Z-0.0333 I0.0584 J-0.0124
X0.4204 Y0.3672 Z-0.0375 I-0.0087 J0.059
X0.3232 Y0.3775 Z-0.0417 I-0.0522 J-0.0287
X0.3475 Y0.2829 Z-0.0458 I0.045 J-0.0388
X0.4276 Y0.3385 Z-0.05 I0.0207 J0.0557
X0.3088 Y0.3385 I-0.0594 J0
X0.4276 Y0.3385 I0.0594 J0
G1 X0.4282 Y0.364 F39.37
X0.4293 Y0.367
X0.4307 Y0.3728
X0.4308 Y0.3788
X0.4299 Y0.3848
X0.4281 Y0.3905
X0.4256 Y0.396
X0.4225 Y0.4011
X0.4189 Y0.4059
X0.4148 Y0.4103
X0.4103 Y0.4142
X0.4054 Y0.4178
X0.4003 Y0.4209
X0.3949 Y0.4235
X0.3892 Y0.4258
X0.3833 Y0.4276
X0.3771 Y0.4289
X0.3706 Y0.4298
X0.364 Y0.4302
X0.3573 Y0.43
X0.3505 Y0.4293
X0.3437 Y0.4281
X0.337 Y0.4262
X0.3303 Y0.4238
X0.3238 Y0.4209
X0.3175 Y0.4174
X0.3115 Y0.4134
X0.3057 Y0.4089
X0.3004 Y0.4039
X0.2954 Y0.3984
X0.2908 Y0.3926
X0.2867 Y0.3864
X0.2831 Y0.3799
X0.2801 Y0.373
X0.2776 Y0.366
X0.2756 Y0.3587
X0.2743 Y0.3513
X0.274 Y0.3486
Y0.3467
Y0.3355
X0.2743 Y0.3289
X0.2753 Y0.3215
X0.2768 Y0.3142
X0.279 Y0.307
X0.2817 Y0.3
X0.285 Y0.2933
X0.2888 Y0.2868
X0.2931 Y0.2806
X0.298 Y0.2748
X0.3032 Y0.2694
X0.309 Y0.2644
X0.3151 Y0.2599
X0.3215 Y0.2559
X0.3282 Y0.2524
X0.3353 Y0.2495
X0.3425 Y0.2471
X0.3499 Y0.2453
X0.3546 Y0.2446
X0.3561 Y0.2444
X0.3576 Y0.2443
X0.3591 Y0.2442
G3 X0.3712 Y0.2572 Z-0.042 I-0.0004 J0.0125
G1 X0.3709 Y0.2594
X0.3702 Y0.2615
X0.3692 Y0.2634
X0.3679 Y0.2652
X0.3673 Y0.2658
X0.2956 Y0.3436
X0.2938 Y0.3452
X0.2917 Y0.3465
X0.2893 Y0.3473
X0.2869 Y0.3476
G3 X0.274 Y0.3355 Z-0.05 I-0.0004 J-0.0125
G1 Y0.2835
X0.2743 Y0.2775
X0.2751 Y0.2716
X0.2766 Y0.2658
X0.2776 Y0.2631
X0.2819 Y0.2555
X0.2883 Y0.2494
X0.2962 Y0.2456
X0.3049 Y0.2442
G3 X0.317 Y0.2572 Z-0.042 I-0.0004 J0.0125
G1 X0.3167 Y0.2595
X0.3159 Y0.2617
X0.3148 Y0.2638
X0.3133 Y0.266
X0.2968 Y0.2901
G3 X0.2869 Y0.2956 I-0.0103 J-0.0071
X0.274 Y0.2835 Z-0.05 I-0.0004 J-0.0125
G1 Y0.2575
Y0.2561
X0.2743 Y0.2546
X0.2747 Y0.2532
X0.2753 Y0.2517
X0.2762 Y0.2503
X0.2772 Y0.2488
X0.2787 Y0.2473
X0.2801 Y0.2462
X0.2816 Y0.2454
X0.283 Y0.2449
X0.2845 Y0.2445
X0.2859 Y0.2443
X0.2874 Y0.2442
X0.3713
X0.3777 Y0.2446
X0.3851 Y0.2455
X0.3924 Y0.2471
X0.3996 Y0.2492
X0.4066 Y0.252
X0.4134 Y0.2553
X0.4199 Y0.2591
X0.4261 Y0.2634
X0.4319 Y0.2683
X0.4373 Y0.2736
X0.4423 Y0.2793
X0.4468 Y0.2854
X0.4509 Y0.292
X0.4553 Y0.3004
X0.4623 Y0.3171
X0.4664 Y0.3297
X0.4689 Y0.3403
X0.4704 Y0.3499
X0.4709 Y0.3558
X0.4703 Y0.3642
X0.4673 Y0.3722
X0.4621 Y0.3789
X0.3967 Y0.4423
X0.3922 Y0.4463
X0.3874 Y0.4497
X0.3821 Y0.4527
X0.3767 Y0.4552
X0.371 Y0.4572
X0.3649 Y0.4588
X0.3585 Y0.4599
X0.3516 Y0.4606
X0.3443 Y0.4607
X0.3366 Y0.4601
X0.3288 Y0.459
X0.3209 Y0.4572
X0.3129 Y0.4546
X0.3048 Y0.4513
X0.2967 Y0.4472
X0.2888 Y0.4424
X0.286 Y0.4403
X0.2795 Y0.4339
X0.2754 Y0.4257
X0.274 Y0.4167
G3 X0.2869 Y0.4047 Z-0.042 I0.0125 J0.0004
G1 X0.2885 Y0.4048
X0.2965 Y0.4061
X0.3876 Y0.4209
X0.3897 Y0.4213
X0.3922 Y0.4219
X0.3944 Y0.4231
X0.3964 Y0.4246
G3 X0.3967 Y0.4423 Z-0.05 I-0.0087 J0.009
G1 X0.3655 Y0.4726
X0.361 Y0.4765
X0.356 Y0.4798
X0.3506 Y0.4824
X0.3449 Y0.4845
X0.3392 Y0.486
X0.3331 Y0.4871
X0.3264 Y0.4878
X0.3193 Y0.4879
X0.3117 Y0.4874
X0.3047 Y0.4864
X0.2978 Y0.4848
X0.2944 Y0.4837
X0.2861 Y0.4796
X0.2796 Y0.4732
X0.2754 Y0.465
X0.274 Y0.4559
G3 X0.2869 Y0.4439 Z-0.042 I0.0125 J0.0004
G1 X0.2878
X0.2966 Y0.4449
X0.3564 Y0.4513
X0.3579 Y0.4515
X0.3605 Y0.4521
X0.363 Y0.4532
X0.3652 Y0.4549
G3 X0.3655 Y0.4726 Z-0.05 I-0.0087 J0.009
G1 X0.3381 Y0.4992
X0.3336 Y0.5031
X0.3285 Y0.5064
X0.3231 Y0.509
X0.3175 Y0.511
X0.3116 Y0.5123
X0.3057 Y0.5131
X0.3035
X0.2944 Y0.5118
X0.2862 Y0.5076
X0.2796 Y0.5012
X0.2754 Y0.493
X0.274 Y0.4839
G3 X0.2869 Y0.4719 Z-0.042 I0.0125 J0.0004
G1 X0.2882 Y0.472
X0.2965 Y0.4732
X0.3289 Y0.4779
X0.3309 Y0.4782
X0.3334 Y0.4788
X0.3357 Y0.4799
X0.3378 Y0.4815
G3 X0.3381 Y0.4992 Z-0.05 I-0.0087 J0.009
G1 X0.3146 Y0.5219
X0.3101 Y0.5259
X0.3021 Y0.5285
X0.2937 Y0.5282
X0.2859 Y0.5251
X0.2795 Y0.5196
X0.2754 Y0.5122
X0.274 Y0.5039
G3 X0.2813 Y0.4879 Z-0.0426 I0.0228 J0.0008
G1 X0.2825 Y0.4869 Z-0.042
G3 X0.3212 Y0.5041 I0.015 J0.0185
X0.3146 Y0.5219 Z-0.05 I-0.0238 J0.0014
G1 X0.3101 Y0.5263
X0.3043 Y0.5321
X0.3036 Y0.5329
X0.2994 Y0.5372
X0.2926 Y0.5392
X0.2856 Y0.5383
X0.2795 Y0.5347
X0.2754 Y0.5289
X0.274 Y0.522
X0.2743 Y0.5192 Z-0.0489
X0.275 Y0.5166 Z-0.0477
G3 X0.2846 Y0.5068 Z-0.042 I0.0157 J0.0058
X0.3054 Y0.5145 I0.0061 J0.0155
X0.3036 Y0.5329 Z-0.05 I-0.0147 J0.0078
G1 X0.3019 Y0.5349
X0.2994 Y0.5379
X0.2961 Y0.5422
X0.2945 Y0.5436
X0.2935 Y0.5444
X0.2924 Y0.5449
X0.2913 Y0.5454
X0.2903 Y0.5458
X0.2888 Y0.5461
X0.2874 Y0.5462
X0.2859
X0.2845 Y0.546
X0.2832 Y0.5456
X0.2819 Y0.5452
X0.2806 Y0.5445
X0.2793 Y0.5436
X0.2787 Y0.5431
X0.2774 Y0.5418
X0.2764 Y0.5405
X0.275 Y0.5379
X0.2744 Y0.5364
X0.2741 Y0.535
X0.274 Y0.5321
Y0.3467
X0.2742 Y0.3445 Z-0.0491
X0.2749 Y0.3423 Z-0.0482
X0.276 Y0.3403 Z-0.0472
X0.2774 Y0.3385 Z-0.0463
X0.2846 Y0.3308 Z-0.042
X0.2913 Y0.3238
X0.3492 Y0.2624
X0.3559 Y0.2553
X0.3627 Y0.2481 Z-0.046
X0.3645 Y0.2465 Z-0.047
X0.3666 Y0.2453 Z-0.048
X0.3689 Y0.2446 Z-0.049
X0.3713 Y0.2442 Z-0.05
X0.4234
X0.4294 Y0.2445
X0.4353 Y0.2454
X0.4411 Y0.2469
X0.4467 Y0.2491
X0.4521 Y0.2517
X0.4574 Y0.2549
X0.4632 Y0.259
X0.4695 Y0.2643
X0.4758 Y0.2705
X0.482 Y0.2777
X0.4881 Y0.286
X0.4937 Y0.2951
X0.4985 Y0.3045
X0.5021 Y0.3132
X0.5031 Y0.3165
X0.5045 Y0.3244
X0.5037 Y0.3325
X0.5006 Y0.34
X0.4957 Y0.3463
X0.4621 Y0.3789
X0.4603 Y0.3803 Z-0.0491
X0.4582 Y0.3813 Z-0.0481
X0.456 Y0.3819 Z-0.0472
X0.4537 Y0.3821 Z-0.0463
G3 X0.4444 Y0.378 Z-0.042 I0 J-0.0125
G1 X0.4432 Y0.3764
X0.4423 Y0.3747
X0.4416 Y0.3728
X0.4407 Y0.3692
X0.4135 Y0.2666
X0.4118 Y0.2599
X0.4113 Y0.2572
G3 X0.4234 Y0.2442 Z-0.05 I0.0125 J-0.0004
G1 X0.4639
X0.4699 Y0.2445
X0.4759 Y0.2454
X0.4817 Y0.2469
X0.4873 Y0.249
X0.4927 Y0.2515
X0.4985 Y0.2549
X0.5041 Y0.2589
X0.5099 Y0.2636
X0.515 Y0.2685
X0.5197 Y0.274
X0.5239 Y0.2795
X0.5271 Y0.2846
X0.5279 Y0.2861
X0.5308 Y0.2949
Y0.3042
X0.5279 Y0.313
X0.5223 Y0.3205
X0.4957 Y0.3463
X0.4938 Y0.3477 Z-0.0491
X0.4918 Y0.3487 Z-0.0481
X0.4896 Y0.3494 Z-0.0472
X0.4873 Y0.3496 Z-0.0463
G3 X0.478 Y0.3455 Z-0.042 I0 J-0.0125
G1 X0.4769 Y0.344
X0.4759 Y0.3423
X0.4753 Y0.3405
X0.4742 Y0.3366
X0.4542 Y0.2666
X0.4523 Y0.2602
X0.452 Y0.2587
X0.4519 Y0.2572
G3 X0.4639 Y0.2442 Z-0.05 I0.0125 J-0.0004
G1 X0.5076
X0.5136 Y0.2445
X0.5195 Y0.2458
X0.5252 Y0.2477
X0.5306 Y0.2503
X0.5357 Y0.2535
X0.5404 Y0.2572
X0.5447 Y0.2613
X0.5449 Y0.2615
X0.5494 Y0.2691
X0.5514 Y0.2777
X0.5508 Y0.2865
X0.5476 Y0.2948
X0.542 Y0.3016
X0.5392 Y0.3042
X0.5366 Y0.3066
X0.5223 Y0.3205
X0.5205 Y0.3219 Z-0.0491
X0.5184 Y0.3229 Z-0.0481
X0.5162 Y0.3235 Z-0.0472
X0.5139 Y0.3237 Z-0.0463
G3 X0.5046 Y0.3196 Z-0.042 I0 J-0.0125
G1 X0.5031 Y0.3175
X0.502 Y0.3151
X0.5015 Y0.3126
X0.5013 Y0.3107
X0.4966 Y0.2668
X0.4956 Y0.2581
Y0.2572
G3 X0.5076 Y0.2442 Z-0.05 I0.0125 J-0.0004
G1 X0.5392
X0.5452 Y0.2445
X0.551 Y0.2459
X0.5578 Y0.2505
X0.5628 Y0.2569
X0.5657 Y0.2646
X0.5661 Y0.2727
X0.5641 Y0.2807
X0.5597 Y0.2876
X0.5535 Y0.2929
G3 X0.5365 Y0.2882 Z-0.042 I-0.0062 J-0.0109
G1 X0.5354 Y0.2857
X0.5333 Y0.279
X0.5295 Y0.2665
X0.5276 Y0.2604
X0.5273 Y0.2588
X0.5271 Y0.2572
G3 X0.5392 Y0.2442 Z-0.05 I0.0125 J-0.0004
G1 X0.5597
X0.5657 Y0.2445
X0.5713 Y0.2467
X0.5765 Y0.2517
X0.5799 Y0.2581
X0.5811 Y0.2652
X0.58 Y0.2724
X0.5768 Y0.2789
X0.5717 Y0.284
X0.5653 Y0.2874
X0.5626 Y0.2879 Z-0.0489
X0.5599 Y0.288 Z-0.0478
G3 X0.5468 Y0.2833 Z-0.042 I0.0006 J-0.0219
X0.5429 Y0.253 I0.0137 J-0.0171
X0.5597 Y0.2442 Z-0.05 I0.0176 J0.0131
G1 X0.5756
X0.5816 Y0.2445
X0.5872 Y0.2468
X0.5919 Y0.2521
X0.5946 Y0.2585
X0.5951 Y0.2655
X0.5932 Y0.2723
X0.5893 Y0.2782
X0.5837 Y0.2824
X0.577 Y0.2846
X0.5754 Z-0.0493
G3 X0.5601 Y0.2764 Z-0.042 I0.0009 J-0.0202
X0.5593 Y0.2536 I0.0163 J-0.012
X0.5756 Y0.2442 Z-0.05 I0.0171 J0.0108
G1 X0.5901
X0.5961 Y0.2445
X0.6016 Y0.2469
X0.6062 Y0.2525
X0.6087 Y0.2592
X0.6088 Y0.2665
X0.6064 Y0.2733
X0.6019 Y0.2789
X0.5957 Y0.2826
X0.5886 Y0.284
X0.5797 Y0.2842
X0.577 Y0.2846
G3 X0.5664 Y0.2776 I-0.0011 J-0.0099
X0.5901 Y0.2442 I0.0246 J-0.0076
G1 X0.6046
X0.6106 Y0.2445
X0.616 Y0.2471
X0.6205 Y0.2511
X0.6235 Y0.258
X0.6239 Y0.2655
X0.6216 Y0.2727
X0.6169 Y0.2786
X0.6105 Y0.2824
X0.6031 Y0.2838
X0.597
X0.5886 Y0.284
G3 X0.5791 Y0.2759 I0.0001 J-0.0098
X0.6046 Y0.2442 I0.0264 J-0.0048
G1 X0.6202
X0.6262 Y0.2445
X0.6315 Y0.2473
X0.6358 Y0.253
X0.638 Y0.2599
X0.6377 Y0.267
X0.635 Y0.2737
X0.6303 Y0.2791
X0.6241 Y0.2826
X0.617 Y0.2838
X0.6031
G3 X0.5937 Y0.2753 I0.0003 J-0.0097
X0.6202 Y0.2442 I0.0274 J-0.0034
G1 X0.6335
X0.6395 Y0.2445
X0.645 Y0.247
X0.6495 Y0.251
X0.6525 Y0.2579
X0.6528 Y0.2655
X0.6505 Y0.2727
X0.6458 Y0.2786
X0.6393 Y0.2824
X0.6319 Y0.2838
X0.617
G3 X0.6077 Y0.2756 I0.0003 J-0.0097
X0.6335 Y0.2442 I0.0267 J-0.0043
G1 X0.6491
X0.6551 Y0.2445
X0.6605 Y0.2473
X0.6648 Y0.253
X0.6669 Y0.2599
X0.6666 Y0.267
X0.664 Y0.2737
X0.6593 Y0.2791
X0.653 Y0.2826
X0.6459 Y0.2838
X0.6319
G3 X0.6226 Y0.2752 I0.0003 J-0.0097
X0.6491 Y0.2442 I0.0275 J-0.0033
G1 X0.6625
X0.6685 Y0.2445
X0.6739 Y0.247
X0.6784 Y0.251
X0.6814 Y0.2579
X0.6818 Y0.2655
X0.6795 Y0.2727
X0.6748 Y0.2786
X0.6683 Y0.2824
X0.6608 Y0.2838
X0.6459
G3 X0.6367 Y0.2756 I0.0003 J-0.0097
X0.6625 Y0.2442 I0.0268 J-0.0043
G1 X0.6781
X0.6841 Y0.2445
X0.6894 Y0.2473
X0.6937 Y0.253
X0.6958 Y0.2599
X0.6956 Y0.267
X0.6929 Y0.2737
X0.6882 Y0.2791
X0.6819 Y0.2826
X0.6749 Y0.2838
X0.6608
G3 X0.6515 Y0.2752 I0.0003 J-0.0097
X0.6781 Y0.2442 I0.0276 J-0.0032
G1 X0.6914
X0.6974 Y0.2445
X0.7029 Y0.247
X0.7074 Y0.251
X0.7104 Y0.2579
X0.7107 Y0.2655
X0.7084 Y0.2727
X0.7037 Y0.2786
X0.6972 Y0.2824
X0.6898 Y0.2838
X0.6749
G3 X0.6656 Y0.2756 I0.0003 J-0.0097
X0.6914 Y0.2442 I0.0268 J-0.0043
G1 X0.707
X0.713 Y0.2445
X0.7183 Y0.2473
X0.7226 Y0.253
X0.7248 Y0.2599
X0.7245 Y0.267
X0.7218 Y0.2737
X0.7171 Y0.2791
X0.7109 Y0.2826
X0.7038 Y0.2838
X0.6898
G3 X0.6804 Y0.2752 I0.0003 J-0.0097
X0.707 Y0.2442 I0.0276 J-0.0032
G1 X0.7203
X0.7263 Y0.2445
X0.7318 Y0.247
X0.7363 Y0.251
X0.7393 Y0.2579
X0.7396 Y0.2655
X0.7373 Y0.2727
X0.7326 Y0.2786
X0.7261 Y0.2824
X0.7187 Y0.2838
X0.7038
G3 X0.6945 Y0.2756 I0.0003 J-0.0097
X0.7203 Y0.2442 I0.0268 J-0.0043
G1 X0.736
X0.742 Y0.2445
X0.7473 Y0.2473
X0.7516 Y0.253
X0.7537 Y0.2599
X0.7534 Y0.267
X0.7508 Y0.2737
X0.7461 Y0.2791
X0.7398 Y0.2826
X0.7328 Y0.2838
X0.7187
G3 X0.7094 Y0.2752 I0.0003 J-0.0097
X0.736 Y0.2442 I0.0276 J-0.0032
G1 X0.7493
X0.7553 Y0.2445
X0.7607 Y0.247
X0.7652 Y0.251
X0.7682 Y0.2579
X0.7686 Y0.2655
X0.7663 Y0.2727
X0.7616 Y0.2786
X0.7551 Y0.2824
X0.7476 Y0.2838
X0.7328
G3 X0.7235 Y0.2756 I0.0003 J-0.0097
X0.7493 Y0.2442 I0.0268 J-0.0043
G1 X0.7649
X0.7709 Y0.2445
X0.7762 Y0.2473
X0.7805 Y0.253
X0.7826 Y0.2599
X0.7824 Y0.267
X0.7797 Y0.2737
X0.775 Y0.2791
X0.7688 Y0.2826
X0.7617 Y0.2838
X0.7476
G3 X0.7383 Y0.2752 I0.0003 J-0.0097
X0.7649 Y0.2442 I0.0276 J-0.0032
G1 X0.7782
X0.7842 Y0.2445
X0.7897 Y0.247
X0.7942 Y0.251
X0.7972 Y0.2579
X0.7975 Y0.2655
X0.7952 Y0.2727
X0.7905 Y0.2786
X0.784 Y0.2824
X0.7766 Y0.2838
X0.7617
G3 X0.7524 Y0.2756 I0.0003 J-0.0097
X0.7782 Y0.2442 I0.0268 J-0.0043
G1 X0.7938
X0.7998 Y0.2445
X0.8052 Y0.2473
X0.8095 Y0.253
X0.8116 Y0.2599
X0.8113 Y0.267
X0.8087 Y0.2737
X0.8039 Y0.2791
X0.7977 Y0.2826
X0.7906 Y0.2838
X0.7766
G3 X0.7672 Y0.2752 I0.0003 J-0.0097
X0.7938 Y0.2442 I0.0276 J-0.0032
G1 X0.8072
X0.8132 Y0.2445
X0.8186 Y0.247
X0.8231 Y0.251
X0.8261 Y0.2579
X0.8265 Y0.2655
X0.8241 Y0.2727
X0.8194 Y0.2786
X0.813 Y0.2824
X0.8055 Y0.2838
X0.7906
G3 X0.7813 Y0.2756 I0.0003 J-0.0097
X0.8072 Y0.2442 I0.0268 J-0.0043
G1 X0.8228
X0.8288 Y0.2445
X0.8341 Y0.2473
X0.8384 Y0.253
X0.8405 Y0.2599
X0.8403 Y0.267
X0.8376 Y0.2737
X0.8329 Y0.2791
X0.8266 Y0.2826
X0.8196 Y0.2838
X0.8055
G3 X0.7962 Y0.2752 I0.0003 J-0.0097
X0.8228 Y0.2442 I0.0276 J-0.0032
G1 X0.8361
X0.8421 Y0.2445
X0.8476 Y0.247
X0.8521 Y0.251
X0.855 Y0.2579
X0.8554 Y0.2655
X0.8531 Y0.2727
X0.8484 Y0.2786
X0.8419 Y0.2824
X0.8345 Y0.2838
X0.8196
G3 X0.8103 Y0.2756 I0.0003 J-0.0097
X0.8361 Y0.2442 I0.0268 J-0.0043
G1 X0.8517
X0.8577 Y0.2445
X0.863 Y0.2473
X0.8673 Y0.253
X0.8695 Y0.2599
X0.8692 Y0.267
X0.8665 Y0.2737
X0.8618 Y0.2791
X0.8556 Y0.2826
X0.8485 Y0.2838
X0.8345
G3 X0.8251 Y0.2752 I0.0003 J-0.0097
X0.8517 Y0.2442 I0.0276 J-0.0032
G1 X0.865
X0.871 Y0.2445
X0.8765 Y0.247
X0.881 Y0.251
X0.884 Y0.2579
X0.8843 Y0.2655
X0.882 Y0.2727
X0.8773 Y0.2786
X0.8708 Y0.2824
X0.8634 Y0.2838
X0.8485
G3 X0.8392 Y0.2756 I0.0003 J-0.0097
X0.865 Y0.2442 I0.0268 J-0.0043
G1 X0.8807
X0.8867 Y0.2445
X0.892 Y0.2473
X0.8963 Y0.253
X0.8984 Y0.2599
X0.8981 Y0.267
X0.8955 Y0.2737
X0.8908 Y0.2791
X0.8845 Y0.2826
X0.8775 Y0.2838
X0.8634
G3 X0.8541 Y0.2752 I0.0003 J-0.0097
X0.8807 Y0.2442 I0.0276 J-0.0032
G1 X0.894
X0.9 Y0.2445
X0.9054 Y0.247
X0.9099 Y0.251
X0.9129 Y0.2579
X0.9133 Y0.2655
X0.911 Y0.2727
X0.9063 Y0.2786
X0.8998 Y0.2824
X0.8923 Y0.2838
X0.8775
G3 X0.8682 Y0.2756 I0.0003 J-0.0097
X0.894 Y0.2442 I0.0268 J-0.0043
G1 X0.9096
X0.9156 Y0.2445
X0.9209 Y0.2473
X0.9252 Y0.253
X0.9273 Y0.2599
X0.9271 Y0.267
X0.9244 Y0.2737
X0.9197 Y0.2791
X0.9135 Y0.2826
X0.9064 Y0.2838
X0.8923
G3 X0.883 Y0.2752 I0.0003 J-0.0097
X0.9096 Y0.2442 I0.0276 J-0.0032
G1 X0.9229
X0.9289 Y0.2445
X0.9344 Y0.247
X0.9389 Y0.251
X0.9419 Y0.2579
X0.9422 Y0.2655
X0.9399 Y0.2727
X0.9352 Y0.2786
X0.9287 Y0.2824
X0.9213 Y0.2838
X0.9064
G3 X0.8971 Y0.2756 I0.0003 J-0.0097
X0.9229 Y0.2442 I0.0268 J-0.0043
G1 X0.9385
X0.9445 Y0.2445
X0.9499 Y0.2473
X0.9542 Y0.253
X0.9563 Y0.2599
X0.956 Y0.267
X0.9534 Y0.2737
X0.9486 Y0.2791
X0.9424 Y0.2826
X0.9353 Y0.2838
X0.9213
G3 X0.9119 Y0.2752 I0.0003 J-0.0097
X0.9385 Y0.2442 I0.0276 J-0.0032
G1 X0.9519
X0.9579 Y0.2445
X0.9633 Y0.247
X0.9678 Y0.251
X0.9708 Y0.2579
X0.9712 Y0.2655
X0.9688 Y0.2727
X0.9641 Y0.2786
X0.9577 Y0.2824
X0.9502 Y0.2838
X0.9353
G3 X0.926 Y0.2756 I0.0003 J-0.0097
X0.9519 Y0.2442 I0.0268 J-0.0043
G1 X0.9675
X0.9735 Y0.2445
X0.9788 Y0.2473
X0.9831 Y0.253
X0.9852 Y0.2599
X0.985 Y0.2671
X0.9823 Y0.2737
X0.9775 Y0.2791
X0.9713 Y0.2826
X0.9642 Y0.2838
X0.9502
G3 X0.9409 Y0.2752 I0.0003 J-0.0097
X0.9675 Y0.2442 I0.0276 J-0.0032
G1 X0.9808
X0.9868 Y0.2445
X0.9923 Y0.247
X0.9968 Y0.251
X0.9998 Y0.258
X1.0001 Y0.2655
X0.9978 Y0.2728
X0.993 Y0.2787
X0.9865 Y0.2826
X0.979 Y0.2839
X0.9642 Y0.2838
G3 X0.9549 Y0.2756 I0.0004 J-0.0097
X0.9808 Y0.2442 I0.0268 J-0.0042
G1 X0.9964
X1.0024 Y0.2445
X1.0077 Y0.2473
X1.0124 Y0.2536
X1.0145 Y0.261
X1.0139 Y0.2688
X1.0105 Y0.2758
X1.005 Y0.2813
X0.9979 Y0.2844
X0.9901 Y0.2848
X0.9848 Y0.2842
X0.979 Y0.2839
G3 X0.9697 Y0.2752 I0.0004 J-0.0098
X0.9964 Y0.2442 I0.0277 J-0.0031
G1 X1.0097
X1.0157 Y0.2445
X1.0212 Y0.2469
X1.0258 Y0.2509
X1.029 Y0.2576
X1.0301 Y0.265
X1.0288 Y0.2724
X1.0252 Y0.2789
X1.0198 Y0.2841
X1.0131 Y0.2874
X1.0057 Y0.2884
X0.9983 Y0.287
G3 X0.9912 Y0.2708 I0.0046 J-0.0116
G1 X0.9926 Y0.2674
X0.9986 Y0.2522
G3 X1.0097 Y0.2442 I0.0116 J0.0046
G1 X1.0254
X1.0314 Y0.2445
X1.0368 Y0.247
X1.0413 Y0.251
X1.0449 Y0.2558
X1.0474 Y0.2613
Y0.2614
X1.0481 Y0.2703
X1.0458 Y0.2789
X1.0408 Y0.2863
X1.0337 Y0.2916
X1.0252 Y0.2943
X1.0163 Y0.2941
X1.008 Y0.291
G3 X1.0027 Y0.2742 I0.0058 J-0.0111
G1 X1.0066 Y0.2667
X1.0147 Y0.251
G3 X1.0254 Y0.2442 I0.0111 J0.0057
G1 X1.0427
X1.0487 Y0.2445
X1.0542 Y0.2469
X1.059 Y0.2506
X1.0628 Y0.2552
X1.0657 Y0.2605
X1.0677 Y0.2661
X1.0687 Y0.2721
X1.0688 Y0.2781
X1.068 Y0.284
X1.0676 Y0.2853
X1.0642 Y0.2931
X1.0587 Y0.2996
X1.0515 Y0.3042
X1.0433 Y0.3066
X1.0348 Y0.3064
X1.0267 Y0.3039
X1.0197 Y0.2991
G3 X1.017 Y0.2852 Z-0.0439 I0.0088 J-0.0089
G1 X1.0189 Y0.281 Z-0.042
X1.0228 Y0.2721
X1.0256 Y0.2657
X1.0295 Y0.2568
X1.0317 Y0.2517 Z-0.0443
G3 X1.0427 Y0.2442 Z-0.05 I0.0114 J0.005
G1 X1.0601
X1.0661 Y0.2445
X1.0718 Y0.2463
X1.077 Y0.2494
X1.0815 Y0.2533
X1.0853 Y0.258
X1.0883 Y0.2631
X1.0905 Y0.2687
X1.0921 Y0.2745
X1.0928 Y0.2805
X1.0927 Y0.2865
X1.0919 Y0.2924
X1.0904 Y0.2982
X1.0882 Y0.3038
X1.0854 Y0.3091
X1.082 Y0.3141
X1.0811 Y0.3151
X1.0751 Y0.3203
X1.068 Y0.3238
X1.0603 Y0.3252
X1.0524 Y0.3245
X1.0451 Y0.3216
X1.0387 Y0.317
X1.034 Y0.3124
X1.0312 Y0.3097
X1.0197 Y0.2991
G3 X1.0194 Y0.2815 Z-0.0421 I0.0088 J-0.0089
G1 X1.0196 Y0.2814 Z-0.042
X1.0263 Y0.2744
X1.0379 Y0.2623
X1.0446 Y0.2553
X1.0515 Y0.2481 Z-0.0461
X1.0533 Y0.2465 Z-0.0471
X1.0554 Y0.2453 Z-0.048
X1.0577 Y0.2445 Z-0.049
X1.0601 Y0.2442 Z-0.05
X1.0821
X1.0881 Y0.2445
X1.0938 Y0.2463
X1.0991 Y0.2491
X1.1038 Y0.2528
X1.108 Y0.2571
X1.1115 Y0.262
X1.1144 Y0.2672
X1.1167 Y0.2728
X1.1184 Y0.2785
X1.1194 Y0.2844
X1.1199 Y0.2904
Y0.2964
X1.1193 Y0.3024
X1.118 Y0.3083
X1.1163 Y0.314
X1.114 Y0.3196
X1.1112 Y0.3249
X1.1079 Y0.3299
X1.1042 Y0.3345
X1.0999 Y0.3388
X1.0993 Y0.3394
X1.092 Y0.3438
X1.0838 Y0.346
X1.0753 Y0.3456
X1.0672 Y0.3429
X1.0603 Y0.3379
X1.0387 Y0.317
G3 X1.0374 Y0.3013 Z-0.0431 I0.009 J-0.0087
G1 X1.0388 Y0.2991 Z-0.042
X1.0443 Y0.2911
X1.0623 Y0.2643
X1.0678 Y0.2562
X1.0721 Y0.2497 Z-0.0452
G3 X1.0821 Y0.2442 Z-0.05 I0.0104 J0.007
G1 X1.1064
X1.1124 Y0.2445
X1.1182 Y0.2462
X1.1235 Y0.2488
X1.1285 Y0.2523
X1.1329 Y0.2563
X1.1368 Y0.2608
X1.1402 Y0.2658
X1.1431 Y0.271
X1.1455 Y0.2765
X1.1474 Y0.2822
X1.1488 Y0.2881
X1.1497 Y0.294
X1.1501 Y0.3001
X1.15 Y0.3066
X1.1494 Y0.3131
X1.1483 Y0.3195
X1.1466 Y0.3261
X1.1447 Y0.3318
X1.1422 Y0.3375
X1.1392 Y0.3431
X1.1359 Y0.3481
X1.1322 Y0.3529
X1.1282 Y0.3573
X1.1237 Y0.3614
X1.1217 Y0.3629
X1.1145 Y0.3669
X1.1065 Y0.3688
X1.0982 Y0.3683
X1.0904 Y0.3655
X1.0837 Y0.3606
X1.0603 Y0.3379
G3 X1.0582 Y0.3235 Z-0.0437 I0.009 J-0.0087
G1 X1.0601 Y0.3199 Z-0.042
X1.0645 Y0.3112
X1.0883 Y0.2653
X1.0928 Y0.2567
X1.0957 Y0.251 Z-0.0446
G3 X1.1064 Y0.2442 Z-0.05 I0.0111 J0.0057
G1 X1.1327
X1.1387 Y0.2445
X1.1445 Y0.246
X1.15 Y0.2484
X1.1551 Y0.2516
X1.1598 Y0.2553
X1.1641 Y0.2596
X1.1679 Y0.2642
X1.1712 Y0.2692
X1.1742 Y0.2744
X1.1768 Y0.2802
X1.179 Y0.2863
X1.1807 Y0.2929
X1.182 Y0.2998
X1.1828 Y0.3071
X1.183 Y0.3147
X1.1825 Y0.3224
X1.1815 Y0.3301
X1.1798 Y0.3378
X1.1774 Y0.3455
X1.1745 Y0.3529
X1.1713 Y0.3594
X1.1674 Y0.3659
X1.1633 Y0.3716
X1.1594 Y0.3763
X1.1547 Y0.3811
X1.15 Y0.3851
X1.1451 Y0.3886
X1.1443 Y0.3891
X1.1373 Y0.3922
X1.1297 Y0.3933
X1.1222 Y0.3924
X1.1151 Y0.3896
X1.1089 Y0.3851
X1.0837 Y0.3606
G3 X1.0812 Y0.3471 Z-0.0441 I0.009 J-0.0087
G1 X1.0832 Y0.3425 Z-0.042
X1.087 Y0.3335
X1.1157 Y0.2658
X1.1195 Y0.2569
X1.1217 Y0.2518 Z-0.0442
G3 X1.1327 Y0.2442 Z-0.05 I0.0115 J0.0049
G1 X1.1617
X1.1677 Y0.2445
X1.1735 Y0.2459
X1.1791 Y0.2482
X1.1843 Y0.2511
X1.1891 Y0.2547
X1.1936 Y0.2587
X1.1977 Y0.2631
X1.2014 Y0.2678
X1.2049 Y0.2731
X1.2082 Y0.2792
X1.2111 Y0.2857
X1.2136 Y0.2927
X1.2156 Y0.3004
X1.2171 Y0.3086
X1.218 Y0.3173
X1.2181 Y0.3262
X1.2176 Y0.3352
X1.2162 Y0.3444
X1.2142 Y0.3536
X1.2114 Y0.3626
X1.2078 Y0.3713
X1.2036 Y0.3798
X1.1989 Y0.3875
X1.1943 Y0.3939
X1.1891 Y0.4001
X1.1843 Y0.4049
X1.1789 Y0.4095
X1.1735 Y0.4133
X1.1709 Y0.4149
X1.1639 Y0.418
X1.1564 Y0.4191
X1.1488 Y0.4183
X1.1417 Y0.4154
X1.1355 Y0.4109
X1.1089 Y0.3851
G3 X1.1062 Y0.3721 Z-0.0443 I0.009 J-0.0087
G1 X1.1082 Y0.3668 Z-0.042
X1.1115 Y0.3577
X1.1453 Y0.2661
X1.1487 Y0.2569
X1.1504 Y0.2524 Z-0.044
G3 X1.1617 Y0.2442 Z-0.05 I0.0117 J0.0043
G1 X1.1932
X1.1992 Y0.2445
X1.205 Y0.2459
X1.2106 Y0.2481
X1.2159 Y0.251
X1.2209 Y0.2544
X1.2255 Y0.2582
X1.2298 Y0.2625
X1.2339 Y0.2673
X1.238 Y0.2729
X1.2419 Y0.2793
X1.2453 Y0.2862
X1.2484 Y0.2938
X1.2511 Y0.3023
X1.2532 Y0.3114
X1.2546 Y0.3209
X1.2552 Y0.3308
X1.2551 Y0.3413
X1.254 Y0.3521
X1.2521 Y0.363
X1.2493 Y0.3738
X1.2456 Y0.3843
X1.2412 Y0.3943
X1.236 Y0.4038
X1.2302 Y0.4127
X1.2246 Y0.42
X1.2183 Y0.4268
X1.2128 Y0.432
X1.2068 Y0.4368
X1.2009 Y0.4407
X1.1979 Y0.4424
X1.1892 Y0.4456
X1.1799 Y0.4459
X1.171 Y0.4432
X1.1633 Y0.4379
X1.1355 Y0.4109
G3 X1.1327 Y0.3982 Z-0.0444 I0.009 J-0.0087
G1 X1.1346 Y0.3926 Z-0.042
X1.1377 Y0.3833
X1.1773 Y0.2662
X1.1804 Y0.257
X1.1818 Y0.2527 Z-0.0438
G3 X1.1932 Y0.2442 Z-0.05 I0.0118 J0.004
G1 X1.2253
X1.2313 Y0.2445
X1.2372 Y0.2457
X1.2429 Y0.2477
X1.2483 Y0.2503
X1.2534 Y0.2535
X1.2582 Y0.2571
X1.2628 Y0.2612
X1.2674 Y0.266
X1.272 Y0.2718
X1.2763 Y0.2781
X1.2804 Y0.2852
X1.2842 Y0.2934
X1.2875 Y0.3022
X1.2896 Y0.3095
X1.2902 Y0.3121
X1.2906 Y0.3148
X1.2907 Y0.3175
G3 X1.2778 Y0.3296 Z-0.042 I-0.0125 J-0.0004
X1.2688 Y0.3253 I0.0004 J-0.0125
G1 X1.2171 Y0.2658
X1.2163 Y0.2649
X1.2151 Y0.2632
X1.2141 Y0.2613
X1.2135 Y0.2593
X1.2133 Y0.2572
G3 X1.2253 Y0.2442 Z-0.05 I0.0125 J-0.0004
G1 X1.2601
X1.2661 Y0.2445
X1.267 Y0.2447
X1.2746 Y0.2473
X1.2812 Y0.2519
X1.2864 Y0.2581
X1.2896 Y0.2654
X1.2907 Y0.2734
G3 X1.2778 Y0.2854 Z-0.042 I-0.0125 J-0.0004
G1 X1.2756 Y0.2851
X1.2735 Y0.2845
X1.2715 Y0.2835
X1.2698 Y0.2821
X1.2691 Y0.2815
X1.2521 Y0.2659
X1.2504 Y0.2641
X1.2492 Y0.262
X1.2483 Y0.2596
X1.248 Y0.2572
G3 X1.2601 Y0.2442 Z-0.05 I0.0125 J-0.0004
G1 X1.2771
X1.2786 Y0.2443
X1.28 Y0.2445
X1.2815 Y0.2449
X1.2829 Y0.2455
X1.2844 Y0.2463
X1.2858 Y0.2474
X1.2873 Y0.2488
X1.2885 Y0.2503
X1.2893 Y0.2517
X1.29 Y0.2532
X1.2904 Y0.2546
X1.2906 Y0.2561
X1.2907 Y0.2575
Y0.3529
X1.2901 Y0.3646
X1.2886 Y0.3759
X1.2862 Y0.3874
X1.2827 Y0.3989
X1.2784 Y0.4101
X1.2731 Y0.4209
X1.2672 Y0.4309
X1.2606 Y0.4403
X1.2541 Y0.4482
X1.2474 Y0.455
X1.2407 Y0.4608
X1.2349 Y0.4651
X1.2284 Y0.4692
X1.2256 Y0.4706
X1.2171 Y0.4735
X1.208 Y0.4736
X1.1994 Y0.4709
X1.192 Y0.4656
G3 X1.191 Y0.4495 Z-0.0428 I0.009 J-0.0087
G1 X1.1922 Y0.4479 Z-0.042
X1.198 Y0.4401
X1.2682 Y0.3459
G3 X1.2778 Y0.3408 I0.01 J0.0075
X1.2907 Y0.3529 Z-0.05 I0.0004 J0.0125
G1 Y0.428
X1.2904 Y0.434
X1.2896 Y0.44
X1.2882 Y0.4458
X1.2863 Y0.4519
X1.2838 Y0.4582
X1.2805 Y0.4646
X1.2768 Y0.4708
X1.2729 Y0.4761
X1.2682 Y0.4816
X1.2635 Y0.4863
X1.2589 Y0.4902
X1.2539 Y0.4938
X1.2528 Y0.4945
X1.2458 Y0.4975
X1.2383 Y0.4986
X1.2307 Y0.4977
X1.2236 Y0.4949
X1.2175 Y0.4904
G3 X1.2175 Y0.473 Z-0.0422 I0.009 J-0.0087
G1 X1.2178 Y0.4727 Z-0.042
X1.2246 Y0.4657
X1.2691 Y0.4199
X1.2692 Y0.4198
X1.271 Y0.4182
X1.2731 Y0.417
X1.2754 Y0.4163
X1.2778 Y0.416
G3 X1.2907 Y0.428 Z-0.05 I0.0004 J0.0125
G1 Y0.4743
X1.2904 Y0.4803
X1.2894 Y0.4862
X1.2878 Y0.492
X1.2854 Y0.4975
X1.2824 Y0.5027
X1.2788 Y0.5075
X1.2782 Y0.508
X1.2709 Y0.5137
X1.2623 Y0.5168
X1.253 Y0.517
X1.2442 Y0.5143
X1.2367 Y0.509
G3 X1.237 Y0.4913 Z-0.042 I0.009 J-0.0087
G1 X1.2379 Y0.4905
X1.2446 Y0.4853
X1.269 Y0.466
X1.2705 Y0.4649
X1.2727 Y0.4635
X1.2752 Y0.4626
X1.2778 Y0.4622
G3 X1.2907 Y0.4743 Z-0.05 I0.0004 J0.0125
G1 Y0.5064
X1.2904 Y0.5123
X1.2869 Y0.5197
X1.2811 Y0.5254
X1.2737 Y0.5288
X1.2656 Y0.5296
X1.2578 Y0.5275
X1.2511 Y0.523
G3 X1.2447 Y0.5072 Z-0.0429 I0.0164 J-0.0158
G1 X1.2448 Y0.505 Z-0.042
G3 X1.2822 Y0.4893 I0.0229 J0.0022
X1.2907 Y0.5064 Z-0.05 I-0.0145 J0.0178
G1 Y0.5237
X1.2904 Y0.5297
X1.2901 Y0.5305
X1.2864 Y0.536
X1.2808 Y0.5395
X1.2742 Y0.5405
X1.2678 Y0.5388
X1.2627 Y0.5346
G3 X1.2586 Y0.5239 I0.0114 J-0.0104
X1.2907 Y0.5237 I0.016 J0.0003
G1 Y0.5321
X1.2905 Y0.535
X1.2902 Y0.5364
X1.2896 Y0.5379
X1.289 Y0.5391
X1.2882 Y0.5403
X1.2872 Y0.5415
X1.2858 Y0.5427
X1.2845 Y0.5436
X1.2834 Y0.5443
X1.2823 Y0.5449
X1.2812 Y0.5453
X1.28 Y0.5456
X1.2786 Y0.5458
X1.2771
X1.2757 Y0.5457
X1.2742 Y0.5454
X1.2723 Y0.5447
X1.2714 Y0.5442
X1.2704 Y0.5436
X1.2694 Y0.5429
X1.2685 Y0.542
X1.2653 Y0.5379
X1.2627 Y0.5346
X1.2545 Y0.5263
X1.1633 Y0.4379
X1.1618 Y0.4352 Z-0.0498
X1.1603 Y0.4325 Z-0.0494
X1.1599 Y0.4292 Z-0.0485
X1.1606 Y0.4262 Z-0.0472
X1.1614 Y0.4232 Z-0.0457
X1.1636 Y0.4209 Z-0.0434
X1.1656 Y0.4187 Z-0.0408
X1.1678 Y0.4179 Z-0.038
X1.1698 Y0.4173 Z-0.0349
X1.1714 Y0.4168 Z-0.0317
X1.1724 Y0.4167 Z-0.0292
X1.1733 Y0.4168 Z-0.0259
X1.1739 Z-0.0225
X1.1741 Z-0.0191
G0 Z0.2
X0.4283 Y0.7969
Z0.1
G3 X0.3619 Y0.8739 Z0.0958 I-0.06 J0.0155 F13.12
X0.3129 Y0.785 Z0.0917 I0.0064 J-0.0615
X0.4132 Y0.77 Z0.0875 I0.0554 J0.0274
X0.3922 Y0.8692 Z0.0833 I-0.0449 J0.0423
X0.3067 Y0.815 Z0.0792 I-0.0239 J-0.0568
X0.3872 Y0.7538 Z0.075 I0.0615 J-0.0026
X0.4165 Y0.8505 Z0.0708 I-0.0189 J0.0585
X0.3158 Y0.8442 Z0.0667 I-0.0482 J-0.0381
X0.3567 Y0.7522 Z0.0625 I0.0524 J-0.0318
X0.4286 Y0.8225 Z0.0583 I0.0115 J0.0602
X0.3377 Y0.8654 Z0.0542 I-0.0603 J-0.0102
X0.3293 Y0.7653 Z0.05 I0.0305 J-0.053
X0.4259 Y0.7922 Z0.0458 I0.0389 J0.047
X0.367 Y0.8733 Z0.0417 I-0.0576 J0.0201
X0.3116 Y0.79 Z0.0375 I0.0012 J-0.0609
X0.4089 Y0.7672 Z0.0333 I0.0566 J0.0224
X0.3964 Y0.8662 Z0.0292 I-0.0406 J0.0452
X0.3081 Y0.82 Z0.025 I-0.0281 J-0.0538
X0.382 Y0.7534 Z0.0208 I0.0601 J-0.0076
X0.4187 Y0.8458 Z0.0167 I-0.0138 J0.0589
X0.3194 Y0.8479 Z0.0125 I-0.0504 J-0.0334
X0.352 Y0.7543 Z0.0083 I0.0488 J-0.0355
X0.4283 Y0.8174 Z0.0042 I0.0162 J0.0581
X0.3427 Y0.8669 Z0 I-0.06 J-0.005
X0.3262 Y0.7694 Z-0.0042 I0.0256 J-0.0545
X0.4231 Y0.7879 Z-0.0083 I0.0421 J0.0429
X0.3721 Y0.8722 Z-0.0125 I-0.0548 J0.0244
X0.3109 Y0.7951 Z-0.0167 I-0.0038 J-0.0598
X0.4044 Y0.7647 Z-0.0208 I0.0573 J0.0173
X0.4003 Y0.8628 Z-0.025 I-0.0362 J0.0477
X0.3099 Y0.8248 Z-0.0292 I-0.032 J-0.0504
X0.3769 Y0.7534 Z-0.0333 I0.0584 J-0.0124
X0.4205 Y0.841 Z-0.0375 I-0.0087 J0.059
X0.3232 Y0.8513 Z-0.0417 I-0.0522 J-0.0287
X0.3475 Y0.7567 Z-0.0458 I0.045 J-0.0388
X0.4276 Y0.8123 Z-0.05 I0.0207 J0.0557
X0.3088 Y0.8123 I-0.0594 J0
X0.4276 Y0.8123 I0.0594 J0
G1 X0.4283 Y0.8378 F39.37
X0.4294 Y0.8408
X0.4307 Y0.8467
X0.4308 Y0.8527
X0.4299 Y0.8586
X0.4281 Y0.8643
X0.4257 Y0.8698
X0.4225 Y0.8749
X0.4189 Y0.8797
X0.4148 Y0.8841
X0.4103 Y0.888
X0.4055 Y0.8916
X0.4003 Y0.8947
X0.3949 Y0.8973
X0.3893 Y0.8996
X0.3833 Y0.9014
X0.3771 Y0.9028
X0.3707 Y0.9036
X0.3641 Y0.904
X0.3573 Y0.9038
X0.3506 Y0.9031
X0.3438 Y0.9019
X0.337 Y0.9
X0.3303 Y0.8976
X0.3238 Y0.8947
X0.3176 Y0.8912
X0.3115 Y0.8872
X0.3058 Y0.8827
X0.3004 Y0.8777
X0.2954 Y0.8722
X0.2909 Y0.8664
X0.2868 Y0.8602
X0.2832 Y0.8537
X0.2801 Y0.8468
X0.2776 Y0.8398
X0.2757 Y0.8325
X0.2743 Y0.8251
X0.274 Y0.822
Y0.8201
Y0.8095
X0.2743 Y0.8027
X0.2753 Y0.7953
X0.2768 Y0.788
X0.279 Y0.7809
X0.2817 Y0.7739
X0.285 Y0.7671
X0.2888 Y0.7606
X0.2932 Y0.7544
X0.298 Y0.7486
X0.3033 Y0.7432
X0.309 Y0.7382
X0.3151 Y0.7337
X0.3215 Y0.7297
X0.3283 Y0.7262
X0.3353 Y0.7233
X0.3425 Y0.7209
X0.3499 Y0.7191
X0.3575 Y0.7179
X0.3651 Y0.7174
X0.3727
X0.3803 Y0.7181
X0.3878 Y0.7193
X0.3952 Y0.7212
X0.4024 Y0.7237
X0.4094 Y0.7267
X0.4161 Y0.7303
X0.4226 Y0.7344
X0.4255 Y0.7366
X0.4264 Y0.7374
X0.4273 Y0.7382
X0.435 Y0.7457
X0.4405 Y0.7516
X0.4452 Y0.7574
X0.4493 Y0.7637
X0.4535 Y0.7712
X0.46 Y0.7854
X0.465 Y0.799
X0.468 Y0.8099
X0.4699 Y0.8198
X0.4709 Y0.8292
X0.4711 Y0.8381
X0.4707 Y0.8466
X0.4696 Y0.8548
X0.4679 Y0.8628
X0.4655 Y0.8706
X0.4625 Y0.8782
X0.4589 Y0.8856
X0.4547 Y0.8927
X0.4536 Y0.8943
X0.4489 Y0.8995
X0.4431 Y0.9034
X0.4366 Y0.9058
X0.4297 Y0.9066
X0.3134
X0.3074 Y0.9063
X0.3015 Y0.9054
X0.2957 Y0.9038
X0.2927 Y0.9027
X0.2851 Y0.8984
X0.2791 Y0.892
X0.2753 Y0.8841
X0.274 Y0.8755
G3 X0.2869 Y0.8634 Z-0.042 I0.0125 J0.0004
G1 X0.2892 Y0.8637
X0.2915 Y0.8644
X0.2935 Y0.8656
X0.2957 Y0.8671
X0.3201 Y0.8838
G3 X0.3255 Y0.8937 I-0.0071 J0.0103
X0.3134 Y0.9066 Z-0.05 I-0.0125 J0.0004
G1 X0.2874
X0.2859
X0.2845 Y0.9064
X0.283 Y0.906
X0.2816 Y0.9054
X0.2801 Y0.9046
X0.2787 Y0.9035
X0.2772 Y0.902
X0.2762 Y0.9006
X0.2753 Y0.8991
X0.2747 Y0.8977
X0.2743 Y0.8962
X0.274 Y0.8948
Y0.8934
Y0.8201
G3 X0.2864 Y0.8076 Z-0.042 I0.0125 J0
X0.2974 Y0.8141 I0 J0.0125
G1 X0.3044 Y0.8268
G3 X0.2827 Y0.8392 I-0.011 J0.006
X0.2777 Y0.8287 I0.0536 J-0.0318
X0.274 Y0.8095 Z-0.05 I0.0585 J-0.0214
G1 Y0.7575
X0.2743 Y0.7515
X0.2751 Y0.7456
X0.2766 Y0.7398
X0.2787 Y0.7341
X0.2813 Y0.7287
X0.2843 Y0.7236
X0.288 Y0.7183
X0.2925 Y0.713
X0.2975 Y0.7079
X0.3031 Y0.703
X0.3094 Y0.6983
X0.3165 Y0.694
X0.3241 Y0.69
X0.3322 Y0.6867
X0.3408 Y0.6839
X0.3498 Y0.6818
X0.3521 Y0.6814
X0.3611
X0.3696 Y0.6841
X0.3769 Y0.6893
G3 X0.3765 Y0.707 Z-0.042 I-0.009 J0.0087
G1 X0.3752 Y0.7081
X0.3687 Y0.7128
X0.2957 Y0.7658
X0.2938 Y0.7672
X0.2917 Y0.7684
X0.2893 Y0.7692
X0.2869 Y0.7696
G3 X0.274 Y0.7575 Z-0.05 I-0.0004 J-0.0125
G1 Y0.7171
X0.2743 Y0.7111
X0.2748 Y0.7051
X0.2761 Y0.6992
X0.278 Y0.6936
X0.2805 Y0.6881
X0.2835 Y0.6829
X0.287 Y0.678
X0.2908 Y0.6733
X0.2949 Y0.669
X0.2993 Y0.6649
X0.3039 Y0.6611
X0.3089 Y0.6577
X0.3115 Y0.6561
X0.3185 Y0.653
X0.326 Y0.6519
X0.3336 Y0.6528
X0.3407 Y0.6556
X0.3468 Y0.6602
G3 X0.3465 Y0.6778 Z-0.042 I-0.009 J0.0087
G1 X0.3463 Y0.678
X0.3394 Y0.6845
X0.2955 Y0.7252
X0.295 Y0.7258
X0.2932 Y0.7271
X0.2912 Y0.7282
X0.2891 Y0.7288
X0.2869 Y0.7291
G3 X0.274 Y0.7171 Z-0.05 I-0.0004 J-0.0125
G1 Y0.6734
Y0.6188
X0.2741 Y0.6159
X0.2744 Y0.6145
X0.275 Y0.613
X0.2764 Y0.6104
X0.2774 Y0.6091
X0.2787 Y0.6077
X0.2793 Y0.6072
X0.2806 Y0.6064
X0.2819 Y0.6057
X0.2832 Y0.6052
X0.2845 Y0.6049
X0.2859 Y0.6047
X0.2874
X0.2888 Y0.6048
X0.2903 Y0.6051
X0.2913 Y0.6055
X0.2924 Y0.6059
X0.2935 Y0.6065
X0.2945 Y0.6072
X0.2961 Y0.6086
X0.2994 Y0.613
X0.3019 Y0.616
X0.3043 Y0.6188
X0.3101 Y0.6246
X0.4273 Y0.7382
G3 X0.4276 Y0.7559 Z-0.042 I-0.0087 J0.009
X0.4153 Y0.7592 I-0.009 J-0.0087
G1 X0.4015 Y0.7555
G3 X0.4076 Y0.7313 I0.0033 J-0.0121
X0.4186 Y0.735 I-0.0144 J0.0606
X0.435 Y0.7457 Z-0.05 I-0.0254 J0.0569
G1 X0.4813 Y0.7906
X0.4858 Y0.7954
X0.4895 Y0.8001
X0.4928 Y0.8051
X0.4956 Y0.8104
X0.4983 Y0.8165
X0.5006 Y0.8232
X0.5025 Y0.8303
X0.5038 Y0.8379
X0.5046 Y0.8461
X0.5047 Y0.8548
X0.5041 Y0.8638
X0.5028 Y0.8723
X0.501 Y0.8802
X0.4987 Y0.8876
X0.4983 Y0.8885
X0.4939 Y0.8959
X0.4875 Y0.9017
X0.4798 Y0.9054
X0.4713 Y0.9066
X0.4297
G3 X0.4177 Y0.8937 Z-0.042 I0.0004 J-0.0125
G1 X0.418 Y0.8913
X0.4188 Y0.889
X0.4208 Y0.8846
X0.4591 Y0.8
X0.4615 Y0.7947
X0.4624 Y0.793
X0.4636 Y0.7915
G3 X0.4813 Y0.7906 Z-0.05 I0.0093 J0.0084
G1 X0.516 Y0.8243
X0.5201 Y0.8287
X0.5236 Y0.8335
X0.5266 Y0.8387
X0.529 Y0.8442
X0.531 Y0.8499
X0.5326 Y0.8559
X0.5336 Y0.8618
X0.5341 Y0.8678
Y0.8738
X0.5337 Y0.8798
X0.5332 Y0.8823
X0.5308 Y0.8901
X0.5262 Y0.8969
X0.52 Y0.9022
X0.5126 Y0.9055
X0.5045 Y0.9066
X0.4713
G3 X0.4592 Y0.8937 Z-0.042 I0.0004 J-0.0125
G1 X0.4595 Y0.8916
X0.4601 Y0.8896
X0.461 Y0.8878
X0.4627 Y0.8848
X0.4932 Y0.8334
X0.4969 Y0.8272
X0.4984 Y0.8251
G3 X0.516 Y0.8243 Z-0.05 I0.0093 J0.0084
G1 X0.5366 Y0.8442
X0.5392 Y0.8467
X0.5428 Y0.85
X0.5471 Y0.8543
X0.5507 Y0.859
X0.5536 Y0.8643
X0.5558 Y0.8699
X0.556 Y0.8711
X0.5567 Y0.8797
X0.5547 Y0.8882
X0.5503 Y0.8957
X0.544 Y0.9016
X0.5362 Y0.9053
X0.5276 Y0.9066
X0.5045
G3 X0.4924 Y0.8937 Z-0.042 I0.0004 J-0.0125
G1 X0.4927 Y0.8916
X0.4933 Y0.8896
X0.4942 Y0.8877
X0.4955 Y0.886
X0.4963 Y0.885
X0.5189 Y0.8588
X0.5252 Y0.8514
X0.5253
G3 X0.5428 Y0.85 Z-0.05 I0.0095 J0.0082
G1 X0.545 Y0.8519
X0.55 Y0.8558
X0.5507 Y0.8563
X0.5565 Y0.8598
X0.5586 Y0.8608
X0.5639 Y0.8636
X0.5682 Y0.8677
X0.5714 Y0.8747
X0.5724 Y0.8823
X0.571 Y0.8899
X0.5674 Y0.8967
X0.5619 Y0.902
X0.555 Y0.9055
X0.5474 Y0.9066
X0.5276
G3 X0.5155 Y0.8937 Z-0.042 I0.0004 J-0.0125
X0.5199 Y0.8846 I0.0125 J0.0004
G1 X0.5338 Y0.8728
X0.5412 Y0.8665
X0.5456 Y0.8628 Z-0.0444
G3 X0.5586 Y0.8608 Z-0.05 I0.0081 J0.0095
G1 X0.5623 Y0.8625
X0.5681 Y0.8644
X0.5713 Y0.8652
X0.577 Y0.8669
X0.5819 Y0.8704
X0.5855 Y0.8766
X0.5868 Y0.8836
X0.586 Y0.8906
X0.5829 Y0.8971
X0.578 Y0.9022
X0.5716 Y0.9055
X0.5646 Y0.9066
X0.5474
G3 X0.5364 Y0.8962 Z-0.0432 I0.0004 J-0.0114
G1 X0.5363 Y0.8931 Z-0.042
G3 X0.5522 Y0.8678 I0.0291 J0.0006
X0.5655 Y0.8646 Z-0.0476 I0.0133 J0.026
G1 X0.5684 Y0.8648 Z-0.0488
X0.5713 Y0.8652 Z-0.05
X0.5739 Y0.8658
X0.5797 Y0.8667
X0.5829 Y0.8668
X0.5888 Y0.8672
X0.5942 Y0.8698
X0.5986 Y0.874
X0.6014 Y0.881
X0.6015 Y0.8885
X0.5991 Y0.8956
X0.5943 Y0.9015
X0.5878 Y0.9053
X0.5804 Y0.9066
X0.5646
G3 X0.5551 Y0.8976 I0.0003 J-0.0099
X0.5829 Y0.8668 I0.0282 J-0.0026
G1 X0.597 Y0.8671
X0.5988
X0.6048 Y0.8674
X0.61 Y0.8704
X0.614 Y0.8762
X0.6159 Y0.8831
X0.6155 Y0.8902
X0.6127 Y0.8967
X0.608 Y0.902
X0.6017 Y0.9054
X0.5947 Y0.9066
X0.5804
G3 X0.571 Y0.8974 I0.0003 J-0.0097
X0.5988 Y0.8671 I0.0288 J-0.0016
G1 X0.6118
X0.6178 Y0.8674
X0.6232 Y0.87
X0.6276 Y0.874
X0.6305 Y0.881
X0.6308 Y0.8885
X0.6284 Y0.8956
X0.6237 Y0.9015
X0.6172 Y0.9053
X0.6098 Y0.9066
X0.5947
G3 X0.5854 Y0.8981 I0.0003 J-0.0097
X0.6118 Y0.8671 I0.0274 J-0.0035
G1 X0.6277
X0.6337 Y0.8674
X0.639 Y0.8703
X0.6431 Y0.8761
X0.6451 Y0.883
X0.6447 Y0.8901
X0.642 Y0.8967
X0.6372 Y0.902
X0.631 Y0.9054
X0.6239 Y0.9066
X0.6098
G3 X0.6005 Y0.8977 I0.0003 J-0.0097
X0.6277 Y0.8671 I0.0283 J-0.0023
G1 X0.6407
X0.6467 Y0.8674
X0.6522 Y0.8699
X0.6567 Y0.8739
X0.6596 Y0.8808
X0.6599 Y0.8884
X0.6576 Y0.8955
X0.6529 Y0.9014
X0.6464 Y0.9053
X0.639 Y0.9066
X0.6239
G3 X0.6146 Y0.8983 I0.0003 J-0.0097
X0.6407 Y0.8671 I0.0271 J-0.0039
G1 X0.6567
X0.6627 Y0.8674
X0.6679 Y0.8703
X0.6721 Y0.876
X0.6741 Y0.8829
X0.6738 Y0.89
X0.6711 Y0.8966
X0.6663 Y0.902
X0.6601 Y0.9054
X0.653 Y0.9066
X0.639
G3 X0.6296 Y0.8978 I0.0003 J-0.0097
X0.6567 Y0.8671 I0.0281 J-0.0025
G1 X0.6697
X0.6757 Y0.8674
X0.6811 Y0.8698
X0.6856 Y0.8738
X0.6886 Y0.8808
X0.689 Y0.8883
X0.6866 Y0.8955
X0.6819 Y0.9014
X0.6754 Y0.9053
X0.668 Y0.9066
X0.653
G3 X0.6437 Y0.8984 I0.0003 J-0.0097
X0.6697 Y0.8671 I0.0269 J-0.0041
G1 X0.6856
X0.6916 Y0.8674
X0.6969 Y0.8702
X0.7011 Y0.876
X0.7031 Y0.8829
X0.7028 Y0.89
X0.7001 Y0.8966
X0.6953 Y0.902
X0.6891 Y0.9054
X0.6821 Y0.9066
X0.668
G3 X0.6586 Y0.8978 I0.0003 J-0.0097
X0.6856 Y0.8671 I0.028 J-0.0027
G1 X0.6986
X0.7046 Y0.8674
X0.7101 Y0.8698
X0.7146 Y0.8738
X0.7176 Y0.8807
X0.7179 Y0.8883
X0.7156 Y0.8955
X0.7109 Y0.9014
X0.7044 Y0.9053
X0.697 Y0.9066
X0.6821
G3 X0.6728 Y0.8984 I0.0003 J-0.0097
X0.6986 Y0.8671 I0.0268 J-0.0042
G1 X0.7146
X0.7205 Y0.8674
X0.7258 Y0.8702
X0.73 Y0.876
X0.7321 Y0.8828
X0.7318 Y0.89
X0.7291 Y0.8966
X0.7243 Y0.902
X0.7181 Y0.9054
X0.7111 Y0.9066
X0.697
G3 X0.6876 Y0.8979 I0.0003 J-0.0097
X0.7146 Y0.8671 I0.0279 J-0.0028
G1 X0.7276
X0.7336 Y0.8674
X0.739 Y0.8698
X0.7435 Y0.8738
X0.7466 Y0.8807
X0.7469 Y0.8883
X0.7446 Y0.8955
X0.7399 Y0.9014
X0.7334 Y0.9053
X0.726 Y0.9066
X0.7111
G3 X0.7018 Y0.8984 I0.0003 J-0.0097
X0.7276 Y0.8671 I0.0268 J-0.0043
G1 X0.7435
X0.7495 Y0.8674
X0.7548 Y0.8702
X0.759 Y0.876
X0.7611 Y0.8828
X0.7607 Y0.89
X0.758 Y0.8966
X0.7533 Y0.9019
X0.7471 Y0.9054
X0.74 Y0.9066
X0.726
G3 X0.7166 Y0.8979 I0.0003 J-0.0097
X0.7435 Y0.8671 I0.0279 J-0.0028
G1 X0.7565
X0.7625 Y0.8674
X0.768 Y0.8698
X0.7725 Y0.8738
X0.7755 Y0.8807
X0.7759 Y0.8883
X0.7736 Y0.8955
X0.7689 Y0.9014
X0.7624 Y0.9053
X0.7549 Y0.9066
X0.74
G3 X0.7307 Y0.8984 I0.0003 J-0.0097
X0.7565 Y0.8671 I0.0267 J-0.0043
G1 X0.7724
X0.7784 Y0.8674
X0.7837 Y0.8702
X0.7879 Y0.876
X0.79 Y0.8828
X0.7897 Y0.89
X0.787 Y0.8966
X0.7823 Y0.9019
X0.776 Y0.9054
X0.769 Y0.9066
X0.7549
G3 X0.7456 Y0.8979 I0.0003 J-0.0097
X0.7724 Y0.8671 I0.0278 J-0.0029
G1 X0.7854
X0.7914 Y0.8674
X0.7969 Y0.8698
X0.8014 Y0.8738
X0.8045 Y0.8807
X0.8048 Y0.8883
X0.8025 Y0.8955
X0.7978 Y0.9014
X0.7913 Y0.9053
X0.7839 Y0.9066
X0.769
G3 X0.7597 Y0.8985 I0.0003 J-0.0097
X0.7854 Y0.8671 I0.0267 J-0.0043
G1 X0.8014
X0.8074 Y0.8674
X0.8127 Y0.8702
X0.8169 Y0.876
X0.819 Y0.8828
X0.8186 Y0.89
X0.816 Y0.8966
X0.8112 Y0.9019
X0.805 Y0.9054
X0.7979 Y0.9066
X0.7839
G3 X0.7745 Y0.8979 I0.0003 J-0.0097
X0.8014 Y0.8671 I0.0278 J-0.0029
G1 X0.8144
X0.8204 Y0.8674
X0.8259 Y0.8698
X0.8304 Y0.8737
X0.8334 Y0.8807
X0.8338 Y0.8882
X0.8315 Y0.8955
X0.8268 Y0.9014
X0.8203 Y0.9053
X0.8128 Y0.9066
X0.7979
G3 X0.7886 Y0.8985 I0.0003 J-0.0097
X0.8144 Y0.8671 I0.0267 J-0.0044
G1 X0.8303
X0.8363 Y0.8674
X0.8416 Y0.8702
X0.8458 Y0.876
X0.8479 Y0.8828
X0.8476 Y0.89
X0.8449 Y0.8966
X0.8402 Y0.9019
X0.8339 Y0.9054
X0.8269 Y0.9066
X0.8128
G3 X0.8035 Y0.8979 I0.0003 J-0.0097
X0.8303 Y0.8671 I0.0278 J-0.0029
G1 X0.8433
X0.8493 Y0.8674
X0.8548 Y0.8698
X0.8593 Y0.8737
X0.8623 Y0.8807
X0.8627 Y0.8882
X0.8604 Y0.8955
X0.8557 Y0.9014
X0.8492 Y0.9053
X0.8418 Y0.9066
X0.8269
G3 X0.8176 Y0.8985 I0.0003 J-0.0097
X0.8433 Y0.8671 I0.0267 J-0.0044
G1 X0.8593
X0.8653 Y0.8674
X0.8705 Y0.8702
X0.8748 Y0.876
X0.8768 Y0.8828
X0.8765 Y0.89
X0.8738 Y0.8966
X0.8691 Y0.9019
X0.8629 Y0.9054
X0.8558 Y0.9066
X0.8418
G3 X0.8324 Y0.8979 I0.0003 J-0.0097
X0.8593 Y0.8671 I0.0278 J-0.0029
G1 X0.8723
X0.8783 Y0.8674
X0.8837 Y0.8698
X0.8883 Y0.8737
X0.8913 Y0.8807
X0.8917 Y0.8882
X0.8894 Y0.8955
X0.8847 Y0.9014
X0.8782 Y0.9053
X0.8707 Y0.9066
X0.8558
G3 X0.8465 Y0.8985 I0.0003 J-0.0097
X0.8723 Y0.8671 I0.0267 J-0.0044
G1 X0.8882
X0.8942 Y0.8674
X0.8995 Y0.8702
X0.9037 Y0.876
X0.9058 Y0.8828
X0.9055 Y0.89
X0.9028 Y0.8966
X0.8981 Y0.9019
X0.8918 Y0.9054
X0.8848 Y0.9066
X0.8707
G3 X0.8614 Y0.8979 I0.0003 J-0.0097
X0.8882 Y0.8671 I0.0278 J-0.0029
G1 X0.9012
X0.9072 Y0.8674
X0.9127 Y0.8698
X0.9172 Y0.8737
X0.9202 Y0.8807
X0.9206 Y0.8882
X0.9183 Y0.8955
X0.9136 Y0.9014
X0.9071 Y0.9053
X0.8997 Y0.9066
X0.8848
G3 X0.8755 Y0.8985 I0.0003 J-0.0097
X0.9012 Y0.8671 I0.0267 J-0.0044
G1 X0.9171
X0.9231 Y0.8674
X0.9284 Y0.8702
X0.9327 Y0.876
X0.9347 Y0.8828
X0.9344 Y0.89
X0.9317 Y0.8966
X0.927 Y0.9019
X0.9207 Y0.9054
X0.9137 Y0.9066
X0.8997
G3 X0.8903 Y0.8979 I0.0003 J-0.0097
X0.9171 Y0.8671 I0.0278 J-0.0029
G1 X0.9301
X0.9361 Y0.8674
X0.9416 Y0.8698
X0.9461 Y0.8737
X0.9492 Y0.8807
X0.9495 Y0.8882
X0.9472 Y0.8955
X0.9425 Y0.9014
X0.936 Y0.9053
X0.9286 Y0.9066
X0.9137
G3 X0.9044 Y0.8985 I0.0003 J-0.0097
X0.9301 Y0.8671 I0.0267 J-0.0044
G1 X0.9461
X0.9521 Y0.8674
X0.9574 Y0.8702
X0.9616 Y0.876
X0.9637 Y0.8828
X0.9633 Y0.89
X0.9607 Y0.8966
X0.9559 Y0.9019
X0.9497 Y0.9054
X0.9426 Y0.9066
X0.9286
G3 X0.9192 Y0.8979 I0.0003 J-0.0097
X0.9461 Y0.8671 I0.0278 J-0.0029
G1 X0.9591
X0.9651 Y0.8674
X0.9706 Y0.8698
X0.9751 Y0.8737
X0.9781 Y0.8807
X0.9785 Y0.8882
X0.9762 Y0.8955
X0.9715 Y0.9014
X0.965 Y0.9053
X0.9575 Y0.9066
X0.9426
G3 X0.9334 Y0.8985 I0.0003 J-0.0097
X0.9591 Y0.8671 I0.0267 J-0.0044
G1 X0.975 Y0.867
X0.981 Y0.8673
X0.9863 Y0.8701
X0.9906 Y0.8759
X0.9926 Y0.8827
X0.9923 Y0.8899
X0.9896 Y0.8966
X0.9849 Y0.9019
X0.9786 Y0.9054
X0.9716 Y0.9066
X0.9575
G3 X0.9482 Y0.8979 I0.0003 J-0.0097
X0.975 Y0.867 I0.028 J-0.0028
G1 X0.9791
X0.9848 Y0.8667
X0.9866 Y0.8665
X0.9926 Y0.866
X0.9983 Y0.868
X1.003 Y0.8716
X1.0068 Y0.8787
X1.0076 Y0.8867
X1.0055 Y0.8944
X1.0008 Y0.9009
X0.994 Y0.9051
X0.9861 Y0.9066
X0.9716
G3 X0.9625 Y0.8984 I0.0003 J-0.0094
X0.9866 Y0.8665 I0.0285 J-0.0035
G1 X0.9906 Y0.866
X0.9964 Y0.8645
X0.9982 Y0.8639
X1.0039 Y0.8622
X1.0098 Y0.8632
X1.0152 Y0.866
X1.0201 Y0.8722
X1.0227 Y0.8798
X1.0225 Y0.8878
X1.0197 Y0.8952
X1.0145 Y0.9013
X1.0076 Y0.9053
X0.9997 Y0.9066
X0.9861
G3 X0.9772 Y0.8984 I0.0003 J-0.0092
X0.9982 Y0.8639 I0.0331 J-0.0035
G1 X1.0022 Y0.8625
X1.0045 Y0.8616
X1.008 Y0.8599
X1.009 Y0.8593
X1.0143 Y0.8566
X1.0203 Y0.8564
X1.026 Y0.8581
X1.0312 Y0.8612
X1.0361 Y0.8673
X1.039 Y0.8745
X1.0396 Y0.8823
X1.0379 Y0.89
X1.034 Y0.8967
X1.0283 Y0.9021
X1.0213 Y0.9055
X1.0135 Y0.9066
X0.9997
G3 X0.9905 Y0.8982 I0.0003 J-0.0096
X1.009 Y0.8593 I0.0398 J-0.0049
G1 X1.0138 Y0.8565
X1.015 Y0.8558
X1.0186 Y0.8527
X1.0234 Y0.849
X1.0292 Y0.8475
X1.0352 Y0.8477
X1.041 Y0.8494
X1.0463 Y0.8522
X1.051 Y0.8559
X1.055 Y0.8603
X1.0582 Y0.8654
X1.0583 Y0.8656
X1.0606 Y0.8735
X1.0605 Y0.8818
X1.0582 Y0.8897
X1.0537 Y0.8966
X1.0474 Y0.902
X1.0399 Y0.9055
X1.0317 Y0.9066
X1.0135
G3 X1.0015 Y0.8937 Z-0.042 I0.0004 J-0.0125
G1 X1.0017 Y0.8915
X1.0024 Y0.8894
X1.0044 Y0.8845
X1.0065 Y0.8792
X1.0102 Y0.8702
X1.0155 Y0.8572 Z-0.0477
X1.0168 Y0.8548 Z-0.0489
X1.0186 Y0.8527 Z-0.05
X1.0196 Y0.8519
X1.0297 Y0.8425
X1.0343 Y0.8387
X1.0398 Y0.8364
X1.0458 Y0.8356
X1.0518 Y0.8359
X1.0576 Y0.8373
X1.0631 Y0.8397
X1.0682 Y0.8428
X1.0728 Y0.8467
X1.0768 Y0.8511
X1.0802 Y0.8561
X1.0829 Y0.8615
X1.0849 Y0.8671
X1.0862 Y0.873
X1.0864 Y0.8746
X1.086 Y0.8827
X1.0835 Y0.8903
X1.079 Y0.897
X1.0728 Y0.9022
X1.0654 Y0.9055
X1.0573 Y0.9066
X1.0317
G3 X1.0196 Y0.8937 Z-0.042 I0.0004 J-0.0125
G1 X1.0198 Y0.8923
X1.021 Y0.8841
X1.023 Y0.8707
X1.0244 Y0.8611
X1.0261 Y0.8496 Z-0.0467
X1.0268 Y0.847 Z-0.0478
X1.028 Y0.8446 Z-0.0489
X1.0297 Y0.8425 Z-0.05
X1.0312 Y0.8412
X1.0369 Y0.8356
X1.0437 Y0.8291
X1.0482 Y0.8251
X1.0537 Y0.8226
X1.0595 Y0.8212
X1.0655 Y0.8209
X1.0715 Y0.8216
X1.0773 Y0.823
X1.0829 Y0.8252
X1.0882 Y0.828
X1.0931 Y0.8314
X1.0977 Y0.8354
X1.1018 Y0.8397
X1.1054 Y0.8445
X1.1085 Y0.8496
X1.1111 Y0.855
X1.1131 Y0.8607
X1.1146 Y0.8665
X1.1154 Y0.8725
X1.1156 Y0.8785
X1.1155 Y0.8794
X1.1136 Y0.8879
X1.1093 Y0.8955
X1.1029 Y0.9015
X1.095 Y0.9053
X1.0864 Y0.9066
X1.0573
G3 X1.0453 Y0.8953 Z-0.0426 I0.0004 J-0.0125
G1 X1.0452 Y0.8937 Z-0.042
X1.0443 Y0.884
X1.0419 Y0.8574
X1.0411 Y0.8477
X1.0403 Y0.8388 Z-0.0456
G3 X1.0437 Y0.8291 Z-0.05 I0.0124 J-0.0011
G1 X1.0601 Y0.8131
X1.0646 Y0.8092
X1.07 Y0.8066
X1.0758 Y0.8049
X1.0817 Y0.8042
X1.0877 Y0.8043
X1.0937 Y0.8051
X1.0995 Y0.8065
X1.1051 Y0.8086
X1.1105 Y0.8112
X1.1156 Y0.8144
X1.1205 Y0.8179
X1.125 Y0.8219
X1.1291 Y0.8262
X1.1329 Y0.8309
X1.1365 Y0.8361
X1.1395 Y0.8412
X1.142 Y0.8467
X1.1442 Y0.8525
X1.1458 Y0.8583
X1.1469 Y0.8642
X1.1475 Y0.8701
Y0.8761
X1.147 Y0.8821
X1.1469 Y0.8827
X1.1444 Y0.8904
X1.1398 Y0.8971
X1.1336 Y0.9022
X1.1262 Y0.9055
X1.1182 Y0.9066
X1.0864
G3 X1.0747 Y0.8971 Z-0.0434 I0.0004 J-0.0125
G1 X1.0739 Y0.8938 Z-0.042
X1.0716 Y0.8843
X1.061 Y0.8411
X1.0586 Y0.8316
X1.057 Y0.8248 Z-0.0449
G3 X1.0601 Y0.8131 Z-0.05 I0.0121 J-0.003
G1 X1.0775 Y0.7963
X1.082 Y0.7923
X1.0871 Y0.7893
X1.0928 Y0.7872
X1.0986 Y0.786
X1.1046 Y0.7855
X1.1106 Y0.7857
X1.1166 Y0.7865
X1.1224 Y0.7879
X1.1281 Y0.7898
X1.1336 Y0.7922
X1.1391 Y0.7951
X1.1446 Y0.7986
X1.15 Y0.8027
X1.1552 Y0.8073
X1.16 Y0.8124
X1.1645 Y0.818
X1.1687 Y0.8241
X1.1725 Y0.8307
X1.1757 Y0.8376
X1.1782 Y0.8442
X1.18 Y0.8506
X1.1814 Y0.8574
X1.1821 Y0.8635
X1.1824 Y0.8695
X1.1821 Y0.8758
X1.1813 Y0.8818
X1.181 Y0.8836
X1.1783 Y0.891
X1.1737 Y0.8974
X1.1675 Y0.9024
X1.1603 Y0.9056
X1.1524 Y0.9066
X1.1182
G3 X1.1069 Y0.8984 Z-0.0439 I0.0004 J-0.0125
G1 X1.1053 Y0.8939 Z-0.042
X1.102 Y0.8848
X1.08 Y0.8237
X1.0767 Y0.8146
X1.0747 Y0.8092 Z-0.0443
G3 X1.0775 Y0.7963 Z-0.05 I0.0118 J-0.0042
G1 X1.0974 Y0.7769
X1.1019 Y0.773
X1.1071 Y0.7699
X1.1126 Y0.7676
X1.1184 Y0.7661
X1.1244 Y0.7653
X1.1304 Y0.7651
X1.1364 Y0.7655
X1.1423 Y0.7664
X1.1482 Y0.7679
X1.1545 Y0.7699
X1.1609 Y0.7726
X1.1672 Y0.7759
X1.1736 Y0.7799
X1.1801 Y0.7847
X1.1863 Y0.7902
X1.1921 Y0.7963
X1.1976 Y0.8029
X1.2026 Y0.8101
X1.207 Y0.8177
X1.2109 Y0.8257
X1.2141 Y0.834
X1.2165 Y0.8423
X1.2181 Y0.8498
X1.2191 Y0.8578
X1.2194 Y0.8647
X1.2192 Y0.8714
X1.2184 Y0.8782
X1.2173 Y0.884
X1.2169 Y0.8854
X1.2139 Y0.8923
X1.2093 Y0.8983
X1.2033 Y0.9028
X1.1963 Y0.9057
X1.1888 Y0.9066
X1.1524
G3 X1.1414 Y0.8991 Z-0.0442 I0.0004 J-0.0125
G1 X1.1392 Y0.894 Z-0.042
X1.1354 Y0.8851
X1.1007 Y0.8041
X1.0969 Y0.7951
X1.0949 Y0.7905 Z-0.044
G3 X1.0974 Y0.7769 Z-0.05 I0.0115 J-0.0049
G1 X1.1196 Y0.7554
X1.1241 Y0.7515
X1.1293 Y0.7484
X1.1348 Y0.7461
X1.1406 Y0.7445
X1.1465 Y0.7435
X1.1525 Y0.7431
X1.1585 Y0.7432
X1.1647 Y0.7439
X1.1712 Y0.7451
X1.1782 Y0.747
X1.1853 Y0.7496
X1.1924 Y0.7529
X1.1998 Y0.757
X1.2073 Y0.7619
X1.2146 Y0.7677
X1.2216 Y0.7742
X1.2283 Y0.7815
X1.2346 Y0.7896
X1.2403 Y0.7983
X1.2453 Y0.8075
X1.2496 Y0.817
X1.253 Y0.8268
X1.2557 Y0.8367
X1.2574 Y0.8463
X1.2582 Y0.8548
X1.2584 Y0.8633
X1.258 Y0.8703
X1.2569 Y0.8777
X1.2554 Y0.8843
X1.2548 Y0.8862
X1.2507 Y0.8944
X1.2443 Y0.901
X1.2361 Y0.9052
X1.227 Y0.9066
X1.1888
G3 X1.1779 Y0.8994 Z-0.0444 I0.0004 J-0.0125
G1 X1.1754 Y0.8941 Z-0.042
X1.1713 Y0.8853
X1.1234 Y0.7823
X1.1192 Y0.7735
X1.1173 Y0.7694 Z-0.0439
G3 X1.1196 Y0.7554 Z-0.05 I0.0113 J-0.0053
G1 X1.143 Y0.7327
X1.1475 Y0.7288
X1.1526 Y0.7257
X1.1581 Y0.7233
X1.1639 Y0.7216
X1.1698 Y0.7204
X1.1757 Y0.7198
X1.1821 Y0.7197
X1.1886 Y0.7202
X1.1957 Y0.7212
X1.2032 Y0.723
X1.2109 Y0.7254
X1.2189 Y0.7287
X1.2274 Y0.733
X1.2357 Y0.738
X1.2439 Y0.744
X1.2521 Y0.7511
X1.2601 Y0.7591
X1.2677 Y0.7681
X1.2747 Y0.778
X1.281 Y0.7884
X1.2864 Y0.7994
X1.2886 Y0.805
X1.2898 Y0.8085
X1.2905 Y0.8121
X1.2907 Y0.8158
Y0.8673
X1.2902 Y0.8765
X1.2894 Y0.8825
X1.2892 Y0.8837
X1.2865 Y0.8911
X1.2819 Y0.8975
X1.2758 Y0.9024
X1.2685 Y0.9056
X1.2607 Y0.9066
G3 X1.2486 Y0.8937 Z-0.042 I0.0004 J-0.0125
G1 X1.2489 Y0.8915
X1.2496 Y0.8893
X1.2506 Y0.8873
X1.2523 Y0.8849
X1.2677 Y0.861
G3 X1.2778 Y0.8553 I0.0105 J0.0068
X1.2907 Y0.8673 Z-0.05 I0.0004 J0.0125
G1 Y0.8934
X1.2906 Y0.8948
X1.2904 Y0.8962
X1.29 Y0.8977
X1.2893 Y0.8991
X1.2885 Y0.9006
X1.2873 Y0.902
X1.2858 Y0.9034
X1.2844 Y0.9045
X1.2829 Y0.9054
X1.2815 Y0.906
X1.28 Y0.9064
X1.2786 Y0.9066
X1.2771
X1.227
G3 X1.2162 Y0.8997 Z-0.0445 I0.0004 J-0.0125
G1 X1.2135 Y0.8942 Z-0.042
X1.2092 Y0.8854
X1.147 Y0.7595
X1.1427 Y0.7508
X1.1408 Y0.7469 Z-0.0438
G3 X1.143 Y0.7327 Z-0.05 I0.0112 J-0.0055
G1 X1.1678 Y0.7086
X1.1723 Y0.7047
X1.1775 Y0.7016
X1.183 Y0.6992
X1.1887 Y0.6973
X1.1946 Y0.6961
X1.2006 Y0.6954
X1.2071 Y0.6951
X1.214 Y0.6954
X1.2217 Y0.6963
X1.2296 Y0.6979
X1.238 Y0.7003
X1.247 Y0.7037
X1.256 Y0.708
X1.2652 Y0.7133
X1.2746 Y0.7198
X1.2799 Y0.7241
X1.2857 Y0.7304
X1.2894 Y0.7382
X1.2907 Y0.7467
G3 X1.2778 Y0.7588 Z-0.042 I-0.0125 J-0.0004
G1 X1.2763 Y0.7586
X1.2748 Y0.7583
X1.2683 Y0.7565
X1.1769 Y0.7303
X1.1734 Y0.7293
X1.1715 Y0.7286
X1.1698 Y0.7276
X1.1682 Y0.7263
G3 X1.1678 Y0.7086 Z-0.05 I0.0087 J-0.009
G1 X1.1932 Y0.684
X1.1977 Y0.6801
X1.2028 Y0.6769
X1.2082 Y0.6743
X1.2139 Y0.6724
X1.2197 Y0.671
X1.226 Y0.67
X1.2326 Y0.6696
X1.2399
X1.2479 Y0.6704
X1.2562 Y0.6718
X1.2642 Y0.6739
X1.272 Y0.6766
X1.2732 Y0.6771
X1.2804 Y0.6816
X1.2859 Y0.6879
X1.2895 Y0.6955
X1.2907 Y0.7038
G3 X1.2778 Y0.7159 Z-0.042 I-0.0125 J-0.0004
G1 X1.2765 Y0.7158
X1.2681 Y0.7146
X1.2024 Y0.7053
X1.2005 Y0.7051
X1.198 Y0.7044
X1.1956 Y0.7033
X1.1936 Y0.7017
G3 X1.1932 Y0.684 Z-0.05 I0.0087 J-0.009
G1 X1.2545 Y0.6246
X1.2627 Y0.6162
X1.2653 Y0.613
X1.2685 Y0.6089
X1.2694 Y0.608
X1.2704 Y0.6072
X1.2714 Y0.6066
X1.2723 Y0.6061
X1.2742 Y0.6055
X1.2755 Y0.6053
X1.2824 Y0.6123
X1.2869 Y0.6183
X1.2897 Y0.6252
X1.2907 Y0.6327
X1.2904 Y0.634
X1.2896 Y0.6351
X1.2885 Y0.6358
X1.2872 Y0.6361
X1.2859 Y0.6359
X1.2847 Y0.6352
X1.2839 Y0.6341
X1.2833 Y0.6329
X1.2724 Y0.6103
X1.272 Y0.6089
X1.2722 Y0.6075
X1.273 Y0.6063
X1.2742 Y0.6055
X1.2757 Y0.6052
X1.2771 Y0.605
X1.2786 Y0.6051
X1.28 Y0.6053
X1.2812 Y0.6056
X1.2823 Y0.606
X1.2834 Y0.6065
X1.2845 Y0.6072
X1.2858 Y0.6082
X1.2872 Y0.6094
X1.2882 Y0.6106
X1.289 Y0.6118
X1.2896 Y0.613
X1.2902 Y0.6145
X1.2905 Y0.6159
X1.2907 Y0.6188
Y0.8158
X1.2898 Y0.8188 Z-0.0498
X1.289 Y0.8217 Z-0.0494
X1.2868 Y0.8239 Z-0.0485
X1.2846 Y0.8261 Z-0.0474
X1.2816 Y0.827 Z-0.0457
X1.2787 Y0.8279 Z-0.0437
X1.2782 Z-0.0433
X1.276 Y0.8273 Z-0.0413
X1.274 Y0.8268 Z-0.0391
X1.2722 Y0.8264 Z-0.0367
X1.2708 Y0.8251 Z-0.0335
X1.2696 Y0.8241 Z-0.0301
X1.2688 Y0.8234 Z-0.0265
X1.2683 Y0.8229 Z-0.0229
X1.2681 Y0.8228 Z-0.0191
G0 Z0.2
X2.5162 Y0.3231
Z0.1
G3 X2.4498 Y0.4001 Z0.0958 I-0.06 J0.0155 F13.12
X2.4008 Y0.3112 Z0.0917 I0.0064 J-0.0615
X2.5011 Y0.2962 Z0.0875 I0.0554 J0.0274
X2.4802 Y0.3954 Z0.0833 I-0.0449 J0.0423
X2.3947 Y0.3412 Z0.0792 I-0.0239 J-0.0568
X2.4751 Y0.28 Z0.075 I0.0615 J-0.0026
X2.5044 Y0.3767 Z0.0708 I-0.0189 J0.0585
X2.4037 Y0.3704 Z0.0667 I-0.0482 J-0.0381
X2.4446 Y0.2784 Z0.0625 I0.0524 J-0.0318
X2.5166 Y0.3487 Z0.0583 I0.0115 J0.0602
X2.4257 Y0.3916 Z0.0542 I-0.0603 J-0.0102
X2.4172 Y0.2915 Z0.05 I0.0305 J-0.053
X2.5138 Y0.3184 Z0.0458 I0.0389 J0.047
X2.455 Y0.3995 Z0.0417 I-0.0576 J0.0201
X2.3996 Y0.3162 Z0.0375 I0.0012 J-0.0609
X2.4968 Y0.2933 Z0.0333 I0.0566 J0.0224
X2.4844 Y0.3924 Z0.0292 I-0.0406 J0.0452
X2.396 Y0.3462 Z0.025 I-0.0281 J-0.0538
X2.47 Y0.2796 Z0.0208 I0.0601 J-0.0076
X2.5066 Y0.372 Z0.0167 I-0.0138 J0.0589
X2.4073 Y0.3741 Z0.0125 I-0.0504 J-0.0334
X2.4399 Y0.2804 Z0.0083 I0.0488 J-0.0355
X2.5163 Y0.3436 Z0.0042 I0.0162 J0.0581
X2.4306 Y0.3931 Z0 I-0.06 J-0.005
X2.4141 Y0.2956 Z-0.0042 I0.0256 J-0.0545
X2.5111 Y0.3141 Z-0.0083 I0.0421 J0.0429
X2.46 Y0.3984 Z-0.0125 I-0.0548 J0.0244
X2.3988 Y0.3213 Z-0.0167 I-0.0038 J-0.0598
X2.4924 Y0.2909 Z-0.0208 I0.0573 J0.0173
X2.4883 Y0.389 Z-0.025 I-0.0362 J0.0477
X2.3978 Y0.351 Z-0.0292 I-0.032 J-0.0504
X2.4649 Y0.2796 Z-0.0333 I0.0584 J-0.0124
X2.5084 Y0.3672 Z-0.0375 I-0.0087 J0.059
X2.4112 Y0.3775 Z-0.0417 I-0.0522 J-0.0287
X2.4355 Y0.2829 Z-0.0458 I0.045 J-0.0388
X2.5155 Y0.3385 Z-0.05 I0.0207 J0.0557
X2.3968 Y0.3385 I-0.0594 J0
X2.5155 Y0.3385 I0.0594 J0
G1 X2.5162 Y0.364 F39.37
X2.5173 Y0.367
X2.5187 Y0.3728
X2.5188 Y0.3788
X2.5178 Y0.3848
X2.5161 Y0.3905
X2.5136 Y0.396
X2.5105 Y0.4011
X2.5068 Y0.4059
X2.5027 Y0.4102
X2.4982 Y0.4142
X2.4934 Y0.4178
X2.4883 Y0.4209
X2.4829 Y0.4235
X2.4772 Y0.4258
X2.4713 Y0.4276
X2.4651 Y0.4289
X2.4586 Y0.4298
X2.452 Y0.4302
X2.4453 Y0.43
X2.4385 Y0.4293
X2.4317 Y0.428
X2.4249 Y0.4262
X2.4183 Y0.4238
X2.4118 Y0.4209
X2.4055 Y0.4174
X2.3995 Y0.4134
X2.3937 Y0.4089
X2.3883 Y0.4039
X2.3834 Y0.3984
X2.3788 Y0.3926
X2.3747 Y0.3864
X2.3711 Y0.3799
X2.3681 Y0.373
X2.3655 Y0.366
X2.3636 Y0.3587
X2.3623 Y0.3513
X2.3615 Y0.3438
X2.3613 Y0.3362
X2.3618 Y0.3287
X2.3629 Y0.3212
X2.3645 Y0.3138
X2.3668 Y0.3065
X2.3696 Y0.2995
X2.373 Y0.2927
X2.3769 Y0.2861
X2.3814 Y0.28
X2.3863 Y0.2742
X2.3917 Y0.2688
X2.3975 Y0.2638
X2.4036 Y0.2593
X2.4101 Y0.2554
X2.417 Y0.252
X2.424 Y0.2491
X2.4313 Y0.2468
X2.4387 Y0.2451
X2.4426 Y0.2445
X2.444 Y0.2444
X2.4454 Y0.2443
X2.4468 Y0.2442
X2.455
X2.466 Y0.2448
X2.4734 Y0.2457
X2.4806 Y0.2473
X2.4878 Y0.2494
X2.4947 Y0.2522
X2.5015 Y0.2554
X2.508 Y0.2592
X2.5141 Y0.2636
X2.5199 Y0.2684
X2.5253 Y0.2737
X2.5303 Y0.2794
X2.5348 Y0.2855
X2.5389 Y0.2921
X2.5433 Y0.3005
X2.5483 Y0.3124
X2.5495 Y0.3161
X2.5503 Y0.3198
X2.5505 Y0.3237
G3 X2.5376 Y0.3357 Z-0.042 I-0.0125 J-0.0004
G1 X2.535 Y0.3354
X2.5325 Y0.3344
X2.5302 Y0.333
X2.5289 Y0.3319
X2.4476 Y0.2665
G3 X2.443 Y0.2572 I0.0078 J-0.0097
X2.455 Y0.2442 Z-0.05 I0.0125 J-0.0004
G1 X2.5129
X2.5189 Y0.2445
X2.5248 Y0.2456
X2.5305 Y0.2473
X2.5324 Y0.2481
X2.5398 Y0.2525
X2.5456 Y0.2588
X2.5493 Y0.2666
X2.5505 Y0.2751
G3 X2.5376 Y0.2871 Z-0.042 I-0.0125 J-0.0004
G1 X2.5352 Y0.2868
X2.5328 Y0.286
X2.5307 Y0.2848
X2.5288 Y0.2834
X2.506 Y0.2668
G3 X2.5008 Y0.2572 I0.0073 J-0.0101
X2.5129 Y0.2442 Z-0.05 I0.0125 J-0.0004
G1 X2.536
X2.5389 Y0.2443
X2.5404 Y0.2446
X2.5418 Y0.2451
X2.5432 Y0.2457
X2.5445 Y0.2465
X2.5458 Y0.2476
X2.5471 Y0.2488
X2.5476 Y0.2494
X2.5486 Y0.2507
X2.5493 Y0.252
X2.5498 Y0.2533
X2.5502 Y0.2546
X2.5505 Y0.2561
Y0.2575
Y0.376
X2.5501 Y0.3839
X2.5493 Y0.3901
X2.548 Y0.3964
X2.546 Y0.4028
X2.5436 Y0.4092
X2.5405 Y0.4154
X2.5369 Y0.4216
X2.5327 Y0.4276
X2.5279 Y0.4334
X2.5224 Y0.439
X2.5164 Y0.4442
X2.5098 Y0.4491
X2.5028 Y0.4535
X2.4953 Y0.4574
X2.4873 Y0.4607
X2.4789 Y0.4634
X2.4701 Y0.4655
X2.4686 Y0.4658
X2.4597
X2.4511 Y0.4631
X2.4438 Y0.4579
G3 X2.4442 Y0.4402 Z-0.042 I0.009 J-0.0087
G1 X2.4447 Y0.4397
X2.4515 Y0.4339
X2.5289 Y0.3678
X2.5299 Y0.3669
X2.5322 Y0.3654
X2.5348 Y0.3644
X2.5376 Y0.364
G3 X2.5505 Y0.376 Z-0.05 I0.0004 J0.0125
G1 Y0.428
X2.5502 Y0.434
X2.5491 Y0.4399
X2.5473 Y0.4456
X2.545 Y0.4512
X2.5422 Y0.4565
X2.5388 Y0.4619
X2.5347 Y0.4672
X2.5298 Y0.4728
X2.5242 Y0.4781
X2.5181 Y0.483
X2.5123 Y0.487
X2.5058 Y0.4907
X2.5051 Y0.491
X2.4967 Y0.4935
X2.4879 Y0.4934
X2.4795 Y0.4907
X2.4724 Y0.4856
G3 X2.4727 Y0.4679 Z-0.042 I0.009 J-0.0087
G1 X2.4733 Y0.4674
X2.4801 Y0.4616
X2.5289 Y0.4198
X2.5299 Y0.419
X2.5322 Y0.4174
X2.5348 Y0.4164
X2.5376 Y0.416
G3 X2.5505 Y0.428 Z-0.05 I0.0004 J0.0125
G1 Y0.4685
X2.5502 Y0.4745
X2.549 Y0.4804
X2.5471 Y0.486
X2.5446 Y0.4915
X2.5415 Y0.4967
X2.538 Y0.5015
X2.5339 Y0.5059
X2.5331 Y0.5067
X2.5258 Y0.5115
X2.5174 Y0.5139
X2.5087 Y0.5137
X2.5004 Y0.511
X2.4933 Y0.5059
G3 X2.4937 Y0.4882 Z-0.042 I0.009 J-0.0087
G1 X2.4946 Y0.4875
X2.5013 Y0.4822
X2.5289 Y0.4602
X2.5303 Y0.4591
X2.5325 Y0.4577
X2.535 Y0.4568
X2.5376 Y0.4564
G3 X2.5505 Y0.4685 Z-0.05 I0.0004 J0.0125
G1 Y0.5006
X2.5502 Y0.5066
X2.5475 Y0.5138
X2.5428 Y0.5199
X2.5364 Y0.5243
X2.529 Y0.5266
X2.5212
X2.5139 Y0.5242
X2.5075 Y0.5197
G3 X2.5079 Y0.502 Z-0.042 I0.009 J-0.0087
G1 X2.5095 Y0.5007
X2.5113 Y0.4997
X2.5164 Y0.4973
X2.5285 Y0.4917
X2.5328 Y0.4897
X2.5351 Y0.4889
X2.5376 Y0.4885
G3 X2.5505 Y0.5006 Z-0.05 I0.0004 J0.0125
G1 Y0.5205
X2.5502 Y0.5265
X2.5463 Y0.5327
X2.5402 Y0.5368
X2.533 Y0.5381
X2.526 Y0.5364
X2.5201 Y0.5321
G3 X2.5159 Y0.5207 Z-0.0449 I0.0123 J-0.011
G1 X2.5162 Y0.5183 Z-0.044
X2.5167 Y0.516 Z-0.043
X2.5176 Y0.5137 Z-0.042
G3 X2.54 Y0.5052 I0.0157 J0.0074
X2.5505 Y0.5205 Z-0.05 I-0.0068 J0.0159
G1 Y0.5321
X2.5503 Y0.535
X2.55 Y0.5364
X2.5495 Y0.5379
X2.5487 Y0.5393
X2.5476 Y0.5408
X2.5468 Y0.5417
X2.546 Y0.5424
X2.5444 Y0.5436
X2.5431 Y0.5444
X2.5418 Y0.545
X2.5404 Y0.5454
X2.5389 Y0.5457
X2.5375 Y0.5458
X2.536
X2.5346 Y0.5455
X2.5332 Y0.5451
X2.5317 Y0.5445
X2.5302 Y0.5436
X2.5287 Y0.5424
X2.5279 Y0.5416
X2.5272 Y0.5408
X2.5252 Y0.5379
X2.5245 Y0.537
X2.5201 Y0.5321
X2.5187 Y0.5306
X2.5129 Y0.5249
X2.3508 Y0.3677
X2.3467 Y0.3633
X2.3431 Y0.3585
X2.34 Y0.3534
X2.3375 Y0.3479
X2.3355 Y0.3423
X2.3339 Y0.3365
X2.3328 Y0.3301
X2.3321 Y0.3232
X2.3319 Y0.316
X2.3324 Y0.3086
X2.3335 Y0.3007
X2.3354 Y0.2926
X2.3379 Y0.2844
X2.3412 Y0.2762
X2.3452 Y0.2681
X2.35 Y0.2602
X2.3528 Y0.2564
X2.3593 Y0.2499
X2.3674 Y0.2457
X2.3765 Y0.2442
X2.4468
G3 X2.4588 Y0.2572 Z-0.042 I-0.0004 J0.0125
G1 X2.4586 Y0.2592
X2.458 Y0.2613
X2.457 Y0.2631
X2.4558 Y0.2649
X2.455 Y0.2658
X2.3748 Y0.3594
X2.3687 Y0.3665
X2.3685 Y0.3668
G3 X2.3508 Y0.3677 Z-0.05 I-0.0093 J-0.0084
G1 X2.3219 Y0.3396
X2.3178 Y0.3352
X2.3142 Y0.3304
X2.3113 Y0.3252
X2.309 Y0.3196
X2.3071 Y0.3139
X2.3058 Y0.3079
X2.3049 Y0.3016
X2.3045 Y0.2947
X2.3047 Y0.2871
X2.3055 Y0.2795
X2.3067 Y0.2726
X2.3087 Y0.2652
X2.3093 Y0.2636
X2.3135 Y0.2557
X2.32 Y0.2496
X2.3279 Y0.2456
X2.3368 Y0.2442
X2.3765
G3 X2.3885 Y0.2572 Z-0.042 I-0.0004 J0.0125
G1 X2.3883 Y0.2593
X2.3876 Y0.2614
X2.3867 Y0.2633
X2.385 Y0.266
X2.3448 Y0.3306
X2.3409 Y0.3369
X2.3395 Y0.3387
G3 X2.3219 Y0.3396 Z-0.05 I-0.0093 J-0.0084
G1 X2.2939 Y0.3124
X2.2898 Y0.308
X2.2863 Y0.3031
X2.2836 Y0.2978
X2.2814 Y0.2922
X2.2797 Y0.2864
X2.2788 Y0.2805
X2.2784 Y0.2745
Y0.2724
X2.2801 Y0.2636
X2.2844 Y0.2558
X2.2908 Y0.2496
X2.2988 Y0.2456
X2.3076 Y0.2442
X2.3368
G3 X2.3488 Y0.2572 Z-0.042 I-0.0004 J0.0125
G1 X2.3485 Y0.2596
X2.3477 Y0.262
X2.3464 Y0.2641
X2.3451 Y0.2659
X2.3173 Y0.3037
X2.3123 Y0.3105
X2.3115 Y0.3115
G3 X2.2939 Y0.3124 Z-0.05 I-0.0093 J-0.0084
G1 X2.2872 Y0.3059
X2.2814 Y0.3007
X2.2756 Y0.2958
X2.2731 Y0.2941
X2.2683 Y0.2906
X2.2635 Y0.2829
X2.2614 Y0.274
X2.2623 Y0.2649
X2.2661 Y0.2566
X2.2723 Y0.25
X2.2803 Y0.2457
X2.2893 Y0.2442
X2.3076
G3 X2.3196 Y0.2572 Z-0.042 I-0.0004 J0.0125
G1 X2.3193 Y0.2595
X2.3186 Y0.2618
X2.3174 Y0.2639
X2.3159 Y0.2657
X2.3157 Y0.2658
X2.2976 Y0.2834
X2.2906 Y0.2902
X2.2883 Y0.2924 Z-0.0433
G3 X2.2731 Y0.2941 Z-0.05 I-0.0087 J-0.009
G1 X2.2698 Y0.292
X2.264 Y0.2892
X2.2594 Y0.2874
X2.2539 Y0.285
X2.2496 Y0.2808
X2.2466 Y0.2729
X2.2465 Y0.2645
X2.2493 Y0.2565
X2.2547 Y0.25
X2.262 Y0.2457
X2.2703 Y0.2442
X2.2893
G3 X2.3014 Y0.2572 Z-0.042 I-0.0004 J0.0125
X2.2963 Y0.2668 I-0.0125 J-0.0004
G1 X2.2847 Y0.2754
X2.2769 Y0.2812
X2.2709 Y0.2857 Z-0.0451
G3 X2.2594 Y0.2874 Z-0.05 I-0.0074 J-0.01
G1 X2.2582 Y0.287
X2.2524 Y0.2853
X2.2478 Y0.2846
X2.242 Y0.2833
X2.237 Y0.2799
X2.2335 Y0.2738
X2.2321 Y0.2669
X2.233 Y0.26
X2.236 Y0.2537
X2.2409 Y0.2486
X2.2471 Y0.2454
X2.254 Y0.2442
X2.2703
G3 X2.2807 Y0.2545 Z-0.0434 I-0.0004 J0.0108
G1 X2.2806 Y0.2581 Z-0.042
G3 X2.2667 Y0.2806 I-0.029 J-0.0023
X2.2478 Y0.2846 Z-0.05 I-0.015 J-0.0249
G1 X2.2466 Y0.2844
X2.2409 Y0.284
X2.2351 Y0.2838
X2.2291 Y0.2835
X2.2239 Y0.2805
X2.2198 Y0.2747
X2.2179 Y0.2678
X2.2184 Y0.2607
X2.2212 Y0.2541
X2.226 Y0.2488
X2.2322 Y0.2454
X2.2392 Y0.2442
X2.254
G3 X2.2634 Y0.2537 I-0.0003 J0.0097
X2.2351 Y0.2838 I-0.0294 J0.0007
G1 X2.2217
X2.2158 Y0.2835
X2.2104 Y0.2808
X2.206 Y0.2767
X2.2032 Y0.2697
X2.203 Y0.2623
X2.2054 Y0.2552
X2.2102 Y0.2494
X2.2166 Y0.2456
X2.224 Y0.2442
X2.2392
G3 X2.2486 Y0.253 I-0.0003 J0.0097
X2.2217 Y0.2838 I-0.0278 J0.0029
G1 X2.2073
X2.2013 Y0.2835
X2.1959 Y0.2809
X2.1914 Y0.2769
X2.1884 Y0.27
X2.1881 Y0.2625
X2.1904 Y0.2553
X2.1951 Y0.2494
X2.2015 Y0.2456
X2.2089 Y0.2442
X2.224
G3 X2.2333 Y0.2525 I-0.0003 J0.0097
X2.2073 Y0.2838 I-0.0269 J0.004
G1 X2.1928
X2.1868 Y0.2835
X2.1813 Y0.281
X2.1768 Y0.2771
X2.1737 Y0.2702
X2.1732 Y0.2627
X2.1755 Y0.2555
X2.1801 Y0.2495
X2.1866 Y0.2456
X2.194 Y0.2442
X2.2089
G3 X2.2182 Y0.2522 I-0.0003 J0.0098
X2.1928 Y0.2838 I-0.0263 J0.0049
G1 X2.1772
X2.1712 Y0.2835
X2.1658 Y0.2808
X2.1615 Y0.2751
X2.1593 Y0.2683
X2.1595 Y0.2611
X2.1621 Y0.2544
X2.1668 Y0.249
X2.1731 Y0.2455
X2.1801 Y0.2442
X2.194
G3 X2.2033 Y0.2526 I-0.0003 J0.0097
X2.1772 Y0.2838 I-0.0271 J0.0038
G1 X2.1639
X2.1579 Y0.2835
X2.1524 Y0.2811
X2.1478 Y0.2772
X2.1448 Y0.2702
X2.1444 Y0.2627
X2.1467 Y0.2554
X2.1514 Y0.2495
X2.1579 Y0.2456
X2.1653 Y0.2442
X2.1801
G3 X2.1894 Y0.2523 I-0.0003 J0.0097
X2.1639 Y0.2838 I-0.0265 J0.0046
G1 X2.1482
X2.1423 Y0.2835
X2.1369 Y0.2808
X2.1326 Y0.2751
X2.1304 Y0.2682
X2.1306 Y0.2611
X2.1333 Y0.2544
X2.138 Y0.249
X2.1442 Y0.2455
X2.1513 Y0.2442
X2.1653
G3 X2.1747 Y0.2527 I-0.0003 J0.0097
X2.1482 Y0.2838 I-0.0274 J0.0035
G1 X2.1349
X2.1289 Y0.2835
X2.1235 Y0.2811
X2.1189 Y0.2771
X2.1159 Y0.2702
X2.1155 Y0.2626
X2.1178 Y0.2554
X2.1225 Y0.2495
X2.129 Y0.2456
X2.1365 Y0.2442
X2.1513
G3 X2.1606 Y0.2524 I-0.0003 J0.0097
X2.1349 Y0.2838 I-0.0266 J0.0045
G1 X2.1193
X2.1133 Y0.2835
X2.108 Y0.2808
X2.1037 Y0.275
X2.1015 Y0.2682
X2.1018 Y0.261
X2.1044 Y0.2544
X2.1091 Y0.249
X2.1154 Y0.2454
X2.1224 Y0.2442
X2.1365
G3 X2.1458 Y0.2528 I-0.0003 J0.0097
X2.1193 Y0.2838 I-0.0274 J0.0034
G1 X2.106
X2.1 Y0.2835
X2.0945 Y0.281
X2.09 Y0.2771
X2.087 Y0.2701
X2.0866 Y0.2626
X2.0889 Y0.2554
X2.0936 Y0.2495
X2.1001 Y0.2456
X2.1076 Y0.2442
X2.1224
G3 X2.1317 Y0.2524 I-0.0003 J0.0097
X2.106 Y0.2838 I-0.0267 J0.0044
G1 X2.0904
X2.0844 Y0.2835
X2.079 Y0.2807
X2.0747 Y0.275
X2.0726 Y0.2682
X2.0728 Y0.261
X2.0755 Y0.2544
X2.0802 Y0.249
X2.0865 Y0.2454
X2.0935 Y0.2442
X2.1076
G3 X2.1169 Y0.2528 I-0.0003 J0.0097
X2.0904 Y0.2838 I-0.0275 J0.0033
G1 X2.077
X2.071 Y0.2835
X2.0656 Y0.281
X2.0611 Y0.2771
X2.0581 Y0.2701
X2.0577 Y0.2626
X2.06 Y0.2554
X2.0647 Y0.2495
X2.0712 Y0.2456
X2.0786 Y0.2442
X2.0935
G3 X2.1028 Y0.2524 I-0.0003 J0.0097
X2.077 Y0.2838 I-0.0267 J0.0043
G1 X2.0614
X2.0554 Y0.2835
X2.0501 Y0.2807
X2.0458 Y0.275
X2.0437 Y0.2682
