%
(1001)
(Machine)
(  vendor Autodesk)
(  model Generic 3-axis Router)
(  description This machine has XYZ axis on the Head)
(T1 D=0.125 CR=0 - ZMIN=-0.1969 - flat end mill)
G90
G17
G20
G28 G91 Z0
G90

(2D Pocket2)
T1 M6
S5000 M3
G17 G90
G54
G0 X-1.9078 Y0.4063
Z0.3937
G0 Z0.1969
G1 Z0.1109 F9.974
X-1.907 Y0.4057 Z0.1062
X-1.905 Y0.4041 Z0.1022
X-1.9017 Y0.4019 Z0.0995
X-1.8977 Y0.3996 Z0.0984
G3 X-1.8425 Y0.5046 Z0.0919 I0.0276 J0.0525
X-1.8977 Y0.3996 Z0.0854 I-0.0276 J-0.0525
X-1.8425 Y0.5046 Z0.0789 I0.0276 J0.0525
X-1.8977 Y0.3996 Z0.0724 I-0.0276 J-0.0525
X-1.8425 Y0.5046 Z0.0659 I0.0276 J0.0525
X-1.8977 Y0.3996 Z0.0593 I-0.0276 J-0.0525
X-1.8425 Y0.5046 Z0.0528 I0.0276 J0.0525
X-1.8977 Y0.3996 Z0.0463 I-0.0276 J-0.0525
X-1.8425 Y0.5046 Z0.0398 I0.0276 J0.0525
X-1.8977 Y0.3996 Z0.0333 I-0.0276 J-0.0525
X-1.8425 Y0.5046 Z0.0268 I0.0276 J0.0525
X-1.8977 Y0.3996 Z0.0203 I-0.0276 J-0.0525
X-1.8425 Y0.5046 Z0.0137 I0.0276 J0.0525
X-1.8977 Y0.3996 Z0.0072 I-0.0276 J-0.0525
X-1.8425 Y0.5046 Z0.0007 I0.0276 J0.0525
X-1.8977 Y0.3996 Z-0.0058 I-0.0276 J-0.0525
X-1.8425 Y0.5046 Z-0.0123 I0.0276 J0.0525
X-1.8977 Y0.3996 Z-0.0188 I-0.0276 J-0.0525
X-1.8425 Y0.5046 Z-0.0253 I0.0276 J0.0525
X-1.8977 Y0.3996 Z-0.0319 I-0.0276 J-0.0525
X-1.8425 Y0.5046 Z-0.0384 I0.0276 J0.0525
X-1.8701 Y0.5114 Z-0.0394 I-0.0276 J-0.0525
G1 X-1.8769 Y0.5115 F29.921
G3 X-1.8895 Y0.4989 I0 J-0.0126
G1 X-1.8894 Y0.4853
G3 X-1.8769 Y0.4728 I0.0125 J0
G1 X-0.4853 Y0.4727
G3 X-0.4727 Y0.4853 I0 J0.0126
G1 Y0.4989
G3 X-0.4853 Y0.5115 I-0.0126 J0
G1 X-1.8701
G2 X-1.9124 Y0.5372 I0 J0.0477
G3 X-1.9604 Y0.5255 I-0.0226 J-0.0117
G1 X-1.9605 Y0.4142
G3 X-1.9479 Y0.4016 I0.0126 J0
G1 X-0.4142 Y0.4017
G3 X-0.4017 Y0.4142 I0 J0.0125
G1 Y0.57
G3 X-0.4142 Y0.5825 I-0.0125 J0
G1 X-1.9479 Y0.5826
G3 X-1.9605 Y0.57 I0 J-0.0126
G1 Y0.5255
G2 X-1.996 Y0.4722 I-0.0578 J0
G3 X-2.0315 Y0.4189 I0.0222 J-0.0533
G1 X-2.0316 Y0.3432
G3 X-2.019 Y0.3306 I0.0126 J0
G1 X-0.3432
G3 X-0.3306 Y0.3432 I0 J0.0126
G1 Y0.6411
G3 X-0.3432 Y0.6537 I-0.0126 J0
G1 X-2.019 Y0.6536
G3 X-2.0315 Y0.6411 I0 J-0.0125
G1 X-2.0316 Y0.4189
G2 X-2.0672 Y0.3655 I-0.0579 J0
G3 X-2.1029 Y0.312 I0.0223 J-0.0535
G1 X-2.1028 Y0.2594
X-0.2593
Y0.7249
X-2.1028
Y0.312
G3 X-2.0931 Y0.3069 I0.0062 J0
G1 X-2.0639 Y0.3267
X-1.869 Y0.4977
X-1.8603 Y0.5064
X-1.8597 Y0.5074
X-1.8596 Y0.5086
X-1.86 Y0.5097
X-1.8608 Y0.5105
X-1.8619 Y0.5109
G3 X-1.8783 Y0.3933 Z-0.0459 I-0.0082 J-0.0588 F9.974
X-1.8619 Y0.5109 Z-0.0524 I0.0082 J0.0588
X-1.8783 Y0.3933 Z-0.0589 I-0.0082 J-0.0588
X-1.8619 Y0.5109 Z-0.0654 I0.0082 J0.0588
X-1.8783 Y0.3933 Z-0.0719 I-0.0082 J-0.0588
X-1.8109 Y0.448 Z-0.0753 I0.0082 J0.0588
X-1.8701 Y0.5114 Z-0.0787 I-0.0592 J0.0041
G1 X-1.8769 Y0.5115 F29.921
G3 X-1.8895 Y0.4989 I0 J-0.0126
G1 X-1.8894 Y0.4853
G3 X-1.8769 Y0.4728 I0.0125 J0
G1 X-0.4853 Y0.4727
G3 X-0.4727 Y0.4853 I0 J0.0126
G1 Y0.4989
G3 X-0.4853 Y0.5115 I-0.0126 J0
G1 X-1.8701
G2 X-1.9124 Y0.5372 I0 J0.0477
G3 X-1.9604 Y0.5255 I-0.0226 J-0.0117
G1 X-1.9605 Y0.4142
G3 X-1.9479 Y0.4016 I0.0126 J0
G1 X-0.4142 Y0.4017
G3 X-0.4017 Y0.4142 I0 J0.0125
G1 Y0.57
G3 X-0.4142 Y0.5825 I-0.0125 J0
G1 X-1.9479 Y0.5826
G3 X-1.9605 Y0.57 I0 J-0.0126
G1 Y0.5255
G2 X-1.996 Y0.4722 I-0.0578 J0
G3 X-2.0315 Y0.4189 I0.0222 J-0.0533
G1 X-2.0316 Y0.3432
G3 X-2.019 Y0.3306 I0.0126 J0
G1 X-0.3432
G3 X-0.3306 Y0.3432 I0 J0.0126
G1 Y0.6411
G3 X-0.3432 Y0.6537 I-0.0126 J0
G1 X-2.019 Y0.6536
G3 X-2.0315 Y0.6411 I0 J-0.0125
G1 X-2.0316 Y0.4189
G2 X-2.0672 Y0.3655 I-0.0579 J0
G3 X-2.1029 Y0.312 I0.0223 J-0.0535
G1 X-2.1028 Y0.2594
X-0.2593
Y0.7249
X-2.1028
Y0.312
X-2.1026 Y0.3096 Z-0.0783
X-2.1019 Y0.3073 Z-0.0778
X-2.101 Y0.3055 Z-0.0764
X-2.0998 Y0.3039 Z-0.0751
X-2.0979 Y0.302 Z-0.071
X-2.0971 Y0.3015 Z-0.0662
G0 Z0.1969
X-0.5298 Y1.296
G1 Z0.1109 F9.974
X-0.5291 Y1.2954 Z0.1062
X-0.527 Y1.2939 Z0.1022
X-0.5238 Y1.2917 Z0.0995
X-0.5198 Y1.2893 Z0.0984
G3 X-0.4644 Y1.3945 Z0.0919 I0.0277 J0.0526
X-0.5198 Y1.2893 Z0.0854 I-0.0277 J-0.0526
X-0.4644 Y1.3945 Z0.0789 I0.0277 J0.0526
X-0.5198 Y1.2893 Z0.0724 I-0.0277 J-0.0526
X-0.4644 Y1.3945 Z0.0659 I0.0277 J0.0526
X-0.5198 Y1.2893 Z0.0593 I-0.0277 J-0.0526
X-0.4644 Y1.3945 Z0.0528 I0.0277 J0.0526
X-0.5198 Y1.2893 Z0.0463 I-0.0277 J-0.0526
X-0.4644 Y1.3945 Z0.0398 I0.0277 J0.0526
X-0.5198 Y1.2893 Z0.0333 I-0.0277 J-0.0526
X-0.4644 Y1.3945 Z0.0268 I0.0277 J0.0526
X-0.5198 Y1.2893 Z0.0203 I-0.0277 J-0.0526
X-0.4644 Y1.3945 Z0.0137 I0.0277 J0.0526
X-0.5198 Y1.2893 Z0.0072 I-0.0277 J-0.0526
X-0.4644 Y1.3945 Z0.0007 I0.0277 J0.0526
X-0.5198 Y1.2893 Z-0.0058 I-0.0277 J-0.0526
X-0.4644 Y1.3945 Z-0.0123 I0.0277 J0.0526
X-0.5198 Y1.2893 Z-0.0188 I-0.0277 J-0.0526
X-0.4644 Y1.3945 Z-0.0253 I0.0277 J0.0526
X-0.5198 Y1.2893 Z-0.0319 I-0.0277 J-0.0526
X-0.4644 Y1.3945 Z-0.0384 I0.0277 J0.0526
X-0.4921 Y1.4013 Z-0.0394 I-0.0277 J-0.0526
G1 X-1.8769 F29.921
G3 X-1.8895 Y1.3887 I0 J-0.0126
G1 X-1.8894 Y1.3751
G3 X-1.8769 Y1.3626 I0.0125 J0
G1 X-0.4853 Y1.3625
G3 X-0.4727 Y1.3751 I0 J0.0126
G1 Y1.3887
G3 X-0.4853 Y1.4013 I-0.0126 J0
G1 X-0.4921
G2 X-0.5454 Y1.4368 I0 J0.0577
G3 X-0.5987 Y1.4723 I-0.0533 J-0.0222
G1 X-1.9479
G3 X-1.9604 Y1.4598 I0 J-0.0125
G1 X-1.9605 Y1.304
G3 X-1.9479 Y1.2914 I0.0126 J0
G1 X-0.4142
G3 X-0.4016 Y1.304 I0 J0.0126
G1 X-0.4017 Y1.4598
G3 X-0.4142 Y1.4723 I-0.0125 J0
G1 X-0.5987
G2 X-0.652 Y1.5078 I0 J0.0578
G3 X-0.7053 Y1.5434 I-0.0533 J-0.0221
G1 X-2.019
G3 X-2.0316 Y1.5308 I0 J-0.0126
G1 Y1.2329
G3 X-2.019 Y1.2203 I0.0126 J0
G1 X-0.3432 Y1.2204
G3 X-0.3307 Y1.2329 I0 J0.0125
G1 X-0.3306 Y1.5308
G3 X-0.3432 Y1.5434 I-0.0126 J0
G1 X-0.7053
G2 X-0.7587 Y1.579 I0 J0.0579
G3 X-0.8122 Y1.6147 I-0.0535 J-0.0222
G1 X-2.1028 Y1.6146
Y1.1491
X-0.2593
Y1.6146
X-0.8122
G3 X-0.817 Y1.6045 I0 J-0.0062
G1 X-0.7815 Y1.5603
X-0.7806 Y1.5595
X-0.7797 Y1.5588
X-0.4933 Y1.3961
X-0.4848 Y1.3945
X-0.4836 Y1.3946
X-0.4825 Y1.3951
X-0.4817 Y1.396
X-0.4813 Y1.3972
Y1.3984
X-0.4819 Y1.3995
X-0.4828 Y1.4003
X-0.4839 Y1.4007
G3 X-0.5003 Y1.2831 Z-0.0459 I-0.0082 J-0.0588 F9.974
X-0.4839 Y1.4007 Z-0.0524 I0.0082 J0.0588
X-0.5003 Y1.2831 Z-0.0589 I-0.0082 J-0.0588
X-0.4839 Y1.4007 Z-0.0654 I0.0082 J0.0588
X-0.5003 Y1.2831 Z-0.0719 I-0.0082 J-0.0588
X-0.4329 Y1.3378 Z-0.0753 I0.0082 J0.0588
X-0.4921 Y1.4012 Z-0.0787 I-0.0592 J0.0041
G1 X-1.8769 Y1.4013 F29.921
G3 X-1.8895 Y1.3887 I0 J-0.0126
G1 X-1.8894 Y1.3751
G3 X-1.8769 Y1.3626 I0.0125 J0
G1 X-0.4853 Y1.3625
G3 X-0.4727 Y1.3751 I0 J0.0126
G1 Y1.3887
G3 X-0.4853 Y1.4013 I-0.0126 J0
G1 X-0.4921
G2 X-0.5454 Y1.4368 I0 J0.0577
G3 X-0.5987 Y1.4723 I-0.0533 J-0.0222
G1 X-1.9479
G3 X-1.9604 Y1.4598 I0 J-0.0125
G1 X-1.9605 Y1.304
G3 X-1.9479 Y1.2914 I0.0126 J0
G1 X-0.4142
G3 X-0.4016 Y1.304 I0 J0.0126
G1 X-0.4017 Y1.4598
G3 X-0.4142 Y1.4723 I-0.0125 J0
G1 X-0.5987
G2 X-0.652 Y1.5078 I0 J0.0578
G3 X-0.7053 Y1.5434 I-0.0533 J-0.0221
G1 X-2.019
G3 X-2.0316 Y1.5308 I0 J-0.0126
G1 Y1.2329
G3 X-2.019 Y1.2203 I0.0126 J0
G1 X-0.3432 Y1.2204
G3 X-0.3307 Y1.2329 I0 J0.0125
G1 X-0.3306 Y1.5308
G3 X-0.3432 Y1.5434 I-0.0126 J0
G1 X-0.7053
G2 X-0.7587 Y1.579 I0 J0.0579
G3 X-0.8122 Y1.6147 I-0.0535 J-0.0222
G1 X-2.1028 Y1.6146
Y1.1491
X-0.2593
Y1.6146
X-0.8122
X-0.8146 Y1.6144 Z-0.0783
X-0.8169 Y1.6137 Z-0.0778
X-0.8187 Y1.6128 Z-0.0764
X-0.8203 Y1.6117 Z-0.0751
X-0.8222 Y1.6097 Z-0.071
X-0.8227 Y1.6089 Z-0.0662
G0 Z0.3937

(2D Pocket1)
G0 X-2.0762 Y1.1759
Z0.3937
Z0.0787
G1 Z0.0519 F9.974
X-2.0756 Y1.1751 Z0.0472
X-2.074 Y1.1731 Z0.0432
X-2.0715 Y1.1702 Z0.0404
X-2.0682 Y1.1669 Z0.0394
G3 X-1.988 Y1.2545 Z0.0329 I0.0401 J0.0438
X-2.0682 Y1.1669 Z0.0263 I-0.0401 J-0.0438
X-1.988 Y1.2545 Z0.0198 I0.0401 J0.0438
X-2.0682 Y1.1669 Z0.0133 I-0.0401 J-0.0438
X-1.988 Y1.2545 Z0.0068 I0.0401 J0.0438
X-2.0682 Y1.1669 Z0.0003 I-0.0401 J-0.0438
X-1.988 Y1.2545 Z-0.0062 I0.0401 J0.0438
X-2.0682 Y1.1669 Z-0.0127 I-0.0401 J-0.0438
X-1.988 Y1.2545 Z-0.0193 I0.0401 J0.0438
X-2.0682 Y1.1669 Z-0.0258 I-0.0401 J-0.0438
X-1.988 Y1.2545 Z-0.0323 I0.0401 J0.0438
X-2.077 Y1.2443 Z-0.0358 I-0.0401 J-0.0438
X-2.0546 Y1.1576 Z-0.0394 I0.0489 J-0.0336
X-2.0076 Y1.2518 I0.0235 J0.0471
G1 X-2.0207 Y1.2585 F29.921
G3 X-2.0317 Y1.2517 I-0.0034 J-0.0068
G1 X-2.0316 Y1.2327
G3 X-2.0193 Y1.2204 I0.0123 J0
G1 X-1.9638 Y1.2203
X-1.9623 Y1.2206
X-1.961 Y1.2213
X-1.9599 Y1.2225
X-1.9593 Y1.2239
X-1.9592 Y1.2254
X-1.9597 Y1.2268
X-1.9605 Y1.2281
X-1.9617 Y1.229
X-2.0075 Y1.2519
X-2.0097 Y1.2527 Z-0.0389
X-2.0121 Y1.2532 Z-0.0384
X-2.0141 Z-0.0371
X-2.0161 Y1.2528 Z-0.0357
X-2.0187 Y1.2519 Z-0.0317
X-2.0195 Y1.2514 Z-0.0269
Z0.0519
X-2.0424 Y1.4447
X-2.0416 Y1.4443 Z0.0472 F9.974
X-2.0392 Y1.4432 Z0.0432
X-2.0356 Y1.4417 Z0.0404
X-2.0312 Y1.4403 Z0.0394
G3 X-1.9987 Y1.5545 Z0.0329 I0.0162 J0.0571
X-2.0312 Y1.4403 Z0.0263 I-0.0163 J-0.0571
X-1.9987 Y1.5545 Z0.0198 I0.0162 J0.0571
X-2.0312 Y1.4403 Z0.0133 I-0.0163 J-0.0571
X-1.9987 Y1.5545 Z0.0068 I0.0162 J0.0571
X-2.0312 Y1.4403 Z0.0003 I-0.0163 J-0.0571
X-1.9987 Y1.5545 Z-0.0062 I0.0162 J0.0571
X-2.0312 Y1.4403 Z-0.0127 I-0.0163 J-0.0571
X-1.9987 Y1.5545 Z-0.0193 I0.0162 J0.0571
X-2.0312 Y1.4403 Z-0.0258 I-0.0163 J-0.0571
X-1.9987 Y1.5545 Z-0.0323 I0.0162 J0.0571
X-2.0738 Y1.5056 Z-0.0358 I-0.0163 J-0.0571
X-2.015 Y1.438 Z-0.0394 I0.0588 J-0.0082
Y1.5434 I0 J0.0527
G1 X-2.0193 F29.921
G3 X-2.0316 Y1.5311 I0 J-0.0123
G1 Y1.512
G3 X-2.0207 Y1.5053 I0.0075 J0
G1 X-1.9617 Y1.5348
X-1.9605 Y1.5357
X-1.9597 Y1.5369
X-1.9592 Y1.5384
X-1.9593 Y1.5399
X-1.9599 Y1.5413
X-1.961 Y1.5424
X-1.9623 Y1.5432
X-1.9638 Y1.5434
X-2.015
X-2.0173 Y1.5432 Z-0.0389
X-2.0196 Y1.5425 Z-0.0384
X-2.0214 Y1.5416 Z-0.0371
X-2.0231 Y1.5404 Z-0.0357
X-2.0249 Y1.5385 Z-0.0317
X-2.0255 Y1.5377 Z-0.0269
G0 Z0.1969
X-0.3746 Y1.4447
Z0.0787
G1 Z0.0519 F9.974
X-0.3738 Y1.4443 Z0.0472
X-0.3715 Y1.4432 Z0.0432
X-0.3679 Y1.4417 Z0.0404
X-0.3635 Y1.4403 Z0.0394
G3 X-0.331 Y1.5545 Z0.0329 I0.0163 J0.0571
X-0.3634 Y1.4403 Z0.0263 I-0.0162 J-0.0571
X-0.331 Y1.5545 Z0.0198 I0.0162 J0.0571
X-0.3634 Y1.4403 Z0.0133 I-0.0162 J-0.0571
X-0.331 Y1.5545 Z0.0068 I0.0162 J0.0571
X-0.3634 Y1.4403 Z0.0003 I-0.0162 J-0.0571
X-0.331 Y1.5545 Z-0.0062 I0.0162 J0.0571
X-0.3634 Y1.4403 Z-0.0127 I-0.0162 J-0.0571
X-0.331 Y1.5545 Z-0.0193 I0.0162 J0.0571
X-0.3634 Y1.4403 Z-0.0258 I-0.0162 J-0.0571
X-0.331 Y1.5545 Z-0.0323 I0.0162 J0.0571
X-0.406 Y1.5056 Z-0.0358 I-0.0162 J-0.0571
X-0.3472 Y1.438 Z-0.0394 I0.0588 J-0.0082
Y1.5434 I0 J0.0527
G1 X-0.3984 F29.921
X-0.3999 Y1.5432
X-0.4012 Y1.5424
X-0.4022 Y1.5413
X-0.4028 Y1.5399
X-0.4029 Y1.5384
X-0.4025 Y1.5369
X-0.4017 Y1.5357
X-0.4004 Y1.5348
X-0.3545 Y1.5118
X-0.3415 Y1.5053
G3 X-0.3306 Y1.512 I0.0034 J0.0067
G1 Y1.5311
G3 X-0.3429 Y1.5434 I-0.0123 J0
G1 X-0.3472
X-0.3496 Y1.5432 Z-0.0389
X-0.3519 Y1.5425 Z-0.0384
X-0.3537 Y1.5416 Z-0.0371
X-0.3553 Y1.5404 Z-0.0357
X-0.3572 Y1.5385 Z-0.0317
X-0.3577 Y1.5377 Z-0.0269
G0 Z0.1969
X-0.3373 Y1.2096
Z0.0787
G1 Z0.0519 F9.974
X-0.3369 Y1.2104 Z0.0472
X-0.3358 Y1.2127 Z0.0432
X-0.3343 Y1.2163 Z0.0404
X-0.3328 Y1.2208 Z0.0394
G3 X-0.4472 Y1.2532 Z0.0329 I-0.0572 J0.0162
X-0.3328 Y1.2207 Z0.0263 I0.0572 J-0.0162
X-0.4472 Y1.2533 Z0.0198 I-0.0572 J0.0163
X-0.3328 Y1.2207 Z0.0133 I0.0572 J-0.0163
X-0.4472 Y1.2533 Z0.0068 I-0.0572 J0.0163
X-0.3328 Y1.2207 Z0.0003 I0.0572 J-0.0163
X-0.4472 Y1.2533 Z-0.0062 I-0.0572 J0.0163
X-0.3328 Y1.2207 Z-0.0127 I0.0572 J-0.0163
X-0.4472 Y1.2533 Z-0.0193 I-0.0572 J0.0163
X-0.3328 Y1.2207 Z-0.0258 I0.0572 J-0.0163
X-0.4472 Y1.2533 Z-0.0323 I-0.0572 J0.0163
X-0.3982 Y1.1781 Z-0.0358 I0.0572 J-0.0163
X-0.3305 Y1.237 Z-0.0394 I0.0082 J0.0589
G1 X-0.3306 Y1.2517 F29.921
G3 X-0.3415 Y1.2584 I-0.0075 J0
G1 X-0.4004 Y1.229
X-0.4017 Y1.2281
X-0.4025 Y1.2268
X-0.4029 Y1.2254
X-0.4028 Y1.2239
X-0.4022 Y1.2225
X-0.4012 Y1.2213
X-0.3999 Y1.2206
X-0.3984 Y1.2203
X-0.3473
X-0.3429
G3 X-0.3305 Y1.2327 I0 J0.0124
G1 X-0.3306 Y1.237
G3 X-0.3554 Y1.2927 I-0.075 J0
X-0.4158 Y1.3009 I-0.0362 J-0.0402
G1 X-0.5626 Y1.2276
G2 X-0.5905 Y1.221 I-0.0279 J0.0559
G1 X-1.7716
G2 X-1.7996 Y1.2276 I0 J0.0625
G1 X-1.9964 Y1.326
G2 Y1.4378 I0.0279 J0.0559
G1 X-1.7996 Y1.5362
G2 X-1.7716 Y1.5428 I0.028 J-0.0559
G1 X-0.5905
G2 X-0.5626 Y1.5362 I0 J-0.0625
G1 X-0.3657 Y1.4378
G2 Y1.326 I-0.028 J-0.0559
G1 X-0.4158 Y1.3009
G3 X-0.4194 Y1.2905 I0.0035 J-0.007
G1 X-0.3546 Y1.1536
X-0.3534 Y1.1518
X-0.3517 Y1.1503
X-0.3497 Y1.1494
X-0.3475 Y1.1491
X-0.2593
Y1.6146
X-2.1028
Y1.3819
Y1.1491
X-0.3475
G3 X-0.3397 Y1.1561 I0 J0.0079
G1 X-0.3311 Y1.2288
G3 X-0.4489 Y1.2452 Z-0.0459 I-0.0589 J0.0082 F9.974
X-0.3311 Y1.2288 Z-0.0524 I0.0589 J-0.0082
X-0.4489 Y1.2452 Z-0.0589 I-0.0589 J0.0082
X-0.3311 Y1.2288 Z-0.0654 I0.0589 J-0.0082
X-0.4489 Y1.2452 Z-0.0719 I-0.0589 J0.0082
X-0.3941 Y1.1777 Z-0.0753 I0.0589 J-0.0082
X-0.3306 Y1.237 Z-0.0787 I0.0041 J0.0593
G1 Y1.2517 F29.921
G3 X-0.3415 Y1.2584 I-0.0075 J0
G1 X-0.4004 Y1.229
X-0.4017 Y1.2281
X-0.4025 Y1.2268
X-0.4029 Y1.2254
X-0.4028 Y1.2239
X-0.4022 Y1.2225
X-0.4012 Y1.2213
X-0.3999 Y1.2206
X-0.3984 Y1.2203
X-0.3429
G3 X-0.3305 Y1.2327 I0 J0.0124
G1 X-0.3306 Y1.237
X-0.3308 Y1.2394 Z-0.0783
X-0.3315 Y1.2417 Z-0.0778
X-0.3324 Y1.2435 Z-0.0764
X-0.3336 Y1.2451 Z-0.0751
X-0.3355 Y1.247 Z-0.071
X-0.3363 Y1.2475 Z-0.0662
G0 Z0.1969
X-0.3746 Y1.4447
Z0.0787
G1 Z0.0125 F9.974
X-0.3738 Y1.4443 Z0.0078
X-0.3715 Y1.4432 Z0.0038
X-0.3679 Y1.4417 Z0.0011
X-0.3635 Y1.4403 Z0
G3 X-0.331 Y1.5545 Z-0.0065 I0.0163 J0.0571
X-0.3634 Y1.4403 Z-0.013 I-0.0162 J-0.0571
X-0.331 Y1.5545 Z-0.0195 I0.0162 J0.0571
X-0.3634 Y1.4403 Z-0.0261 I-0.0162 J-0.0571
X-0.331 Y1.5545 Z-0.0326 I0.0162 J0.0571
X-0.3634 Y1.4403 Z-0.0391 I-0.0162 J-0.0571
X-0.331 Y1.5545 Z-0.0456 I0.0162 J0.0571
X-0.3634 Y1.4403 Z-0.0521 I-0.0162 J-0.0571
X-0.331 Y1.5545 Z-0.0586 I0.0162 J0.0571
X-0.3634 Y1.4403 Z-0.0651 I-0.0162 J-0.0571
X-0.331 Y1.5545 Z-0.0717 I0.0162 J0.0571
X-0.406 Y1.5056 Z-0.0752 I-0.0162 J-0.0571
X-0.3472 Y1.438 Z-0.0787 I0.0588 J-0.0082
Y1.5434 I0 J0.0527
G1 X-0.3984 F29.921
X-0.3999 Y1.5432
X-0.4012 Y1.5424
X-0.4022 Y1.5413
X-0.4028 Y1.5399
X-0.4029 Y1.5384
X-0.4025 Y1.5369
X-0.4017 Y1.5357
X-0.4004 Y1.5348
X-0.3415 Y1.5053
G3 X-0.3306 Y1.512 I0.0034 J0.0067
G1 Y1.5268
Y1.5311
G3 X-0.3429 Y1.5434 I-0.0123 J0
G1 X-0.3472
X-0.3496 Y1.5432 Z-0.0783
X-0.3519 Y1.5425 Z-0.0778
X-0.3537 Y1.5416 Z-0.0764
X-0.3553 Y1.5404 Z-0.0751
X-0.3572 Y1.5385 Z-0.071
X-0.3577 Y1.5377 Z-0.0662
G0 Z0.1969
X-2.0424 Y1.4447
Z0.0787
G1 Z0.0125 F9.974
X-2.0416 Y1.4443 Z0.0078
X-2.0392 Y1.4432 Z0.0038
X-2.0356 Y1.4417 Z0.0011
X-2.0312 Y1.4403 Z0
G3 X-1.9987 Y1.5545 Z-0.0065 I0.0162 J0.0571
X-2.0312 Y1.4403 Z-0.013 I-0.0163 J-0.0571
X-1.9987 Y1.5545 Z-0.0195 I0.0162 J0.0571
X-2.0312 Y1.4403 Z-0.0261 I-0.0163 J-0.0571
X-1.9987 Y1.5545 Z-0.0326 I0.0162 J0.0571
X-2.0312 Y1.4403 Z-0.0391 I-0.0163 J-0.0571
X-1.9987 Y1.5545 Z-0.0456 I0.0162 J0.0571
X-2.0312 Y1.4403 Z-0.0521 I-0.0163 J-0.0571
X-1.9987 Y1.5545 Z-0.0586 I0.0162 J0.0571
X-2.0312 Y1.4403 Z-0.0651 I-0.0163 J-0.0571
X-1.9987 Y1.5545 Z-0.0717 I0.0162 J0.0571
X-2.0738 Y1.5056 Z-0.0752 I-0.0163 J-0.0571
X-2.015 Y1.438 Z-0.0787 I0.0588 J-0.0082
Y1.5434 I0 J0.0527
G1 X-2.0193 F29.921
G3 X-2.0316 Y1.5311 I0 J-0.0123
G1 Y1.512
G3 X-2.0207 Y1.5053 I0.0075 J0
G1 X-1.9617 Y1.5348
X-1.9605 Y1.5357
X-1.9597 Y1.5369
X-1.9592 Y1.5384
X-1.9593 Y1.5399
X-1.9599 Y1.5413
X-1.961 Y1.5424
X-1.9623 Y1.5432
X-1.9638 Y1.5434
X-2.0149
X-2.015
X-2.0173 Y1.5432 Z-0.0783
X-2.0196 Y1.5425 Z-0.0778
X-2.0214 Y1.5416 Z-0.0764
X-2.0231 Y1.5404 Z-0.0751
X-2.0249 Y1.5385 Z-0.071
X-2.0255 Y1.5377 Z-0.0662
Z0.0125
X-2.0762 Y1.1759
X-2.0756 Y1.1751 Z0.0078 F9.974
X-2.074 Y1.1731 Z0.0038
X-2.0715 Y1.1702 Z0.0011
X-2.0682 Y1.1669 Z0
G3 X-1.988 Y1.2545 Z-0.0065 I0.0401 J0.0438
X-2.0682 Y1.1669 Z-0.013 I-0.0401 J-0.0438
X-1.988 Y1.2545 Z-0.0195 I0.0401 J0.0438
X-2.0682 Y1.1669 Z-0.0261 I-0.0401 J-0.0438
X-1.988 Y1.2545 Z-0.0326 I0.0401 J0.0438
X-2.0682 Y1.1669 Z-0.0391 I-0.0401 J-0.0438
X-1.988 Y1.2545 Z-0.0456 I0.0401 J0.0438
X-2.0682 Y1.1669 Z-0.0521 I-0.0401 J-0.0438
X-1.988 Y1.2545 Z-0.0586 I0.0401 J0.0438
X-2.0682 Y1.1669 Z-0.0651 I-0.0401 J-0.0438
X-1.988 Y1.2545 Z-0.0717 I0.0401 J0.0438
X-2.077 Y1.2443 Z-0.0752 I-0.0401 J-0.0438
X-2.0546 Y1.1576 Z-0.0787 I0.0489 J-0.0336
X-2.0076 Y1.2518 I0.0235 J0.0471
G1 X-2.0077 Y1.252 F29.921
X-2.0207 Y1.2585
G3 X-2.0317 Y1.2517 I-0.0034 J-0.0068
G1 X-2.0316 Y1.237
Y1.2327
G3 X-2.0193 Y1.2204 I0.0123 J0
G1 X-1.9638 Y1.2203
X-1.9623 Y1.2206
X-1.961 Y1.2213
X-1.9599 Y1.2225
X-1.9593 Y1.2239
X-1.9592 Y1.2254
X-1.9597 Y1.2268
X-1.9605 Y1.2281
X-1.9617 Y1.229
X-2.0075 Y1.2519
G2 X-2.0465 Y1.294 I0.0364 J0.0728
G3 X-2.1028 Y1.283 I-0.0271 J-0.011
G1 Y1.1491
X-0.2593
Y1.6146
X-2.1028
Y1.3819
Y1.283
G3 X-2.0933 Y1.2754 I0.0078 J0
G1 X-1.9775 Y1.3009
G3 X-1.9757 Y1.3155 I-0.0017 J0.0076
G1 X-1.9964 Y1.326
G2 Y1.4378 I0.0279 J0.0559
G1 X-1.7996 Y1.5362
G2 X-1.7716 Y1.5428 I0.028 J-0.0559
G1 X-0.5905
G2 X-0.5626 Y1.5362 I0 J-0.0625
G1 X-0.3657 Y1.4378
G2 Y1.326 I-0.028 J-0.0559
G1 X-0.5626 Y1.2276
G2 X-0.5905 Y1.221 I-0.0279 J0.0559
G1 X-1.7716
G2 X-1.7996 Y1.2276 I0 J0.0625
G1 X-1.9757 Y1.3156
X-1.9769 Y1.3159
X-1.9781 Y1.3157
X-1.9792 Y1.3149
X-1.9798 Y1.3138
X-1.9839 Y1.3
X-2.0522 Y1.1771
X-2.0622 Y1.1663
X-2.0629 Y1.1652
X-2.063 Y1.1639
X-2.0626 Y1.1627
X-2.0617 Y1.1618
G3 X-1.9945 Y1.2596 Z-0.0853 I0.0336 J0.0489 F9.974
X-2.0617 Y1.1618 Z-0.0918 I-0.0336 J-0.0489
X-1.9945 Y1.2596 Z-0.0983 I0.0336 J0.0489
X-2.0617 Y1.1618 Z-0.1048 I-0.0336 J-0.0489
X-1.9945 Y1.2596 Z-0.1113 I0.0336 J0.0489
X-2.0792 Y1.2409 Z-0.1147 I-0.0336 J-0.0489
X-2.0546 Y1.1576 Z-0.1181 I0.0511 J-0.0302
X-2.0076 Y1.2518 I0.0235 J0.0471
G1 X-2.0207 Y1.2585 F29.921
G3 X-2.0317 Y1.2517 I-0.0034 J-0.0068
G1 X-2.0316 Y1.2327
G3 X-2.0193 Y1.2204 I0.0123 J0
G1 X-1.9638 Y1.2203
X-1.9623 Y1.2206
X-1.961 Y1.2213
X-1.9599 Y1.2225
X-1.9593 Y1.2239
X-1.9592 Y1.2254
X-1.9597 Y1.2268
X-1.9605 Y1.2281
X-1.9617 Y1.229
X-2.0075 Y1.2519
X-2.0097 Y1.2527 Z-0.1176
X-2.0121 Y1.2532 Z-0.1172
X-2.0141 Z-0.1158
X-2.0161 Y1.2528 Z-0.1144
X-2.0187 Y1.2519 Z-0.1104
X-2.0195 Y1.2514 Z-0.1056
Z-0.0269
X-2.0424 Y1.4447
X-2.0416 Y1.4443 Z-0.0316 F9.974
X-2.0392 Y1.4432 Z-0.0356
X-2.0356 Y1.4417 Z-0.0383
X-2.0312 Y1.4403 Z-0.0394
G3 X-1.9987 Y1.5545 Z-0.0459 I0.0162 J0.0571
X-2.0312 Y1.4403 Z-0.0524 I-0.0163 J-0.0571
X-1.9987 Y1.5545 Z-0.0589 I0.0162 J0.0571
X-2.0312 Y1.4403 Z-0.0654 I-0.0163 J-0.0571
X-1.9987 Y1.5545 Z-0.0719 I0.0162 J0.0571
X-2.0312 Y1.4403 Z-0.0785 I-0.0163 J-0.0571
X-1.9987 Y1.5545 Z-0.085 I0.0162 J0.0571
X-2.0312 Y1.4403 Z-0.0915 I-0.0163 J-0.0571
X-1.9987 Y1.5545 Z-0.098 I0.0162 J0.0571
X-2.0312 Y1.4403 Z-0.1045 I-0.0163 J-0.0571
X-1.9987 Y1.5545 Z-0.111 I0.0162 J0.0571
X-2.0738 Y1.5056 Z-0.1146 I-0.0163 J-0.0571
X-2.015 Y1.438 Z-0.1181 I0.0588 J-0.0082
Y1.5434 I0 J0.0527
G1 X-2.0193 F29.921
G3 X-2.0316 Y1.5311 I0 J-0.0123
G1 Y1.512
G3 X-2.0207 Y1.5053 I0.0075 J0
G1 X-1.9617 Y1.5348
X-1.9605 Y1.5357
X-1.9597 Y1.5369
X-1.9592 Y1.5384
X-1.9593 Y1.5399
X-1.9599 Y1.5413
X-1.961 Y1.5424
X-1.9623 Y1.5432
X-1.9638 Y1.5434
X-2.015
X-2.0173 Y1.5432 Z-0.1176
X-2.0196 Y1.5425 Z-0.1172
X-2.0214 Y1.5416 Z-0.1158
X-2.0231 Y1.5404 Z-0.1144
X-2.0249 Y1.5385 Z-0.1104
X-2.0255 Y1.5377 Z-0.1056
G0 Z0.1969
X-0.3746 Y1.4447
Z0.0787
G1 Z0.0031 F9.974
Z-0.0269 F3.937
X-0.3738 Y1.4443 Z-0.0316 F9.974
X-0.3715 Y1.4432 Z-0.0356
X-0.3679 Y1.4417 Z-0.0383
X-0.3635 Y1.4403 Z-0.0394
G3 X-0.331 Y1.5545 Z-0.0459 I0.0163 J0.0571
X-0.3634 Y1.4403 Z-0.0524 I-0.0162 J-0.0571
X-0.331 Y1.5545 Z-0.0589 I0.0162 J0.0571
X-0.3634 Y1.4403 Z-0.0654 I-0.0162 J-0.0571
X-0.331 Y1.5545 Z-0.0719 I0.0162 J0.0571
X-0.3634 Y1.4403 Z-0.0785 I-0.0162 J-0.0571
X-0.331 Y1.5545 Z-0.085 I0.0162 J0.0571
X-0.3634 Y1.4403 Z-0.0915 I-0.0162 J-0.0571
X-0.331 Y1.5545 Z-0.098 I0.0162 J0.0571
X-0.3634 Y1.4403 Z-0.1045 I-0.0162 J-0.0571
X-0.331 Y1.5545 Z-0.111 I0.0162 J0.0571
X-0.406 Y1.5056 Z-0.1146 I-0.0162 J-0.0571
X-0.3472 Y1.438 Z-0.1181 I0.0588 J-0.0082
Y1.5434 I0 J0.0527
G1 X-0.3984 F29.921
X-0.3999 Y1.5432
X-0.4012 Y1.5424
X-0.4022 Y1.5413
X-0.4028 Y1.5399
X-0.4029 Y1.5384
X-0.4025 Y1.5369
X-0.4017 Y1.5357
X-0.4004 Y1.5348
X-0.3545 Y1.5118
X-0.3415 Y1.5053
G3 X-0.3306 Y1.512 I0.0034 J0.0067
G1 Y1.5311
G3 X-0.3429 Y1.5434 I-0.0123 J0
G1 X-0.3472
X-0.3496 Y1.5432 Z-0.1176
X-0.3519 Y1.5425 Z-0.1172
X-0.3537 Y1.5416 Z-0.1158
X-0.3553 Y1.5404 Z-0.1144
X-0.3572 Y1.5385 Z-0.1104
X-0.3577 Y1.5377 Z-0.1056
G0 Z0.1969
X-0.3373 Y1.2096
Z0.0787
G1 Z0.0031 F9.974
Z-0.0269 F3.937
X-0.3369 Y1.2104 Z-0.0316 F9.974
X-0.3358 Y1.2127 Z-0.0356
X-0.3343 Y1.2163 Z-0.0383
X-0.3328 Y1.2208 Z-0.0394
G3 X-0.4472 Y1.2532 Z-0.0459 I-0.0572 J0.0162
X-0.3328 Y1.2207 Z-0.0524 I0.0572 J-0.0162
X-0.4472 Y1.2533 Z-0.0589 I-0.0572 J0.0163
X-0.3328 Y1.2207 Z-0.0654 I0.0572 J-0.0163
X-0.4472 Y1.2533 Z-0.0719 I-0.0572 J0.0163
X-0.3328 Y1.2207 Z-0.0785 I0.0572 J-0.0163
X-0.4472 Y1.2533 Z-0.085 I-0.0572 J0.0163
X-0.3328 Y1.2207 Z-0.0915 I0.0572 J-0.0163
X-0.4472 Y1.2533 Z-0.098 I-0.0572 J0.0163
X-0.3328 Y1.2207 Z-0.1045 I0.0572 J-0.0163
X-0.4472 Y1.2533 Z-0.111 I-0.0572 J0.0163
X-0.3982 Y1.1781 Z-0.1146 I0.0572 J-0.0163
X-0.3305 Y1.237 Z-0.1181 I0.0082 J0.0589
G1 X-0.3306 Y1.2517 F29.921
G3 X-0.3415 Y1.2584 I-0.0075 J0
G1 X-0.4004 Y1.229
X-0.4017 Y1.2281
X-0.4025 Y1.2268
X-0.4029 Y1.2254
X-0.4028 Y1.2239
X-0.4022 Y1.2225
X-0.4012 Y1.2213
X-0.3999 Y1.2206
X-0.3984 Y1.2203
X-0.3473
X-0.3429
G3 X-0.3305 Y1.2327 I0 J0.0124
G1 X-0.3306 Y1.237
G3 X-0.3554 Y1.2927 I-0.075 J0
X-0.4158 Y1.3009 I-0.0362 J-0.0402
G1 X-0.5626 Y1.2276
G2 X-0.5905 Y1.221 I-0.0279 J0.0559
G1 X-1.7716
G2 X-1.7996 Y1.2276 I0 J0.0625
G1 X-1.9964 Y1.326
G2 Y1.4378 I0.0279 J0.0559
G1 X-1.7996 Y1.5362
G2 X-1.7716 Y1.5428 I0.028 J-0.0559
G1 X-0.5905
G2 X-0.5626 Y1.5362 I0 J-0.0625
G1 X-0.3657 Y1.4378
G2 Y1.326 I-0.028 J-0.0559
G1 X-0.4158 Y1.3009
G3 X-0.4194 Y1.2905 I0.0035 J-0.007
G1 X-0.3546 Y1.1536
X-0.3534 Y1.1518
X-0.3517 Y1.1503
X-0.3497 Y1.1494
X-0.3475 Y1.1491
X-0.2593
Y1.6146
X-2.1028
Y1.3819
Y1.1491
X-0.3475
G3 X-0.3397 Y1.1561 I0 J0.0079
G1 X-0.3311 Y1.2288
G3 X-0.4489 Y1.2452 Z-0.1246 I-0.0589 J0.0082 F9.974
X-0.3311 Y1.2288 Z-0.1311 I0.0589 J-0.0082
X-0.4489 Y1.2452 Z-0.1377 I-0.0589 J0.0082
X-0.3311 Y1.2288 Z-0.1442 I0.0589 J-0.0082
X-0.4489 Y1.2452 Z-0.1507 I-0.0589 J0.0082
X-0.3941 Y1.1777 Z-0.1541 I0.0589 J-0.0082
X-0.3306 Y1.237 Z-0.1575 I0.0041 J0.0593
G1 Y1.2517 F29.921
G3 X-0.3415 Y1.2584 I-0.0075 J0
G1 X-0.4004 Y1.229
X-0.4017 Y1.2281
X-0.4025 Y1.2268
X-0.4029 Y1.2254
X-0.4028 Y1.2239
X-0.4022 Y1.2225
X-0.4012 Y1.2213
X-0.3999 Y1.2206
X-0.3984 Y1.2203
X-0.3429
G3 X-0.3305 Y1.2327 I0 J0.0124
G1 X-0.3306 Y1.237
X-0.3308 Y1.2394 Z-0.157
X-0.3315 Y1.2417 Z-0.1565
X-0.3324 Y1.2435 Z-0.1552
X-0.3336 Y1.2451 Z-0.1538
X-0.3355 Y1.247 Z-0.1498
X-0.3363 Y1.2475 Z-0.145
G0 Z0.1969
X-0.3746 Y1.4447
Z0.0787
G1 Z-0.0238 F9.974
Z-0.0662 F3.937
X-0.3738 Y1.4443 Z-0.0709 F9.974
X-0.3715 Y1.4432 Z-0.0749
X-0.3679 Y1.4417 Z-0.0777
X-0.3635 Y1.4403 Z-0.0787
G3 X-0.331 Y1.5545 Z-0.0853 I0.0163 J0.0571
X-0.3634 Y1.4403 Z-0.0918 I-0.0162 J-0.0571
X-0.331 Y1.5545 Z-0.0983 I0.0162 J0.0571
X-0.3634 Y1.4403 Z-0.1048 I-0.0162 J-0.0571
X-0.331 Y1.5545 Z-0.1113 I0.0162 J0.0571
X-0.3634 Y1.4403 Z-0.1178 I-0.0162 J-0.0571
X-0.331 Y1.5545 Z-0.1243 I0.0162 J0.0571
X-0.3634 Y1.4403 Z-0.1309 I-0.0162 J-0.0571
X-0.331 Y1.5545 Z-0.1374 I0.0162 J0.0571
X-0.3634 Y1.4403 Z-0.1439 I-0.0162 J-0.0571
X-0.331 Y1.5545 Z-0.1504 I0.0162 J0.0571
X-0.406 Y1.5056 Z-0.1539 I-0.0162 J-0.0571
X-0.3472 Y1.438 Z-0.1575 I0.0588 J-0.0082
Y1.5434 I0 J0.0527
G1 X-0.3984 F29.921
X-0.3999 Y1.5432
X-0.4012 Y1.5424
X-0.4022 Y1.5413
X-0.4028 Y1.5399
X-0.4029 Y1.5384
X-0.4025 Y1.5369
X-0.4017 Y1.5357
X-0.4004 Y1.5348
X-0.3415 Y1.5053
G3 X-0.3306 Y1.512 I0.0034 J0.0067
G1 Y1.5268
Y1.5311
G3 X-0.3429 Y1.5434 I-0.0123 J0
G1 X-0.3472
X-0.3496 Y1.5432 Z-0.157
X-0.3519 Y1.5425 Z-0.1565
X-0.3537 Y1.5416 Z-0.1552
X-0.3553 Y1.5404 Z-0.1538
X-0.3572 Y1.5385 Z-0.1498
X-0.3577 Y1.5377 Z-0.145
G0 Z0.1969
X-2.0424 Y1.4447
Z0.0787
G1 Z-0.0238 F9.974
Z-0.0662 F3.937
X-2.0416 Y1.4443 Z-0.0709 F9.974
X-2.0392 Y1.4432 Z-0.0749
X-2.0356 Y1.4417 Z-0.0777
X-2.0312 Y1.4403 Z-0.0787
G3 X-1.9987 Y1.5545 Z-0.0853 I0.0162 J0.0571
X-2.0312 Y1.4403 Z-0.0918 I-0.0163 J-0.0571
X-1.9987 Y1.5545 Z-0.0983 I0.0162 J0.0571
X-2.0312 Y1.4403 Z-0.1048 I-0.0163 J-0.0571
X-1.9987 Y1.5545 Z-0.1113 I0.0162 J0.0571
X-2.0312 Y1.4403 Z-0.1178 I-0.0163 J-0.0571
X-1.9987 Y1.5545 Z-0.1243 I0.0162 J0.0571
X-2.0312 Y1.4403 Z-0.1309 I-0.0163 J-0.0571
X-1.9987 Y1.5545 Z-0.1374 I0.0162 J0.0571
X-2.0312 Y1.4403 Z-0.1439 I-0.0163 J-0.0571
X-1.9987 Y1.5545 Z-0.1504 I0.0162 J0.0571
X-2.0738 Y1.5056 Z-0.1539 I-0.0163 J-0.0571
X-2.015 Y1.438 Z-0.1575 I0.0588 J-0.0082
Y1.5434 I0 J0.0527
G1 X-2.0193 F29.921
G3 X-2.0316 Y1.5311 I0 J-0.0123
G1 Y1.512
G3 X-2.0207 Y1.5053 I0.0075 J0
G1 X-1.9617 Y1.5348
X-1.9605 Y1.5357
X-1.9597 Y1.5369
X-1.9592 Y1.5384
X-1.9593 Y1.5399
X-1.9599 Y1.5413
X-1.961 Y1.5424
X-1.9623 Y1.5432
X-1.9638 Y1.5434
X-2.0149
X-2.015
X-2.0173 Y1.5432 Z-0.157
X-2.0196 Y1.5425 Z-0.1565
X-2.0214 Y1.5416 Z-0.1552
X-2.0231 Y1.5404 Z-0.1538
X-2.0249 Y1.5385 Z-0.1498
X-2.0255 Y1.5377 Z-0.145
Z-0.0662
X-2.0762 Y1.1759
X-2.0756 Y1.1751 Z-0.0709 F9.974
X-2.074 Y1.1731 Z-0.0749
X-2.0715 Y1.1702 Z-0.0777
X-2.0682 Y1.1669 Z-0.0787
G3 X-1.988 Y1.2545 Z-0.0853 I0.0401 J0.0438
X-2.0682 Y1.1669 Z-0.0918 I-0.0401 J-0.0438
X-1.988 Y1.2545 Z-0.0983 I0.0401 J0.0438
X-2.0682 Y1.1669 Z-0.1048 I-0.0401 J-0.0438
X-1.988 Y1.2545 Z-0.1113 I0.0401 J0.0438
X-2.0682 Y1.1669 Z-0.1178 I-0.0401 J-0.0438
X-1.988 Y1.2545 Z-0.1243 I0.0401 J0.0438
X-2.0682 Y1.1669 Z-0.1309 I-0.0401 J-0.0438
X-1.988 Y1.2545 Z-0.1374 I0.0401 J0.0438
X-2.0682 Y1.1669 Z-0.1439 I-0.0401 J-0.0438
X-1.988 Y1.2545 Z-0.1504 I0.0401 J0.0438
X-2.077 Y1.2443 Z-0.1539 I-0.0401 J-0.0438
X-2.0546 Y1.1576 Z-0.1575 I0.0489 J-0.0336
X-2.0076 Y1.2518 I0.0235 J0.0471
G1 X-2.0077 Y1.252 F29.921
X-2.0207 Y1.2585
G3 X-2.0317 Y1.2517 I-0.0034 J-0.0068
G1 X-2.0316 Y1.237
Y1.2327
G3 X-2.0193 Y1.2204 I0.0123 J0
G1 X-1.9638 Y1.2203
X-1.9623 Y1.2206
X-1.961 Y1.2213
X-1.9599 Y1.2225
X-1.9593 Y1.2239
X-1.9592 Y1.2254
X-1.9597 Y1.2268
X-1.9605 Y1.2281
X-1.9617 Y1.229
X-2.0075 Y1.2519
G2 X-2.0465 Y1.294 I0.0364 J0.0728
G3 X-2.1028 Y1.283 I-0.0271 J-0.011
G1 Y1.1491
X-0.2593
Y1.6146
X-2.1028
Y1.3819
Y1.283
G3 X-2.0933 Y1.2754 I0.0078 J0
G1 X-1.9775 Y1.3009
G3 X-1.9757 Y1.3155 I-0.0017 J0.0076
G1 X-1.9964 Y1.326
G2 Y1.4378 I0.0279 J0.0559
G1 X-1.7996 Y1.5362
G2 X-1.7716 Y1.5428 I0.028 J-0.0559
G1 X-0.5905
G2 X-0.5626 Y1.5362 I0 J-0.0625
G1 X-0.3657 Y1.4378
G2 Y1.326 I-0.028 J-0.0559
G1 X-0.5626 Y1.2276
G2 X-0.5905 Y1.221 I-0.0279 J0.0559
G1 X-1.7716
G2 X-1.7996 Y1.2276 I0 J0.0625
G1 X-1.9757 Y1.3156
X-1.9769 Y1.3159
X-1.9781 Y1.3157
X-1.9792 Y1.3149
X-1.9798 Y1.3138
X-1.9839 Y1.3
X-2.0522 Y1.1771
X-2.0622 Y1.1663
X-2.0629 Y1.1652
X-2.063 Y1.1639
X-2.0626 Y1.1627
X-2.0617 Y1.1618
G3 X-1.9945 Y1.2596 Z-0.164 I0.0336 J0.0489 F9.974
X-2.0617 Y1.1618 Z-0.1705 I-0.0336 J-0.0489
X-1.9945 Y1.2596 Z-0.177 I0.0336 J0.0489
X-2.0617 Y1.1618 Z-0.1835 I-0.0336 J-0.0489
X-1.9945 Y1.2596 Z-0.19 I0.0336 J0.0489
X-2.0792 Y1.2409 Z-0.1934 I-0.0336 J-0.0489
X-2.0546 Y1.1576 Z-0.1969 I0.0511 J-0.0302
X-2.0076 Y1.2518 I0.0235 J0.0471
G1 X-2.0207 Y1.2585 F29.921
G3 X-2.0317 Y1.2517 I-0.0034 J-0.0068
G1 X-2.0316 Y1.2327
G3 X-2.0193 Y1.2204 I0.0123 J0
G1 X-1.9638 Y1.2203
X-1.9623 Y1.2206
X-1.961 Y1.2213
X-1.9599 Y1.2225
X-1.9593 Y1.2239
X-1.9592 Y1.2254
X-1.9597 Y1.2268
X-1.9605 Y1.2281
X-1.9617 Y1.229
X-2.0075 Y1.2519
X-2.0097 Y1.2527 Z-0.1964
X-2.0121 Y1.2532 Z-0.1959
X-2.0141 Z-0.1945
X-2.0161 Y1.2528 Z-0.1932
X-2.0187 Y1.2519 Z-0.1891
X-2.0195 Y1.2514 Z-0.1844
Z-0.1056
X-2.0424 Y1.4447
X-2.0416 Y1.4443 Z-0.1103 F9.974
X-2.0392 Y1.4432 Z-0.1143
X-2.0356 Y1.4417 Z-0.117
X-2.0312 Y1.4403 Z-0.1181
G3 X-1.9987 Y1.5545 Z-0.1246 I0.0162 J0.0571
X-2.0312 Y1.4403 Z-0.1311 I-0.0163 J-0.0571
X-1.9987 Y1.5545 Z-0.1377 I0.0162 J0.0571
X-2.0312 Y1.4403 Z-0.1442 I-0.0163 J-0.0571
X-1.9987 Y1.5545 Z-0.1507 I0.0162 J0.0571
X-2.0312 Y1.4403 Z-0.1572 I-0.0163 J-0.0571
X-1.9987 Y1.5545 Z-0.1637 I0.0162 J0.0571
X-2.0312 Y1.4403 Z-0.1702 I-0.0163 J-0.0571
X-1.9987 Y1.5545 Z-0.1767 I0.0162 J0.0571
X-2.0312 Y1.4403 Z-0.1832 I-0.0163 J-0.0571
X-1.9987 Y1.5545 Z-0.1898 I0.0162 J0.0571
X-2.0738 Y1.5056 Z-0.1933 I-0.0163 J-0.0571
X-2.015 Y1.438 Z-0.1969 I0.0588 J-0.0082
Y1.5434 I0 J0.0527
G1 X-2.0193 F29.921
G3 X-2.0316 Y1.5311 I0 J-0.0123
G1 Y1.512
G3 X-2.0207 Y1.5053 I0.0075 J0
G1 X-1.9617 Y1.5348
X-1.9605 Y1.5357
X-1.9597 Y1.5369
X-1.9592 Y1.5384
X-1.9593 Y1.5399
X-1.9599 Y1.5413
X-1.961 Y1.5424
X-1.9623 Y1.5432
X-1.9638 Y1.5434
X-2.015
X-2.0173 Y1.5432 Z-0.1964
X-2.0196 Y1.5425 Z-0.1959
X-2.0214 Y1.5416 Z-0.1945
X-2.0231 Y1.5404 Z-0.1932
X-2.0249 Y1.5385 Z-0.1891
X-2.0255 Y1.5377 Z-0.1844
G0 Z0.1969
X-0.3746 Y1.4447
Z0.0787
G1 Z-0.0631 F9.974
Z-0.1056 F3.937
X-0.3738 Y1.4443 Z-0.1103 F9.974
X-0.3715 Y1.4432 Z-0.1143
X-0.3679 Y1.4417 Z-0.117
X-0.3635 Y1.4403 Z-0.1181
G3 X-0.331 Y1.5545 Z-0.1246 I0.0163 J0.0571
X-0.3634 Y1.4403 Z-0.1311 I-0.0162 J-0.0571
X-0.331 Y1.5545 Z-0.1377 I0.0162 J0.0571
X-0.3634 Y1.4403 Z-0.1442 I-0.0162 J-0.0571
X-0.331 Y1.5545 Z-0.1507 I0.0162 J0.0571
X-0.3634 Y1.4403 Z-0.1572 I-0.0162 J-0.0571
X-0.331 Y1.5545 Z-0.1637 I0.0162 J0.0571
X-0.3634 Y1.4403 Z-0.1702 I-0.0162 J-0.0571
X-0.331 Y1.5545 Z-0.1767 I0.0162 J0.0571
X-0.3634 Y1.4403 Z-0.1832 I-0.0162 J-0.0571
X-0.331 Y1.5545 Z-0.1898 I0.0162 J0.0571
X-0.406 Y1.5056 Z-0.1933 I-0.0162 J-0.0571
X-0.3472 Y1.438 Z-0.1969 I0.0588 J-0.0082
Y1.5434 I0 J0.0527
G1 X-0.3984 F29.921
X-0.3999 Y1.5432
X-0.4012 Y1.5424
X-0.4022 Y1.5413
X-0.4028 Y1.5399
X-0.4029 Y1.5384
X-0.4025 Y1.5369
X-0.4017 Y1.5357
X-0.4004 Y1.5348
X-0.3545 Y1.5118
X-0.3415 Y1.5053
G3 X-0.3306 Y1.512 I0.0034 J0.0067
G1 Y1.5311
G3 X-0.3429 Y1.5434 I-0.0123 J0
G1 X-0.3472
X-0.3496 Y1.5432 Z-0.1964
X-0.3519 Y1.5425 Z-0.1959
X-0.3537 Y1.5416 Z-0.1945
X-0.3553 Y1.5404 Z-0.1932
X-0.3572 Y1.5385 Z-0.1891
X-0.3577 Y1.5377 Z-0.1844
G0 Z0.1969
X-0.3373 Y1.2096
Z0.0787
G1 Z-0.0631 F9.974
Z-0.1056 F3.937
X-0.3369 Y1.2104 Z-0.1103 F9.974
X-0.3358 Y1.2127 Z-0.1143
X-0.3343 Y1.2163 Z-0.117
X-0.3328 Y1.2208 Z-0.1181
G3 X-0.4472 Y1.2532 Z-0.1246 I-0.0572 J0.0162
X-0.3328 Y1.2207 Z-0.1311 I0.0572 J-0.0162
X-0.4472 Y1.2533 Z-0.1377 I-0.0572 J0.0163
X-0.3328 Y1.2207 Z-0.1442 I0.0572 J-0.0163
X-0.4472 Y1.2533 Z-0.1507 I-0.0572 J0.0163
X-0.3328 Y1.2207 Z-0.1572 I0.0572 J-0.0163
X-0.4472 Y1.2533 Z-0.1637 I-0.0572 J0.0163
X-0.3328 Y1.2207 Z-0.1702 I0.0572 J-0.0163
X-0.4472 Y1.2533 Z-0.1767 I-0.0572 J0.0163
X-0.3328 Y1.2207 Z-0.1832 I0.0572 J-0.0163
X-0.4472 Y1.2533 Z-0.1898 I-0.0572 J0.0163
X-0.3982 Y1.1781 Z-0.1933 I0.0572 J-0.0163
X-0.3305 Y1.237 Z-0.1969 I0.0082 J0.0589
G1 X-0.3306 Y1.2517 F29.921
G3 X-0.3415 Y1.2584 I-0.0075 J0
G1 X-0.4004 Y1.229
X-0.4017 Y1.2281
X-0.4025 Y1.2268
X-0.4029 Y1.2254
X-0.4028 Y1.2239
X-0.4022 Y1.2225
X-0.4012 Y1.2213
X-0.3999 Y1.2206
X-0.3984 Y1.2203
X-0.3473
X-0.3429
G3 X-0.3305 Y1.2327 I0 J0.0124
G1 X-0.3306 Y1.237
G3 X-0.3554 Y1.2927 I-0.075 J0
X-0.4158 Y1.3009 I-0.0362 J-0.0402
G1 X-0.5626 Y1.2276
G2 X-0.5905 Y1.221 I-0.0279 J0.0559
G1 X-1.7716
G2 X-1.7996 Y1.2276 I0 J0.0625
G1 X-1.9964 Y1.326
G2 Y1.4378 I0.0279 J0.0559
G1 X-1.7996 Y1.5362
G2 X-1.7716 Y1.5428 I0.028 J-0.0559
G1 X-0.5905
G2 X-0.5626 Y1.5362 I0 J-0.0625
G1 X-0.3657 Y1.4378
G2 Y1.326 I-0.028 J-0.0559
G1 X-0.4158 Y1.3009
G3 X-0.4194 Y1.2905 I0.0035 J-0.007
G1 X-0.3546 Y1.1536
X-0.3534 Y1.1518
X-0.3517 Y1.1503
X-0.3497 Y1.1494
X-0.3475 Y1.1491
X-0.2593
Y1.6146
X-2.1028
Y1.3819
Y1.1491
X-0.3475
X-0.3451 Y1.1493 Z-0.1964
X-0.3428 Y1.15 Z-0.1959
X-0.341 Y1.1509 Z-0.1945
X-0.3394 Y1.1521 Z-0.1932
X-0.3375 Y1.1541 Z-0.1891
X-0.337 Y1.1549 Z-0.1844
G0 Z0.1969
X-2.0424 Y0.555
Z0.0787
G1 Z0.0519 F9.974
X-2.0416 Y0.5546 Z0.0472
X-2.0392 Y0.5534 Z0.0432
X-2.0356 Y0.552 Z0.0404
X-2.0312 Y0.5505 Z0.0394
G3 X-1.9987 Y0.6647 Z0.0329 I0.0162 J0.0571
X-2.0312 Y0.5505 Z0.0263 I-0.0163 J-0.0571
X-1.9987 Y0.6647 Z0.0198 I0.0162 J0.0571
X-2.0312 Y0.5505 Z0.0133 I-0.0163 J-0.0571
X-1.9987 Y0.6647 Z0.0068 I0.0162 J0.0571
X-2.0312 Y0.5505 Z0.0003 I-0.0163 J-0.0571
X-1.9987 Y0.6647 Z-0.0062 I0.0162 J0.0571
X-2.0312 Y0.5505 Z-0.0127 I-0.0163 J-0.0571
X-1.9987 Y0.6647 Z-0.0193 I0.0162 J0.0571
X-2.0312 Y0.5505 Z-0.0258 I-0.0163 J-0.0571
X-1.9987 Y0.6647 Z-0.0323 I0.0162 J0.0571
X-2.0738 Y0.6158 Z-0.0358 I-0.0163 J-0.0571
X-2.015 Y0.5482 Z-0.0394 I0.0588 J-0.0082
Y0.6538 I0 J0.0528
G1 X-2.0193 Y0.6537 F29.921
G3 X-2.0317 Y0.6413 I0 J-0.0124
G1 X-2.0316 Y0.6223
G3 X-2.0207 Y0.6156 I0.0075 J0
G1 X-1.9617 Y0.645
X-1.9605 Y0.6459
X-1.9597 Y0.6472
X-1.9592 Y0.6486
X-1.9593 Y0.6501
X-1.9599 Y0.6515
X-1.961 Y0.6527
X-1.9623 Y0.6534
X-1.9638 Y0.6537
X-2.015
X-2.0173 Y0.6534 Z-0.0389
X-2.0196 Y0.6528 Z-0.0384
X-2.0214 Y0.6519 Z-0.0371
X-2.0231 Y0.6507 Z-0.0357
X-2.0249 Y0.6487 Z-0.0317
X-2.0255 Y0.6479 Z-0.0269
Z0.0519
X-2.0762 Y0.2861
X-2.0756 Y0.2854 Z0.0472 F9.974
X-2.074 Y0.2833 Z0.0432
X-2.0715 Y0.2804 Z0.0404
X-2.0682 Y0.2771 Z0.0394
G3 X-1.988 Y0.3649 Z0.0329 I0.0401 J0.0439
X-2.0682 Y0.2771 Z0.0263 I-0.0401 J-0.0439
X-1.988 Y0.3649 Z0.0198 I0.0401 J0.0439
X-2.0682 Y0.2771 Z0.0133 I-0.0401 J-0.0439
X-1.988 Y0.3649 Z0.0068 I0.0401 J0.0439
X-2.0682 Y0.2771 Z0.0003 I-0.0401 J-0.0439
X-1.988 Y0.3649 Z-0.0062 I0.0401 J0.0439
X-2.0682 Y0.2771 Z-0.0127 I-0.0401 J-0.0439
X-1.988 Y0.3649 Z-0.0193 I0.0401 J0.0439
X-2.0682 Y0.2771 Z-0.0258 I-0.0401 J-0.0439
X-1.988 Y0.3649 Z-0.0323 I0.0401 J0.0439
X-2.0771 Y0.3546 Z-0.0358 I-0.0401 J-0.0439
X-2.0546 Y0.2678 Z-0.0394 I0.049 J-0.0336
X-1.9839 Y0.2914 I0.0235 J0.0472
X-2.0075 Y0.3622 I-0.0472 J0.0236
G1 X-2.0207 Y0.3687 F29.921
G3 X-2.0316 Y0.362 I-0.0034 J-0.0067
G1 Y0.3472
Y0.3429
G3 X-2.0193 Y0.3306 I0.0123 J0
G1 X-1.9638
X-1.9623 Y0.3308
X-1.961 Y0.3316
X-1.9599 Y0.3327
X-1.9593 Y0.3341
X-1.9592 Y0.3356
X-1.9596 Y0.3371
X-1.9605 Y0.3383
X-1.9617 Y0.3392
X-2.0075 Y0.3621
X-2.0097 Y0.363 Z-0.0389
X-2.0121 Y0.3634 Z-0.0384
X-2.0141 Z-0.0371
X-2.0161 Y0.3631 Z-0.0357
X-2.0187 Y0.3621 Z-0.0317
X-2.0195 Y0.3617 Z-0.0269
G0 Z0.1969
X-0.3373 Y0.3198
Z0.0787
G1 Z0.0519 F9.974
X-0.3369 Y0.3206 Z0.0472
X-0.3358 Y0.323 Z0.0432
X-0.3343 Y0.3266 Z0.0404
X-0.3328 Y0.331 Z0.0394
G3 X-0.4472 Y0.3635 Z0.0329 I-0.0572 J0.0162
X-0.3328 Y0.331 Z0.0263 I0.0572 J-0.0163
X-0.4472 Y0.3635 Z0.0198 I-0.0572 J0.0162
X-0.3328 Y0.331 Z0.0133 I0.0572 J-0.0163
X-0.4472 Y0.3635 Z0.0068 I-0.0572 J0.0162
X-0.3328 Y0.331 Z0.0003 I0.0572 J-0.0163
X-0.4472 Y0.3635 Z-0.0062 I-0.0572 J0.0162
X-0.3328 Y0.331 Z-0.0127 I0.0572 J-0.0163
X-0.4472 Y0.3635 Z-0.0193 I-0.0572 J0.0162
X-0.3328 Y0.331 Z-0.0258 I0.0572 J-0.0163
X-0.4472 Y0.3635 Z-0.0323 I-0.0572 J0.0162
X-0.3982 Y0.2883 Z-0.0358 I0.0572 J-0.0163
X-0.3305 Y0.3472 Z-0.0394 I0.0082 J0.0589
G1 X-0.3306 Y0.362 F29.921
G3 X-0.3415 Y0.3687 I-0.0075 J0
G1 X-0.4004 Y0.3392
X-0.4017 Y0.3383
X-0.4025 Y0.3371
X-0.4029 Y0.3356
X-0.4028 Y0.3341
X-0.4022 Y0.3327
X-0.4012 Y0.3316
X-0.3999 Y0.3308
X-0.3984 Y0.3306
X-0.3473
X-0.3429
G3 X-0.3306 Y0.3429 I0 J0.0123
G1 Y0.3472
Y0.637
Y0.6413
G3 X-0.3429 Y0.6536 I-0.0123 J0
G1 X-0.3984 Y0.6537
X-0.3999 Y0.6534
X-0.4012 Y0.6527
X-0.4022 Y0.6515
X-0.4028 Y0.6501
X-0.4029 Y0.6486
X-0.4025 Y0.6472
X-0.4017 Y0.6459
X-0.4004 Y0.645
X-0.3545 Y0.6221
X-0.3415 Y0.6155
G3 X-0.3305 Y0.6223 I0.0034 J0.0068
G1 X-0.3306 Y0.637
G2 X-0.3041 Y0.6775 I0.0442 J0
G3 X-0.314 Y0.725 I-0.0099 J0.0227
G1 X-2.1028 Y0.7249
Y0.2594
X-0.2593
Y0.4921
Y0.7249
X-0.314
X-0.3157 Y0.7247
X-0.3174 Y0.7241
X-0.3189 Y0.7231
X-0.3202 Y0.7218
X-0.3211 Y0.7203
X-0.3905 Y0.5689
G3 X-0.3869 Y0.5586 I0.0071 J-0.0033
G1 X-0.3657 Y0.548
G2 Y0.4362 I-0.028 J-0.0559
G1 X-0.5626 Y0.3378
G2 X-0.5905 Y0.3312 I-0.0279 J0.0559
G1 X-1.7716
G2 X-1.7996 Y0.3378 I0 J0.0625
G1 X-1.9964 Y0.4362
G2 Y0.548 I0.0279 J0.0559
G1 X-1.7996 Y0.6464
G2 X-1.7716 Y0.653 I0.028 J-0.0559
G1 X-0.5905
G2 X-0.5626 Y0.6464 I0 J-0.0625
G1 X-0.3869 Y0.5586
X-0.3554 Y0.5488
G3 X-0.339 Y0.6664 Z-0.0459 I0.0082 J0.0588 F9.974
X-0.3554 Y0.5488 Z-0.0524 I-0.0082 J-0.0588
X-0.339 Y0.6664 Z-0.0589 I0.0082 J0.0588
X-0.3554 Y0.5488 Z-0.0654 I-0.0082 J-0.0588
X-0.339 Y0.6664 Z-0.0719 I0.0082 J0.0588
X-0.4064 Y0.6117 Z-0.0753 I-0.0082 J-0.0588
X-0.3472 Y0.5483 Z-0.0787 I0.0592 J-0.0041
Y0.6537 I0 J0.0527
G1 X-0.3984 F29.921
X-0.3999 Y0.6534
X-0.4012 Y0.6527
X-0.4022 Y0.6515
X-0.4028 Y0.6501
X-0.4029 Y0.6486
X-0.4025 Y0.6472
X-0.4017 Y0.6459
X-0.4004 Y0.645
X-0.3415 Y0.6155
G3 X-0.3305 Y0.6223 I0.0034 J0.0068
G1 X-0.3306 Y0.6413
G3 X-0.3429 Y0.6536 I-0.0123 J0
G1 X-0.3472 Y0.6537
X-0.3496 Y0.6534 Z-0.0783
X-0.3519 Y0.6528 Z-0.0778
X-0.3537 Y0.6519 Z-0.0764
X-0.3553 Y0.6507 Z-0.0751
X-0.3572 Y0.6487 Z-0.071
X-0.3577 Y0.6479 Z-0.0662
G0 Z0.1969
X-0.3373 Y0.3198
Z0.0787
G1 Z0.0125 F9.974
X-0.3369 Y0.3206 Z0.0078
X-0.3358 Y0.323 Z0.0038
X-0.3343 Y0.3266 Z0.0011
X-0.3328 Y0.331 Z0
G3 X-0.4472 Y0.3635 Z-0.0065 I-0.0572 J0.0162
X-0.3328 Y0.331 Z-0.013 I0.0572 J-0.0163
X-0.4472 Y0.3635 Z-0.0195 I-0.0572 J0.0162
X-0.3328 Y0.331 Z-0.0261 I0.0572 J-0.0163
X-0.4472 Y0.3635 Z-0.0326 I-0.0572 J0.0162
X-0.3328 Y0.331 Z-0.0391 I0.0572 J-0.0163
X-0.4472 Y0.3635 Z-0.0456 I-0.0572 J0.0162
X-0.3328 Y0.331 Z-0.0521 I0.0572 J-0.0163
X-0.4472 Y0.3635 Z-0.0586 I-0.0572 J0.0162
X-0.3328 Y0.331 Z-0.0651 I0.0572 J-0.0163
X-0.4472 Y0.3635 Z-0.0717 I-0.0572 J0.0162
X-0.3982 Y0.2883 Z-0.0752 I0.0572 J-0.0163
X-0.3305 Y0.3472 Z-0.0787 I0.0082 J0.0589
G1 X-0.3306 Y0.362 F29.921
G3 X-0.3415 Y0.3687 I-0.0075 J0
G1 X-0.4004 Y0.3392
X-0.4017 Y0.3383
X-0.4025 Y0.3371
X-0.4029 Y0.3356
X-0.4028 Y0.3341
X-0.4022 Y0.3327
X-0.4012 Y0.3316
X-0.3999 Y0.3308
X-0.3984 Y0.3306
X-0.3429
G3 X-0.3306 Y0.3429 I0 J0.0123
G1 Y0.3472
X-0.3308 Y0.3496 Z-0.0783
X-0.3315 Y0.3519 Z-0.0778
X-0.3324 Y0.3537 Z-0.0764
X-0.3336 Y0.3553 Z-0.0751
X-0.3355 Y0.3572 Z-0.071
X-0.3363 Y0.3577 Z-0.0662
G0 Z0.1969
X-2.0762 Y0.2861
Z0.0787
G1 Z0.0125 F9.974
X-2.0756 Y0.2854 Z0.0078
X-2.074 Y0.2833 Z0.0038
X-2.0715 Y0.2804 Z0.0011
X-2.0682 Y0.2771 Z0
G3 X-1.988 Y0.3649 Z-0.0065 I0.0401 J0.0439
X-2.0682 Y0.2771 Z-0.013 I-0.0401 J-0.0439
X-1.988 Y0.3649 Z-0.0195 I0.0401 J0.0439
X-2.0682 Y0.2771 Z-0.0261 I-0.0401 J-0.0439
X-1.988 Y0.3649 Z-0.0326 I0.0401 J0.0439
X-2.0682 Y0.2771 Z-0.0391 I-0.0401 J-0.0439
X-1.988 Y0.3649 Z-0.0456 I0.0401 J0.0439
X-2.0682 Y0.2771 Z-0.0521 I-0.0401 J-0.0439
X-1.988 Y0.3649 Z-0.0586 I0.0401 J0.0439
X-2.0682 Y0.2771 Z-0.0651 I-0.0401 J-0.0439
X-1.988 Y0.3649 Z-0.0717 I0.0401 J0.0439
X-2.0771 Y0.3546 Z-0.0752 I-0.0401 J-0.0439
X-2.0546 Y0.2678 Z-0.0787 I0.049 J-0.0336
X-1.9839 Y0.2914 I0.0235 J0.0472
X-2.0075 Y0.3622 I-0.0472 J0.0236
G1 X-2.0077 F29.921
X-2.0207 Y0.3687
G3 X-2.0316 Y0.362 I-0.0034 J-0.0067
G1 Y0.3429
G3 X-2.0193 Y0.3306 I0.0123 J0
G1 X-1.9638
X-1.9623 Y0.3308
X-1.961 Y0.3316
X-1.9599 Y0.3327
X-1.9593 Y0.3341
X-1.9592 Y0.3356
X-1.9596 Y0.3371
X-1.9605 Y0.3383
X-1.9617 Y0.3392
X-2.0075 Y0.3621
X-2.0097 Y0.363 Z-0.0783
X-2.0121 Y0.3634 Z-0.0778
X-2.0141 Z-0.0764
X-2.0161 Y0.3631 Z-0.0751
X-2.0187 Y0.3621 Z-0.071
X-2.0195 Y0.3617 Z-0.0662
Z0.0125
X-2.0424 Y0.555
X-2.0416 Y0.5546 Z0.0078 F9.974
X-2.0392 Y0.5534 Z0.0038
X-2.0356 Y0.552 Z0.0011
X-2.0312 Y0.5505 Z0
G3 X-1.9987 Y0.6647 Z-0.0065 I0.0162 J0.0571
X-2.0312 Y0.5505 Z-0.013 I-0.0163 J-0.0571
X-1.9987 Y0.6647 Z-0.0195 I0.0162 J0.0571
X-2.0312 Y0.5505 Z-0.0261 I-0.0163 J-0.0571
X-1.9987 Y0.6647 Z-0.0326 I0.0162 J0.0571
X-2.0312 Y0.5505 Z-0.0391 I-0.0163 J-0.0571
X-1.9987 Y0.6647 Z-0.0456 I0.0162 J0.0571
X-2.0312 Y0.5505 Z-0.0521 I-0.0163 J-0.0571
X-1.9987 Y0.6647 Z-0.0586 I0.0162 J0.0571
X-2.0312 Y0.5505 Z-0.0651 I-0.0163 J-0.0571
X-1.9987 Y0.6647 Z-0.0717 I0.0162 J0.0571
X-2.0738 Y0.6158 Z-0.0752 I-0.0163 J-0.0571
X-2.015 Y0.5482 Z-0.0787 I0.0588 J-0.0082
Y0.6538 I0 J0.0528
G1 X-2.0193 Y0.6537 F29.921
G3 X-2.0317 Y0.6413 I0 J-0.0124
G1 X-2.0316 Y0.6223
G3 X-2.0207 Y0.6156 I0.0075 J0
G1 X-1.9617 Y0.645
X-1.9605 Y0.6459
X-1.9597 Y0.6472
X-1.9592 Y0.6486
X-1.9593 Y0.6501
X-1.9599 Y0.6515
X-1.961 Y0.6527
X-1.9623 Y0.6534
X-1.9638 Y0.6537
X-2.0149
X-2.015
G2 X-2.0554 Y0.6802 I0 J0.0441
G3 X-2.1029 Y0.6703 I-0.0227 J-0.0099
G1 X-2.1028 Y0.2594
X-0.2593
Y0.4921
Y0.7249
X-2.1028
Y0.6703
X-2.1025 Y0.6681
X-2.1017 Y0.6661
X-2.1003 Y0.6645
X-1.9847 Y0.5595
X-1.9832 Y0.5584
X-1.9814 Y0.5577
X-1.9796 Y0.5575
X-1.9777 Y0.5576
X-1.9759 Y0.5583
X-1.7996 Y0.6464
G2 X-1.7716 Y0.653 I0.028 J-0.0559
G1 X-0.5905
G2 X-0.5626 Y0.6464 I0 J-0.0625
G1 X-0.3657 Y0.548
G2 Y0.4362 I-0.028 J-0.0559
G1 X-0.5626 Y0.3378
G2 X-0.5905 Y0.3312 I-0.0279 J0.0559
G1 X-1.7716
G2 X-1.7996 Y0.3378 I0 J0.0625
G1 X-1.9964 Y0.4362
G2 Y0.548 I0.0279 J0.0559
G1 X-1.9759 Y0.5583
G3 X-1.981 Y0.573 I-0.0035 J0.007
G1 X-2.0236 Y0.5643
G3 X-2.0231 Y0.5488 I0.0015 J-0.0077
X-2.0068 Y0.6664 Z-0.0853 I0.0081 J0.0588 F9.974
X-2.0232 Y0.5488 Z-0.0918 I-0.0082 J-0.0588
X-2.0068 Y0.6664 Z-0.0983 I0.0082 J0.0588
X-2.0232 Y0.5488 Z-0.1048 I-0.0082 J-0.0588
X-2.0068 Y0.6664 Z-0.1113 I0.0082 J0.0588
X-2.0742 Y0.6117 Z-0.1147 I-0.0082 J-0.0588
X-2.015 Y0.5483 Z-0.1181 I0.0592 J-0.0041
Y0.6537 I0 J0.0527
G1 X-2.0193 F29.921
G3 X-2.0317 Y0.6413 I0 J-0.0124
G1 X-2.0316 Y0.6223
G3 X-2.0207 Y0.6156 I0.0075 J0
G1 X-1.9617 Y0.645
X-1.9605 Y0.6459
X-1.9597 Y0.6472
X-1.9592 Y0.6486
X-1.9593 Y0.6501
X-1.9599 Y0.6515
X-1.961 Y0.6527
X-1.9623 Y0.6534
X-1.9638 Y0.6537
X-2.015
X-2.0173 Y0.6534 Z-0.1176
X-2.0196 Y0.6528 Z-0.1172
X-2.0214 Y0.6519 Z-0.1158
X-2.0231 Y0.6507 Z-0.1144
X-2.0249 Y0.6487 Z-0.1104
X-2.0255 Y0.6479 Z-0.1056
Z-0.0269
X-2.0762 Y0.2861
X-2.0756 Y0.2854 Z-0.0316 F9.974
X-2.074 Y0.2833 Z-0.0356
X-2.0715 Y0.2804 Z-0.0383
X-2.0682 Y0.2771 Z-0.0394
G3 X-1.988 Y0.3649 Z-0.0459 I0.0401 J0.0439
X-2.0682 Y0.2771 Z-0.0524 I-0.0401 J-0.0439
X-1.988 Y0.3649 Z-0.0589 I0.0401 J0.0439
X-2.0682 Y0.2771 Z-0.0654 I-0.0401 J-0.0439
X-1.988 Y0.3649 Z-0.0719 I0.0401 J0.0439
X-2.0682 Y0.2771 Z-0.0785 I-0.0401 J-0.0439
X-1.988 Y0.3649 Z-0.085 I0.0401 J0.0439
X-2.0682 Y0.2771 Z-0.0915 I-0.0401 J-0.0439
X-1.988 Y0.3649 Z-0.098 I0.0401 J0.0439
X-2.0682 Y0.2771 Z-0.1045 I-0.0401 J-0.0439
X-1.988 Y0.3649 Z-0.111 I0.0401 J0.0439
X-2.0771 Y0.3546 Z-0.1146 I-0.0401 J-0.0439
X-2.0546 Y0.2678 Z-0.1181 I0.049 J-0.0336
X-1.9839 Y0.2914 I0.0235 J0.0472
X-2.0075 Y0.3622 I-0.0472 J0.0236
G1 X-2.0207 Y0.3687 F29.921
G3 X-2.0316 Y0.362 I-0.0034 J-0.0067
G1 Y0.3472
Y0.3429
G3 X-2.0193 Y0.3306 I0.0123 J0
G1 X-1.9638
X-1.9623 Y0.3308
X-1.961 Y0.3316
X-1.9599 Y0.3327
X-1.9593 Y0.3341
X-1.9592 Y0.3356
X-1.9596 Y0.3371
X-1.9605 Y0.3383
X-1.9617 Y0.3392
X-2.0075 Y0.3621
X-2.0097 Y0.363 Z-0.1176
X-2.0121 Y0.3634 Z-0.1172
X-2.0141 Z-0.1158
X-2.0161 Y0.3631 Z-0.1144
X-2.0187 Y0.3621 Z-0.1104
X-2.0195 Y0.3617 Z-0.1056
G0 Z0.1969
X-0.3373 Y0.3198
Z0.0787
G1 Z0.0031 F9.974
Z-0.0269 F3.937
X-0.3369 Y0.3206 Z-0.0316 F9.974
X-0.3358 Y0.323 Z-0.0356
X-0.3343 Y0.3266 Z-0.0383
X-0.3328 Y0.331 Z-0.0394
G3 X-0.4472 Y0.3635 Z-0.0459 I-0.0572 J0.0162
X-0.3328 Y0.331 Z-0.0524 I0.0572 J-0.0163
X-0.4472 Y0.3635 Z-0.0589 I-0.0572 J0.0162
X-0.3328 Y0.331 Z-0.0654 I0.0572 J-0.0163
X-0.4472 Y0.3635 Z-0.0719 I-0.0572 J0.0162
X-0.3328 Y0.331 Z-0.0785 I0.0572 J-0.0163
X-0.4472 Y0.3635 Z-0.085 I-0.0572 J0.0162
X-0.3328 Y0.331 Z-0.0915 I0.0572 J-0.0163
X-0.4472 Y0.3635 Z-0.098 I-0.0572 J0.0162
X-0.3328 Y0.331 Z-0.1045 I0.0572 J-0.0163
X-0.4472 Y0.3635 Z-0.111 I-0.0572 J0.0162
X-0.3982 Y0.2883 Z-0.1146 I0.0572 J-0.0163
X-0.3305 Y0.3472 Z-0.1181 I0.0082 J0.0589
G1 X-0.3306 Y0.362 F29.921
G3 X-0.3415 Y0.3687 I-0.0075 J0
G1 X-0.4004 Y0.3392
X-0.4017 Y0.3383
X-0.4025 Y0.3371
X-0.4029 Y0.3356
X-0.4028 Y0.3341
X-0.4022 Y0.3327
X-0.4012 Y0.3316
X-0.3999 Y0.3308
X-0.3984 Y0.3306
X-0.3473
X-0.3429
G3 X-0.3306 Y0.3429 I0 J0.0123
G1 Y0.3472
Y0.637
Y0.6413
G3 X-0.3429 Y0.6536 I-0.0123 J0
G1 X-0.3984 Y0.6537
X-0.3999 Y0.6534
X-0.4012 Y0.6527
X-0.4022 Y0.6515
X-0.4028 Y0.6501
X-0.4029 Y0.6486
X-0.4025 Y0.6472
X-0.4017 Y0.6459
X-0.4004 Y0.645
X-0.3545 Y0.6221
X-0.3415 Y0.6155
G3 X-0.3305 Y0.6223 I0.0034 J0.0068
G1 X-0.3306 Y0.637
G2 X-0.3041 Y0.6775 I0.0442 J0
G3 X-0.314 Y0.725 I-0.0099 J0.0227
G1 X-2.1028 Y0.7249
Y0.2594
X-0.2593
Y0.4921
Y0.7249
X-0.314
X-0.3157 Y0.7247
X-0.3174 Y0.7241
X-0.3189 Y0.7231
X-0.3202 Y0.7218
X-0.3211 Y0.7203
X-0.3905 Y0.5689
G3 X-0.3869 Y0.5586 I0.0071 J-0.0033
G1 X-0.3657 Y0.548
G2 Y0.4362 I-0.028 J-0.0559
G1 X-0.5626 Y0.3378
G2 X-0.5905 Y0.3312 I-0.0279 J0.0559
G1 X-1.7716
G2 X-1.7996 Y0.3378 I0 J0.0625
G1 X-1.9964 Y0.4362
G2 Y0.548 I0.0279 J0.0559
G1 X-1.7996 Y0.6464
G2 X-1.7716 Y0.653 I0.028 J-0.0559
G1 X-0.5905
G2 X-0.5626 Y0.6464 I0 J-0.0625
G1 X-0.3869 Y0.5586
X-0.3554 Y0.5488
G3 X-0.339 Y0.6664 Z-0.1246 I0.0082 J0.0588 F9.974
X-0.3554 Y0.5488 Z-0.1311 I-0.0082 J-0.0588
X-0.339 Y0.6664 Z-0.1377 I0.0082 J0.0588
X-0.3554 Y0.5488 Z-0.1442 I-0.0082 J-0.0588
X-0.339 Y0.6664 Z-0.1507 I0.0082 J0.0588
X-0.4064 Y0.6117 Z-0.1541 I-0.0082 J-0.0588
X-0.3472 Y0.5483 Z-0.1575 I0.0592 J-0.0041
Y0.6537 I0 J0.0527
G1 X-0.3984 F29.921
X-0.3999 Y0.6534
X-0.4012 Y0.6527
X-0.4022 Y0.6515
X-0.4028 Y0.6501
X-0.4029 Y0.6486
X-0.4025 Y0.6472
X-0.4017 Y0.6459
X-0.4004 Y0.645
X-0.3415 Y0.6155
G3 X-0.3305 Y0.6223 I0.0034 J0.0068
G1 X-0.3306 Y0.6413
G3 X-0.3429 Y0.6536 I-0.0123 J0
G1 X-0.3472 Y0.6537
X-0.3496 Y0.6534 Z-0.157
X-0.3519 Y0.6528 Z-0.1565
X-0.3537 Y0.6519 Z-0.1552
X-0.3553 Y0.6507 Z-0.1538
X-0.3572 Y0.6487 Z-0.1498
X-0.3577 Y0.6479 Z-0.145
G0 Z0.1969
X-0.3373 Y0.3198
Z0.0787
G1 Z-0.0238 F9.974
Z-0.0662 F3.937
X-0.3369 Y0.3206 Z-0.0709 F9.974
X-0.3358 Y0.323 Z-0.0749
X-0.3343 Y0.3266 Z-0.0777
X-0.3328 Y0.331 Z-0.0787
G3 X-0.4472 Y0.3635 Z-0.0853 I-0.0572 J0.0162
X-0.3328 Y0.331 Z-0.0918 I0.0572 J-0.0163
X-0.4472 Y0.3635 Z-0.0983 I-0.0572 J0.0162
X-0.3328 Y0.331 Z-0.1048 I0.0572 J-0.0163
X-0.4472 Y0.3635 Z-0.1113 I-0.0572 J0.0162
X-0.3328 Y0.331 Z-0.1178 I0.0572 J-0.0163
X-0.4472 Y0.3635 Z-0.1243 I-0.0572 J0.0162
X-0.3328 Y0.331 Z-0.1309 I0.0572 J-0.0163
X-0.4472 Y0.3635 Z-0.1374 I-0.0572 J0.0162
X-0.3328 Y0.331 Z-0.1439 I0.0572 J-0.0163
X-0.4472 Y0.3635 Z-0.1504 I-0.0572 J0.0162
X-0.3982 Y0.2883 Z-0.1539 I0.0572 J-0.0163
X-0.3305 Y0.3472 Z-0.1575 I0.0082 J0.0589
G1 X-0.3306 Y0.362 F29.921
G3 X-0.3415 Y0.3687 I-0.0075 J0
G1 X-0.4004 Y0.3392
X-0.4017 Y0.3383
X-0.4025 Y0.3371
X-0.4029 Y0.3356
X-0.4028 Y0.3341
X-0.4022 Y0.3327
X-0.4012 Y0.3316
X-0.3999 Y0.3308
X-0.3984 Y0.3306
X-0.3429
G3 X-0.3306 Y0.3429 I0 J0.0123
G1 Y0.3472
X-0.3308 Y0.3496 Z-0.157
X-0.3315 Y0.3519 Z-0.1565
X-0.3324 Y0.3537 Z-0.1552
X-0.3336 Y0.3553 Z-0.1538
X-0.3355 Y0.3572 Z-0.1498
X-0.3363 Y0.3577 Z-0.145
G0 Z0.1969
X-2.0762 Y0.2861
Z0.0787
G1 Z-0.0238 F9.974
Z-0.0662 F3.937
X-2.0756 Y0.2854 Z-0.0709 F9.974
X-2.074 Y0.2833 Z-0.0749
X-2.0715 Y0.2804 Z-0.0777
X-2.0682 Y0.2771 Z-0.0787
G3 X-1.988 Y0.3649 Z-0.0853 I0.0401 J0.0439
X-2.0682 Y0.2771 Z-0.0918 I-0.0401 J-0.0439
X-1.988 Y0.3649 Z-0.0983 I0.0401 J0.0439
X-2.0682 Y0.2771 Z-0.1048 I-0.0401 J-0.0439
X-1.988 Y0.3649 Z-0.1113 I0.0401 J0.0439
X-2.0682 Y0.2771 Z-0.1178 I-0.0401 J-0.0439
X-1.988 Y0.3649 Z-0.1243 I0.0401 J0.0439
X-2.0682 Y0.2771 Z-0.1309 I-0.0401 J-0.0439
X-1.988 Y0.3649 Z-0.1374 I0.0401 J0.0439
X-2.0682 Y0.2771 Z-0.1439 I-0.0401 J-0.0439
X-1.988 Y0.3649 Z-0.1504 I0.0401 J0.0439
X-2.0771 Y0.3546 Z-0.1539 I-0.0401 J-0.0439
X-2.0546 Y0.2678 Z-0.1575 I0.049 J-0.0336
X-1.9839 Y0.2914 I0.0235 J0.0472
X-2.0075 Y0.3622 I-0.0472 J0.0236
G1 X-2.0077 F29.921
X-2.0207 Y0.3687
G3 X-2.0316 Y0.362 I-0.0034 J-0.0067
G1 Y0.3429
G3 X-2.0193 Y0.3306 I0.0123 J0
G1 X-1.9638
X-1.9623 Y0.3308
X-1.961 Y0.3316
X-1.9599 Y0.3327
X-1.9593 Y0.3341
X-1.9592 Y0.3356
X-1.9596 Y0.3371
X-1.9605 Y0.3383
X-1.9617 Y0.3392
X-2.0075 Y0.3621
X-2.0097 Y0.363 Z-0.157
X-2.0121 Y0.3634 Z-0.1565
X-2.0141 Z-0.1552
X-2.0161 Y0.3631 Z-0.1538
X-2.0187 Y0.3621 Z-0.1498
X-2.0195 Y0.3617 Z-0.145
Z-0.0662
X-2.0424 Y0.555
X-2.0416 Y0.5546 Z-0.0709 F9.974
X-2.0392 Y0.5534 Z-0.0749
X-2.0356 Y0.552 Z-0.0777
X-2.0312 Y0.5505 Z-0.0787
G3 X-1.9987 Y0.6647 Z-0.0853 I0.0162 J0.0571
X-2.0312 Y0.5505 Z-0.0918 I-0.0163 J-0.0571
X-1.9987 Y0.6647 Z-0.0983 I0.0162 J0.0571
X-2.0312 Y0.5505 Z-0.1048 I-0.0163 J-0.0571
X-1.9987 Y0.6647 Z-0.1113 I0.0162 J0.0571
X-2.0312 Y0.5505 Z-0.1178 I-0.0163 J-0.0571
X-1.9987 Y0.6647 Z-0.1243 I0.0162 J0.0571
X-2.0312 Y0.5505 Z-0.1309 I-0.0163 J-0.0571
X-1.9987 Y0.6647 Z-0.1374 I0.0162 J0.0571
X-2.0312 Y0.5505 Z-0.1439 I-0.0163 J-0.0571
X-1.9987 Y0.6647 Z-0.1504 I0.0162 J0.0571
X-2.0738 Y0.6158 Z-0.1539 I-0.0163 J-0.0571
X-2.015 Y0.5482 Z-0.1575 I0.0588 J-0.0082
Y0.6538 I0 J0.0528
G1 X-2.0193 Y0.6537 F29.921
G3 X-2.0317 Y0.6413 I0 J-0.0124
G1 X-2.0316 Y0.6223
G3 X-2.0207 Y0.6156 I0.0075 J0
G1 X-1.9617 Y0.645
X-1.9605 Y0.6459
X-1.9597 Y0.6472
X-1.9592 Y0.6486
X-1.9593 Y0.6501
X-1.9599 Y0.6515
X-1.961 Y0.6527
X-1.9623 Y0.6534
X-1.9638 Y0.6537
X-2.0149
X-2.015
G2 X-2.0554 Y0.6802 I0 J0.0441
G3 X-2.1029 Y0.6703 I-0.0227 J-0.0099
G1 X-2.1028 Y0.2594
X-0.2593
Y0.4921
Y0.7249
X-2.1028
Y0.6703
X-2.1025 Y0.6681
X-2.1017 Y0.6661
X-2.1003 Y0.6645
X-1.9847 Y0.5595
X-1.9832 Y0.5584
X-1.9814 Y0.5577
X-1.9796 Y0.5575
X-1.9777 Y0.5576
X-1.9759 Y0.5583
X-1.7996 Y0.6464
G2 X-1.7716 Y0.653 I0.028 J-0.0559
G1 X-0.5905
G2 X-0.5626 Y0.6464 I0 J-0.0625
G1 X-0.3657 Y0.548
G2 Y0.4362 I-0.028 J-0.0559
G1 X-0.5626 Y0.3378
G2 X-0.5905 Y0.3312 I-0.0279 J0.0559
G1 X-1.7716
G2 X-1.7996 Y0.3378 I0 J0.0625
G1 X-1.9964 Y0.4362
G2 Y0.548 I0.0279 J0.0559
G1 X-1.9759 Y0.5583
G3 X-1.981 Y0.573 I-0.0035 J0.007
G1 X-2.0236 Y0.5643
G3 X-2.0231 Y0.5488 I0.0015 J-0.0077
X-2.0068 Y0.6664 Z-0.164 I0.0081 J0.0588 F9.974
X-2.0232 Y0.5488 Z-0.1705 I-0.0082 J-0.0588
X-2.0068 Y0.6664 Z-0.177 I0.0082 J0.0588
X-2.0232 Y0.5488 Z-0.1835 I-0.0082 J-0.0588
X-2.0068 Y0.6664 Z-0.19 I0.0082 J0.0588
X-2.0742 Y0.6117 Z-0.1934 I-0.0082 J-0.0588
X-2.015 Y0.5483 Z-0.1969 I0.0592 J-0.0041
Y0.6537 I0 J0.0527
G1 X-2.0193 F29.921
G3 X-2.0317 Y0.6413 I0 J-0.0124
G1 X-2.0316 Y0.6223
G3 X-2.0207 Y0.6156 I0.0075 J0
G1 X-1.9617 Y0.645
X-1.9605 Y0.6459
X-1.9597 Y0.6472
X-1.9592 Y0.6486
X-1.9593 Y0.6501
X-1.9599 Y0.6515
X-1.961 Y0.6527
X-1.9623 Y0.6534
X-1.9638 Y0.6537
X-2.015
X-2.0173 Y0.6534 Z-0.1964
X-2.0196 Y0.6528 Z-0.1959
X-2.0214 Y0.6519 Z-0.1945
X-2.0231 Y0.6507 Z-0.1932
X-2.0249 Y0.6487 Z-0.1891
X-2.0255 Y0.6479 Z-0.1844
Z-0.1056
X-2.0762 Y0.2861
X-2.0756 Y0.2854 Z-0.1103 F9.974
X-2.074 Y0.2833 Z-0.1143
X-2.0715 Y0.2804 Z-0.117
X-2.0682 Y0.2771 Z-0.1181
G3 X-1.988 Y0.3649 Z-0.1246 I0.0401 J0.0439
X-2.0682 Y0.2771 Z-0.1311 I-0.0401 J-0.0439
X-1.988 Y0.3649 Z-0.1377 I0.0401 J0.0439
X-2.0682 Y0.2771 Z-0.1442 I-0.0401 J-0.0439
X-1.988 Y0.3649 Z-0.1507 I0.0401 J0.0439
X-2.0682 Y0.2771 Z-0.1572 I-0.0401 J-0.0439
X-1.988 Y0.3649 Z-0.1637 I0.0401 J0.0439
X-2.0682 Y0.2771 Z-0.1702 I-0.0401 J-0.0439
X-1.988 Y0.3649 Z-0.1767 I0.0401 J0.0439
X-2.0682 Y0.2771 Z-0.1832 I-0.0401 J-0.0439
X-1.988 Y0.3649 Z-0.1898 I0.0401 J0.0439
X-2.0771 Y0.3546 Z-0.1933 I-0.0401 J-0.0439
X-2.0546 Y0.2678 Z-0.1969 I0.049 J-0.0336
X-1.9839 Y0.2914 I0.0235 J0.0472
X-2.0075 Y0.3622 I-0.0472 J0.0236
G1 X-2.0207 Y0.3687 F29.921
G3 X-2.0316 Y0.362 I-0.0034 J-0.0067
G1 Y0.3472
Y0.3429
G3 X-2.0193 Y0.3306 I0.0123 J0
G1 X-1.9638
X-1.9623 Y0.3308
X-1.961 Y0.3316
X-1.9599 Y0.3327
X-1.9593 Y0.3341
X-1.9592 Y0.3356
X-1.9596 Y0.3371
X-1.9605 Y0.3383
X-1.9617 Y0.3392
X-2.0075 Y0.3621
X-2.0097 Y0.363 Z-0.1964
X-2.0121 Y0.3634 Z-0.1959
X-2.0141 Z-0.1945
X-2.0161 Y0.3631 Z-0.1932
X-2.0187 Y0.3621 Z-0.1891
X-2.0195 Y0.3617 Z-0.1844
G0 Z0.1969
X-0.3373 Y0.3198
Z0.0787
G1 Z-0.0631 F9.974
Z-0.1056 F3.937
X-0.3369 Y0.3206 Z-0.1103 F9.974
X-0.3358 Y0.323 Z-0.1143
X-0.3343 Y0.3266 Z-0.117
X-0.3328 Y0.331 Z-0.1181
G3 X-0.4472 Y0.3635 Z-0.1246 I-0.0572 J0.0162
X-0.3328 Y0.331 Z-0.1311 I0.0572 J-0.0163
X-0.4472 Y0.3635 Z-0.1377 I-0.0572 J0.0162
X-0.3328 Y0.331 Z-0.1442 I0.0572 J-0.0163
X-0.4472 Y0.3635 Z-0.1507 I-0.0572 J0.0162
X-0.3328 Y0.331 Z-0.1572 I0.0572 J-0.0163
X-0.4472 Y0.3635 Z-0.1637 I-0.0572 J0.0162
X-0.3328 Y0.331 Z-0.1702 I0.0572 J-0.0163
X-0.4472 Y0.3635 Z-0.1767 I-0.0572 J0.0162
X-0.3328 Y0.331 Z-0.1832 I0.0572 J-0.0163
X-0.4472 Y0.3635 Z-0.1898 I-0.0572 J0.0162
X-0.3982 Y0.2883 Z-0.1933 I0.0572 J-0.0163
X-0.3305 Y0.3472 Z-0.1969 I0.0082 J0.0589
G1 X-0.3306 Y0.362 F29.921
G3 X-0.3415 Y0.3687 I-0.0075 J0
G1 X-0.4004 Y0.3392
X-0.4017 Y0.3383
X-0.4025 Y0.3371
X-0.4029 Y0.3356
X-0.4028 Y0.3341
X-0.4022 Y0.3327
X-0.4012 Y0.3316
X-0.3999 Y0.3308
X-0.3984 Y0.3306
X-0.3473
X-0.3429
G3 X-0.3306 Y0.3429 I0 J0.0123
G1 Y0.3472
Y0.637
Y0.6413
G3 X-0.3429 Y0.6536 I-0.0123 J0
G1 X-0.3984 Y0.6537
X-0.3999 Y0.6534
X-0.4012 Y0.6527
X-0.4022 Y0.6515
X-0.4028 Y0.6501
X-0.4029 Y0.6486
X-0.4025 Y0.6472
X-0.4017 Y0.6459
X-0.4004 Y0.645
X-0.3545 Y0.6221
X-0.3415 Y0.6155
G3 X-0.3305 Y0.6223 I0.0034 J0.0068
G1 X-0.3306 Y0.637
G2 X-0.3041 Y0.6775 I0.0442 J0
G3 X-0.314 Y0.725 I-0.0099 J0.0227
G1 X-2.1028 Y0.7249
Y0.2594
X-0.2593
Y0.4921
Y0.7249
X-0.314
X-0.3157 Y0.7247
X-0.3174 Y0.7241
X-0.3189 Y0.7231
X-0.3202 Y0.7218
X-0.3211 Y0.7203
X-0.3905 Y0.5689
G3 X-0.3869 Y0.5586 I0.0071 J-0.0033
G1 X-0.3657 Y0.548
G2 Y0.4362 I-0.028 J-0.0559
G1 X-0.5626 Y0.3378
G2 X-0.5905 Y0.3312 I-0.0279 J0.0559
G1 X-1.7716
G2 X-1.7996 Y0.3378 I0 J0.0625
G1 X-1.9964 Y0.4362
G2 Y0.548 I0.0279 J0.0559
G1 X-1.7996 Y0.6464
G2 X-1.7716 Y0.653 I0.028 J-0.0559
G1 X-0.5905
G2 X-0.5626 Y0.6464 I0 J-0.0625
G1 X-0.3869 Y0.5586
X-0.3846 Y0.5577 Z-0.1964
X-0.3823 Y0.5573 Z-0.1959
X-0.3803 Z-0.1945
X-0.3783 Y0.5576 Z-0.1932
X-0.3757 Y0.5586 Z-0.1891
X-0.3749 Y0.559 Z-0.1844
G0 Z0.3937
G28 G91 Z0
G90
G28 G91 X0 Y0
G90
M30
%
